AlexeiOvcharov/moveit_collision_checker/data/t6_trj_pos.csv
shoulder_pan_joint, shoulder_lift_joint, elbow_joint, wrist_1_joint, wrist_2_joint, wrist_3_joint
0.9453,-1.0986,-0.29558,-0.28334,-0.20127,1.9267
0.94531,-1.0986,-0.29561,-0.28334,-0.20126,1.9267
0.94536,-1.0985,-0.29569,-0.28336,-0.20122,1.9268
0.94543,-1.0985,-0.29581,-0.28339,-0.20116,1.9269
0.94554,-1.0984,-0.29599,-0.28344,-0.20107,1.927
0.94568,-1.0983,-0.29622,-0.2835,-0.20095,1.9272
0.94585,-1.0982,-0.29651,-0.28357,-0.20081,1.9274
0.94605,-1.098,-0.29684,-0.28365,-0.20065,1.9276
0.94628,-1.0979,-0.29722,-0.28375,-0.20045,1.9279
0.94654,-1.0977,-0.29766,-0.28385,-0.20024,1.9282
0.94683,-1.0975,-0.29814,-0.28398,-0.19999,1.9285
0.94715,-1.0973,-0.29868,-0.28411,-0.19972,1.9289
0.94751,-1.097,-0.29927,-0.28426,-0.19943,1.9293
0.94789,-1.0968,-0.29991,-0.28442,-0.19911,1.9297
0.94831,-1.0965,-0.3006,-0.28459,-0.19876,1.9302
0.94875,-1.0962,-0.30134,-0.28478,-0.19839,1.9307
0.94923,-1.0958,-0.30214,-0.28497,-0.198,1.9312
0.94973,-1.0955,-0.30298,-0.28519,-0.19757,1.9318
0.95027,-1.0951,-0.30388,-0.28541,-0.19713,1.9324
0.95084,-1.0947,-0.30483,-0.28565,-0.19665,1.9331
0.95144,-1.0943,-0.30582,-0.2859,-0.19615,1.9338
0.95207,-1.0939,-0.30687,-0.28616,-0.19563,1.9345
0.95273,-1.0934,-0.30797,-0.28643,-0.19508,1.9352
0.95342,-1.0929,-0.30913,-0.28672,-0.1945,1.936
0.95414,-1.0924,-0.31033,-0.28702,-0.1939,1.9369
0.9549,-1.0919,-0.31158,-0.28734,-0.19327,1.9377
0.95568,-1.0914,-0.31289,-0.28766,-0.19262,1.9386
0.95649,-1.0908,-0.31425,-0.288,-0.19194,1.9396
0.95734,-1.0902,-0.31565,-0.28835,-0.19124,1.9405
0.95821,-1.0896,-0.31711,-0.28872,-0.19051,1.9415
0.95912,-1.089,-0.31862,-0.2891,-0.18975,1.9426
0.96006,-1.0883,-0.32019,-0.28949,-0.18897,1.9436
0.96102,-1.0876,-0.3218,-0.28989,-0.18817,1.9447
0.96202,-1.087,-0.32346,-0.29031,-0.18733,1.9459
0.96305,-1.0862,-0.32518,-0.29073,-0.18648,1.9471
0.96411,-1.0855,-0.32694,-0.29118,-0.18559,1.9483
0.9652,-1.0847,-0.32876,-0.29163,-0.18468,1.9495
0.96632,-1.084,-0.33063,-0.2921,-0.18375,1.9508
0.96748,-1.0832,-0.33255,-0.29258,-0.18279,1.9521
0.96866,-1.0823,-0.33452,-0.29307,-0.1818,1.9535
0.96987,-1.0815,-0.33654,-0.29358,-0.18079,1.9549
0.97112,-1.0806,-0.33862,-0.29409,-0.17976,1.9563
0.97239,-1.0798,-0.34074,-0.29463,-0.17869,1.9578
0.9737,-1.0788,-0.34292,-0.29517,-0.17761,1.9593
0.97503,-1.0779,-0.34515,-0.29573,-0.17649,1.9608
0.9764,-1.077,-0.34742,-0.2963,-0.17535,1.9624
0.9778,-1.076,-0.34975,-0.29688,-0.17419,1.964
0.97923,-1.075,-0.35213,-0.29747,-0.173,1.9656
0.98068,-1.074,-0.35457,-0.29808,-0.17178,1.9673
0.98217,-1.073,-0.35705,-0.2987,-0.17054,1.969
0.9837,-1.0719,-0.35958,-0.29934,-0.16927,1.9707
0.98525,-1.0708,-0.36217,-0.29998,-0.16798,1.9725
0.98683,-1.0697,-0.36481,-0.30064,-0.16666,1.9743
0.98844,-1.0686,-0.36749,-0.30131,-0.16532,1.9762
0.99009,-1.0675,-0.37023,-0.302,-0.16395,1.978
0.99176,-1.0663,-0.37302,-0.3027,-0.16255,1.98
0.99346,-1.0651,-0.37587,-0.30341,-0.16113,1.9819
0.9952,-1.0639,-0.37876,-0.30413,-0.15969,1.9839
0.99697,-1.0627,-0.3817,-0.30487,-0.15821,1.9859
0.99876,-1.0614,-0.3847,-0.30561,-0.15672,1.988
1.0006,-1.0602,-0.38774,-0.30638,-0.15519,1.9901
1.0024,-1.0589,-0.39084,-0.30715,-0.15364,1.9922
1.0043,-1.0576,-0.39399,-0.30794,-0.15207,1.9944
1.0063,-1.0562,-0.39719,-0.30874,-0.15047,1.9966
1.0082,-1.0549,-0.40044,-0.30955,-0.14884,1.9988
1.0102,-1.0535,-0.40374,-0.31038,-0.14719,2.0011
1.0122,-1.0521,-0.4071,-0.31121,-0.14552,2.0034
1.0142,-1.0507,-0.4105,-0.31207,-0.14381,2.0057
1.0163,-1.0492,-0.41396,-0.31293,-0.14209,2.0081
1.0184,-1.0478,-0.41747,-0.31381,-0.14033,2.0105
1.0206,-1.0463,-0.42102,-0.3147,-0.13855,2.013
1.0227,-1.0448,-0.42463,-0.3156,-0.13675,2.0154
1.0249,-1.0433,-0.42829,-0.31651,-0.13492,2.018
1.0271,-1.0417,-0.43201,-0.31744,-0.13306,2.0205
1.0294,-1.0402,-0.43577,-0.31838,-0.13118,2.0231
1.0317,-1.0386,-0.43958,-0.31934,-0.12927,2.0257
1.034,-1.037,-0.44345,-0.3203,-0.12734,2.0284
1.0364,-1.0353,-0.44737,-0.32128,-0.12538,2.0311
1.0387,-1.0337,-0.45133,-0.32227,-0.1234,2.0338
1.0412,-1.032,-0.45535,-0.32328,-0.12139,2.0366
1.0436,-1.0303,-0.45942,-0.3243,-0.11935,2.0394
1.0461,-1.0286,-0.46355,-0.32533,-0.11729,2.0422
1.0486,-1.0268,-0.46772,-0.32637,-0.11521,2.0451
1.0511,-1.0251,-0.47194,-0.32743,-0.11309,2.048
1.0537,-1.0233,-0.47622,-0.32849,-0.11096,2.0509
1.0563,-1.0215,-0.48054,-0.32958,-0.10879,2.0539
1.0589,-1.0197,-0.48492,-0.33067,-0.1066,2.0569
1.0616,-1.0178,-0.48935,-0.33178,-0.10439,2.0599
1.0642,-1.016,-0.49383,-0.3329,-0.10215,2.063
1.067,-1.0141,-0.49836,-0.33403,-0.099885,2.0661
1.0697,-1.0122,-0.50294,-0.33518,-0.097594,2.0693
1.0725,-1.0102,-0.50758,-0.33633,-0.095277,2.0725
1.0753,-1.0083,-0.51226,-0.33751,-0.092935,2.0757
1.0781,-1.0063,-0.517,-0.33869,-0.090567,2.0789
1.081,-1.0043,-0.52179,-0.33989,-0.088173,2.0822
1.0839,-1.0023,-0.52662,-0.3411,-0.085754,2.0856
1.0869,-1.0003,-0.53151,-0.34232,-0.083309,2.0889
1.0898,-0.99821,-0.53645,-0.34355,-0.080839,2.0923
1.0928,-0.99613,-0.54145,-0.3448,-0.078343,2.0958
1.0958,-0.99403,-0.54649,-0.34606,-0.075821,2.0992
1.0989,-0.9919,-0.55158,-0.34734,-0.073274,2.1027
1.102,-0.98976,-0.55673,-0.34862,-0.070701,2.1063
1.1051,-0.98759,-0.56193,-0.34992,-0.068103,2.1098
1.1082,-0.98541,-0.56717,-0.35123,-0.065479,2.1134
1.1114,-0.9832,-0.57247,-0.35256,-0.062829,2.1171
1.1146,-0.98097,-0.57782,-0.3539,-0.060154,2.1208
1.1179,-0.97872,-0.58323,-0.35525,-0.057453,2.1245
1.1212,-0.97645,-0.58868,-0.35661,-0.054727,2.1282
1.1245,-0.97415,-0.59418,-0.35799,-0.051975,2.132
1.1278,-0.97184,-0.59974,-0.35937,-0.049197,2.1358
1.1312,-0.9695,-0.60534,-0.36078,-0.046394,2.1397
1.1345,-0.96715,-0.611,-0.36219,-0.043565,2.1436
1.138,-0.96477,-0.61671,-0.36362,-0.040711,2.1475
1.1414,-0.96237,-0.62247,-0.36506,-0.037831,2.1515
1.1449,-0.95995,-0.62828,-0.36651,-0.034925,2.1555
1.1484,-0.9575,-0.63414,-0.36798,-0.031994,2.1595
1.152,-0.95504,-0.64006,-0.36945,-0.029037,2.1636
1.1556,-0.95255,-0.64602,-0.37095,-0.026055,2.1677
1.1592,-0.95005,-0.65204,-0.37245,-0.023047,2.1718
1.1628,-0.94752,-0.65811,-0.37397,-0.020013,2.176
1.1665,-0.94497,-0.66422,-0.3755,-0.016954,2.1802
1.1702,-0.9424,-0.67039,-0.37704,-0.013869,2.1844
1.1739,-0.93981,-0.67661,-0.37859,-0.010759,2.1887
1.1777,-0.93719,-0.68289,-0.38016,-0.0076226,2.193
1.1815,-0.93456,-0.68921,-0.38174,-0.004461,2.1973
1.1853,-0.9319,-0.69558,-0.38334,-0.0012738,2.2017
1.1892,-0.92923,-0.70201,-0.38494,0.001939,2.2061
1.193,-0.92653,-0.70849,-0.38656,0.0051774,2.2106
1.197,-0.92381,-0.71501,-0.38819,0.0084414,2.2151
1.2009,-0.92107,-0.72159,-0.38984,0.011731,2.2196
1.2049,-0.9183,-0.72822,-0.3915,0.015046,2.2242
1.2089,-0.91552,-0.73491,-0.39317,0.018387,2.2288
1.2129,-0.91271,-0.74164,-0.39485,0.021753,2.2334
1.217,-0.90989,-0.74842,-0.39655,0.025145,2.2381
1.2211,-0.90704,-0.75526,-0.39825,0.028563,2.2428
1.2252,-0.90417,-0.76214,-0.39998,0.032006,2.2475
1.2294,-0.90128,-0.76908,-0.40171,0.035475,2.2523
1.2336,-0.89837,-0.77607,-0.40346,0.038969,2.2571
1.2378,-0.89543,-0.78311,-0.40522,0.042489,2.2619
1.2421,-0.89248,-0.7902,-0.40699,0.046035,2.2668
1.2464,-0.8895,-0.79734,-0.40878,0.049606,2.2717
1.2507,-0.88651,-0.80454,-0.41057,0.053203,2.2766
1.255,-0.88349,-0.81178,-0.41239,0.056825,2.2816
1.2594,-0.88045,-0.81908,-0.41421,0.060473,2.2866
1.2638,-0.87739,-0.82643,-0.41605,0.064147,2.2917
1.2682,-0.8743,-0.83382,-0.4179,0.067846,2.2968
1.2727,-0.8712,-0.84127,-0.41976,0.071571,2.3019
1.2772,-0.86807,-0.84877,-0.42163,0.075321,2.307
1.2817,-0.86493,-0.85633,-0.42352,0.079097,2.3122
1.2863,-0.86176,-0.86393,-0.42542,0.082899,2.3175
1.2909,-0.85857,-0.87158,-0.42734,0.086726,2.3227
1.2955,-0.85536,-0.87929,-0.42926,0.090579,2.328
1.3002,-0.85213,-0.88705,-0.4312,0.094457,2.3334
1.3049,-0.84887,-0.89485,-0.43315,0.098361,2.3387
1.3096,-0.8456,-0.90271,-0.43512,0.10229,2.3441
1.3143,-0.8423,-0.91062,-0.4371,0.10625,2.3496
1.3191,-0.83899,-0.91859,-0.43909,0.11023,2.355
1.3239,-0.83565,-0.9266,-0.44109,0.11423,2.3605
1.3287,-0.83229,-0.93466,-0.44311,0.11827,2.3661
1.3336,-0.82891,-0.94278,-0.44513,0.12232,2.3717
1.3385,-0.8255,-0.95094,-0.44718,0.12641,2.3773
1.3434,-0.82208,-0.95916,-0.44923,0.13052,2.3829
1.3484,-0.81863,-0.96743,-0.4513,0.13465,2.3886
1.3534,-0.81517,-0.97575,-0.45338,0.13881,2.3943
1.3584,-0.81168,-0.98412,-0.45547,0.143,2.4001
1.3635,-0.80817,-0.99254,-0.45758,0.14721,2.4059
1.3686,-0.80464,-1.001,-0.45969,0.15144,2.4117
1.3737,-0.80109,-1.0095,-0.46183,0.15571,2.4176
1.3788,-0.79751,-1.0181,-0.46397,0.15999,2.4235
1.384,-0.79392,-1.0267,-0.46613,0.16431,2.4294
1.3892,-0.7903,-1.0354,-0.4683,0.16865,2.4354
1.3944,-0.78667,-1.0442,-0.47048,0.17301,2.4414
1.3963,-0.7854,-1.0472,-0.47124,0.17453,2.4435
1.4015,-0.78181,-1.0559,-0.47346,0.1789,2.4495
1.4066,-0.77835,-1.0646,-0.47573,0.18324,2.4555
1.4117,-0.77503,-1.0732,-0.47806,0.18753,2.4615
1.4167,-0.77184,-1.0817,-0.48044,0.1918,2.4675
1.4217,-0.76879,-1.0901,-0.48288,0.19602,2.4735
1.4265,-0.76587,-1.0984,-0.48537,0.20021,2.4795
1.4313,-0.76309,-1.1067,-0.48791,0.20436,2.4855
1.436,-0.76044,-1.1149,-0.4905,0.20846,2.4915
1.4406,-0.75794,-1.123,-0.49315,0.21253,2.4975
1.4452,-0.75557,-1.131,-0.49585,0.21656,2.5034
1.4497,-0.75334,-1.139,-0.49861,0.22055,2.5094
1.4541,-0.75126,-1.1468,-0.50141,0.2245,2.5153
1.4584,-0.74931,-1.1546,-0.50427,0.2284,2.5213
1.4627,-0.74751,-1.1623,-0.50718,0.23226,2.5272
1.4668,-0.74584,-1.1699,-0.51014,0.23608,2.5332
1.4709,-0.74432,-1.1774,-0.51315,0.23985,2.5391
1.4749,-0.74294,-1.1849,-0.51621,0.24358,2.545
1.4789,-0.7417,-1.1922,-0.51933,0.24726,2.5509
1.4827,-0.74061,-1.1995,-0.52249,0.2509,2.5568
1.4865,-0.73966,-1.2067,-0.5257,0.25449,2.5627
1.4902,-0.73885,-1.2138,-0.52897,0.25804,2.5686
1.4938,-0.73819,-1.2208,-0.53228,0.26153,2.5745
1.4974,-0.73767,-1.2278,-0.53565,0.26498,2.5804
1.5008,-0.73729,-1.2346,-0.53906,0.26838,2.5863
1.5042,-0.73706,-1.2414,-0.54252,0.27173,2.5922
1.5075,-0.73697,-1.2481,-0.54603,0.27503,2.598
1.5107,-0.73703,-1.2547,-0.54959,0.27828,2.6039
1.5139,-0.73723,-1.2612,-0.55319,0.28148,2.6097
1.5169,-0.73757,-1.2677,-0.55685,0.28463,2.6156
1.5199,-0.73806,-1.274,-0.56055,0.28773,2.6214
1.5228,-0.7387,-1.2803,-0.56429,0.29078,2.6273
1.5257,-0.73947,-1.2865,-0.56809,0.29377,2.6331
1.5284,-0.74039,-1.2926,-0.57192,0.29671,2.6389
1.5311,-0.74146,-1.2986,-0.57581,0.2996,2.6447
1.5336,-0.74266,-1.3045,-0.57974,0.30243,2.6505
1.5361,-0.74401,-1.3103,-0.58371,0.30521,2.6563
1.5386,-0.7455,-1.3161,-0.58773,0.30793,2.6621
1.5409,-0.74714,-1.3218,-0.59179,0.3106,2.6679
1.5431,-0.74891,-1.3274,-0.59589,0.31321,2.6737
1.5453,-0.75083,-1.3329,-0.60004,0.31577,2.6795
1.5474,-0.75288,-1.3383,-0.60423,0.31827,2.6853
1.5494,-0.75508,-1.3436,-0.60846,0.32072,2.6911
1.5514,-0.75741,-1.3489,-0.61273,0.3231,2.6968
1.5532,-0.75988,-1.3541,-0.61705,0.32543,2.7026
1.555,-0.7625,-1.3592,-0.6214,0.3277,2.7084
1.5567,-0.76524,-1.3642,-0.62579,0.32992,2.7141
1.5583,-0.76813,-1.3691,-0.63023,0.33207,2.7199
1.5599,-0.77115,-1.374,-0.6347,0.33417,2.7256
1.5613,-0.77431,-1.3788,-0.63921,0.33621,2.7313
1.5627,-0.7776,-1.3834,-0.64376,0.33819,2.7371
1.564,-0.78102,-1.3881,-0.64834,0.3401,2.7428
1.5652,-0.78458,-1.3926,-0.65297,0.34196,2.7485
1.5664,-0.78826,-1.397,-0.65763,0.34376,2.7542
1.5674,-0.79208,-1.4014,-0.66232,0.3455,2.76
1.5684,-0.79603,-1.4057,-0.66705,0.34718,2.7657
1.5693,-0.8001,-1.4099,-0.67181,0.34879,2.7714
1.5702,-0.8043,-1.4141,-0.67661,0.35035,2.7771
1.5709,-0.80863,-1.4182,-0.68144,0.35184,2.7828
1.5716,-0.81309,-1.4222,-0.6863,0.35327,2.7885
1.5722,-0.81766,-1.4261,-0.6912,0.35464,2.7941
1.5728,-0.82236,-1.4299,-0.69613,0.35595,2.7998
1.5732,-0.82718,-1.4337,-0.70108,0.3572,2.8055
1.5736,-0.83212,-1.4374,-0.70607,0.35838,2.8112
1.5739,-0.83718,-1.441,-0.71109,0.3595,2.8169
1.5741,-0.84236,-1.4446,-0.71613,0.36056,2.8225
1.5743,-0.84765,-1.4481,-0.72121,0.36156,2.8282
1.5743,-0.85306,-1.4515,-0.72631,0.36249,2.8339
1.5744,-0.85858,-1.4548,-0.73144,0.36336,2.8395
1.5743,-0.86421,-1.4581,-0.73659,0.36417,2.8452
1.5741,-0.86995,-1.4613,-0.74177,0.36491,2.8508
1.5739,-0.8758,-1.4645,-0.74698,0.36559,2.8565
1.5737,-0.88176,-1.4676,-0.75221,0.36621,2.8621
1.5733,-0.88782,-1.4706,-0.75746,0.36676,2.8678
1.5729,-0.89399,-1.4735,-0.76273,0.36725,2.8734
1.5724,-0.90026,-1.4764,-0.76803,0.36768,2.879
1.5718,-0.90663,-1.4793,-0.77335,0.36804,2.8847
1.5712,-0.9131,-1.482,-0.77869,0.36834,2.8903
1.5705,-0.91966,-1.4847,-0.78405,0.36858,2.8959
1.5697,-0.92632,-1.4874,-0.78942,0.36875,2.9016
1.5689,-0.93307,-1.49,-0.79482,0.36886,2.9072
1.568,-0.93992,-1.4925,-0.80023,0.3689,2.9128
1.567,-0.94685,-1.495,-0.80566,0.36889,2.9184
1.566,-0.95387,-1.4974,-0.81111,0.3688,2.924
1.5649,-0.96098,-1.4998,-0.81657,0.36866,2.9296
1.5637,-0.96817,-1.5021,-0.82205,0.36845,2.9353
1.5625,-0.97545,-1.5043,-0.82754,0.36818,2.9409
1.5612,-0.9828,-1.5065,-0.83304,0.36784,2.9465
1.5599,-0.99023,-1.5087,-0.83855,0.36744,2.9521
1.5585,-0.99774,-1.5108,-0.84408,0.36698,2.9577
1.557,-1.0053,-1.5129,-0.84961,0.36646,2.9633
1.5555,-1.013,-1.5149,-0.85516,0.36587,2.9689
1.5539,-1.0207,-1.5168,-0.86071,0.36522,2.9745
1.5522,-1.0285,-1.5188,-0.86627,0.36451,2.9801
1.5505,-1.0364,-1.5206,-0.87184,0.36373,2.9857
1.5488,-1.0443,-1.5225,-0.87742,0.36289,2.9913
1.5469,-1.0523,-1.5243,-0.883,0.36199,2.9969
1.5451,-1.0603,-1.526,-0.88859,0.36103,3.0025
1.5431,-1.0684,-1.5277,-0.89418,0.36001,3.0081
1.5411,-1.0766,-1.5294,-0.89977,0.35893,3.0137
1.5391,-1.0848,-1.5311,-0.90536,0.35778,3.0193
1.537,-1.093,-1.5327,-0.91096,0.35657,3.0249
1.5349,-1.1013,-1.5342,-0.91656,0.35531,3.0305
1.5327,-1.1097,-1.5358,-0.92215,0.35398,3.0361
1.5304,-1.1181,-1.5373,-0.92775,0.35259,3.0417
1.5281,-1.1265,-1.5388,-0.93334,0.35114,3.0472
1.5258,-1.135,-1.5402,-0.93893,0.34963,3.0528
1.5234,-1.1435,-1.5416,-0.94451,0.34807,3.0584
1.521,-1.1521,-1.543,-0.9501,0.34644,3.064
1.5185,-1.1607,-1.5444,-0.95567,0.34475,3.0696
1.516,-1.1693,-1.5457,-0.96124,0.34301,3.0752
1.5134,-1.1779,-1.547,-0.9668,0.34121,3.0808
1.5108,-1.1866,-1.5483,-0.97235,0.33935,3.0864
1.5081,-1.1953,-1.5496,-0.97789,0.33743,3.092
1.5054,-1.204,-1.5509,-0.98343,0.33545,3.0976
1.5027,-1.2127,-1.5521,-0.98895,0.33342,3.1032
1.4999,-1.2214,-1.5533,-0.99446,0.33133,3.1088
1.4971,-1.2302,-1.5545,-0.99995,0.32919,3.1144
1.4942,-1.239,-1.5557,-1.0054,0.32699,3.12
1.4914,-1.2477,-1.5569,-1.0109,0.32473,3.1256
1.4884,-1.2565,-1.558,-1.0164,0.32242,3.1312
1.4855,-1.2653,-1.5592,-1.0218,0.32005,3.1368
1.4825,-1.2741,-1.5603,-1.0272,0.31764,3.1424
1.4794,-1.2829,-1.5614,-1.0326,0.31516,3.148
1.4764,-1.2917,-1.5626,-1.038,0.31264,3.1536
1.4733,-1.3004,-1.5637,-1.0434,0.31006,3.1592
1.4702,-1.3092,-1.5648,-1.0487,0.30743,3.1649
1.467,-1.318,-1.5659,-1.054,0.30475,3.1705
1.4638,-1.3267,-1.567,-1.0593,0.30201,3.1761
1.4606,-1.3354,-1.5681,-1.0646,0.29923,3.1817
1.4574,-1.3441,-1.5692,-1.0698,0.29639,3.1873
1.4541,-1.3528,-1.5703,-1.075,0.29351,3.193
1.4509,-1.3615,-1.5715,-1.0802,0.29057,3.1986
1.4475,-1.3702,-1.5726,-1.0854,0.28759,3.2042
1.4442,-1.3788,-1.5737,-1.0905,0.28456,3.2098
1.4409,-1.3874,-1.5748,-1.0956,0.28148,3.2155
1.4375,-1.3959,-1.576,-1.1007,0.27835,3.2211
1.4341,-1.4044,-1.5771,-1.1058,0.27518,3.2268
1.4307,-1.4129,-1.5783,-1.1108,0.27196,3.2324
1.4273,-1.4213,-1.5794,-1.1158,0.2687,3.238
1.4238,-1.4297,-1.5806,-1.1207,0.26539,3.2437
1.4204,-1.4381,-1.5818,-1.1256,0.26204,3.2493
1.4169,-1.4464,-1.583,-1.1305,0.25864,3.255
1.4134,-1.4547,-1.5842,-1.1353,0.2552,3.2606
1.41,-1.4629,-1.5854,-1.1401,0.25172,3.2663
1.4064,-1.471,-1.5867,-1.1449,0.24819,3.272
1.4029,-1.4791,-1.588,-1.1496,0.24463,3.2776
1.3994,-1.4872,-1.5893,-1.1543,0.24102,3.2833
1.3959,-1.4952,-1.5906,-1.1589,0.23738,3.289
1.3923,-1.5031,-1.5919,-1.1635,0.23369,3.2946
1.3888,-1.5109,-1.5933,-1.1681,0.22997,3.3003
1.3853,-1.5187,-1.5947,-1.1726,0.22621,3.306
1.3817,-1.5264,-1.5961,-1.177,0.22241,3.3117
1.3782,-1.5341,-1.5975,-1.1815,0.21857,3.3174
1.3746,-1.5417,-1.599,-1.1858,0.2147,3.3231
1.3711,-1.5492,-1.6005,-1.1901,0.21079,3.3288
1.3675,-1.5566,-1.602,-1.1944,0.20685,3.3344
1.364,-1.5639,-1.6036,-1.1986,0.20287,3.3402
1.3604,-1.5712,-1.6052,-1.2028,0.19887,3.3459
1.3569,-1.5783,-1.6068,-1.2069,0.19482,3.3516
1.3533,-1.5854,-1.6084,-1.211,0.19075,3.3573
1.3498,-1.5924,-1.6101,-1.215,0.18665,3.363
1.3463,-1.5993,-1.6119,-1.219,0.18251,3.3687
1.3427,-1.6061,-1.6136,-1.2229,0.17835,3.3744
1.3392,-1.6129,-1.6154,-1.2267,0.17416,3.3802
1.3357,-1.6195,-1.6173,-1.2305,0.16994,3.3859
1.3323,-1.626,-1.6191,-1.2343,0.16569,3.3916
1.3288,-1.6324,-1.6211,-1.2379,0.16141,3.3974
1.3253,-1.6388,-1.623,-1.2416,0.15711,3.4031
1.3219,-1.645,-1.625,-1.2451,0.15279,3.4088
1.3184,-1.6511,-1.6271,-1.2486,0.14844,3.4146
1.315,-1.6571,-1.6292,-1.252,0.14407,3.4203
1.3116,-1.663,-1.6313,-1.2554,0.13967,3.4261
1.3082,-1.6688,-1.6335,-1.2587,0.13525,3.4319
1.3049,-1.6745,-1.6357,-1.262,0.13081,3.4376
1.3016,-1.68,-1.638,-1.2651,0.12635,3.4434
1.2982,-1.6854,-1.6403,-1.2683,0.12187,3.4492
1.2949,-1.6908,-1.6426,-1.2713,0.11738,3.4549
1.2917,-1.696,-1.645,-1.2743,0.11286,3.4607
1.2884,-1.7011,-1.6475,-1.2772,0.10833,3.4665
1.2852,-1.706,-1.65,-1.28,0.10378,3.4723
1.282,-1.7108,-1.6526,-1.2828,0.099216,3.478
1.2788,-1.7156,-1.6552,-1.2855,0.094638,3.4838
1.2757,-1.7201,-1.6578,-1.2881,0.090045,3.4896
1.2726,-1.7246,-1.6606,-1.2907,0.085439,3.4954
1.2695,-1.7289,-1.6633,-1.2932,0.080821,3.5012
1.2665,-1.7331,-1.6661,-1.2956,0.076192,3.507
1.2635,-1.7371,-1.669,-1.2979,0.071552,3.5128
1.2605,-1.7411,-1.6719,-1.3001,0.066903,3.5186
1.2575,-1.7449,-1.6749,-1.3023,0.062245,3.5244
1.2546,-1.7485,-1.6779,-1.3044,0.057578,3.5302
1.2517,-1.752,-1.681,-1.3064,0.052905,3.536
1.2489,-1.7554,-1.6842,-1.3084,0.048225,3.5419
1.2461,-1.7586,-1.6874,-1.3103,0.04354,3.5477
1.2433,-1.7617,-1.6906,-1.312,0.038851,3.5535
1.2406,-1.7647,-1.6939,-1.3138,0.034157,3.5593
1.2379,-1.7675,-1.6973,-1.3154,0.029461,3.5651
1.2353,-1.7701,-1.7007,-1.3169,0.024763,3.5709
1.2327,-1.7726,-1.7042,-1.3184,0.020064,3.5768
1.2302,-1.775,-1.7077,-1.3198,0.015364,3.5826
1.2277,-1.7772,-1.7113,-1.321,0.010665,3.5884
1.2252,-1.7793,-1.715,-1.3223,0.0059676,3.5943
1.2228,-1.7812,-1.7187,-1.3234,0.0012724,3.6001
1.2204,-1.783,-1.7225,-1.3244,-0.0034196,3.6059
1.2181,-1.7846,-1.7263,-1.3254,-0.0081076,3.6117
1.2158,-1.786,-1.7302,-1.3262,-0.012791,3.6176
1.2136,-1.7873,-1.7341,-1.327,-0.017468,3.6234
1.2114,-1.7885,-1.7381,-1.3277,-0.022139,3.6292
1.2093,-1.7895,-1.7421,-1.3283,-0.026802,3.6351
1.2072,-1.7904,-1.7462,-1.3288,-0.031456,3.6409
1.2052,-1.7911,-1.7504,-1.3292,-0.036102,3.6467
1.2032,-1.7916,-1.7546,-1.3295,-0.040737,3.6526
1.2013,-1.792,-1.7589,-1.3298,-0.045361,3.6584
1.1995,-1.7922,-1.7632,-1.3299,-0.049974,3.6642
1.1977,-1.7923,-1.7676,-1.33,-0.054573,3.6701
1.1959,-1.7922,-1.7721,-1.3299,-0.059159,3.6759
1.1942,-1.7919,-1.7766,-1.3298,-0.063731,3.6817
1.1926,-1.7915,-1.7811,-1.3295,-0.068287,3.6875
1.191,-1.791,-1.7858,-1.3292,-0.072827,3.6933
1.1895,-1.7903,-1.7904,-1.3288,-0.07735,3.6992
1.1881,-1.7894,-1.7952,-1.3283,-0.081855,3.705
1.1867,-1.7883,-1.7999,-1.3277,-0.086342,3.7108
1.1854,-1.7872,-1.8048,-1.327,-0.090808,3.7166
1.1841,-1.7858,-1.8096,-1.3262,-0.095254,3.7224
1.1829,-1.7843,-1.8146,-1.3253,-0.099679,3.7282
1.1818,-1.7826,-1.8196,-1.3243,-0.10408,3.734
1.1807,-1.7808,-1.8246,-1.3232,-0.10846,3.7398
1.1797,-1.7788,-1.8297,-1.322,-0.11282,3.7456
1.1787,-1.7766,-1.8349,-1.3207,-0.11715,3.7514
1.1778,-1.7743,-1.8401,-1.3193,-0.12145,3.7572
1.177,-1.7719,-1.8453,-1.3178,-0.12573,3.763
1.1763,-1.7692,-1.8506,-1.3162,-0.12998,3.7687
1.1756,-1.7665,-1.856,-1.3145,-0.13421,3.7745
1.175,-1.7635,-1.8613,-1.3127,-0.1384,3.7803
1.1744,-1.7604,-1.8668,-1.3108,-0.14256,3.786
1.174,-1.7572,-1.8723,-1.3088,-0.1467,3.7918
1.1735,-1.7538,-1.8778,-1.3067,-0.1508,3.7975
1.1732,-1.7502,-1.8834,-1.3045,-0.15487,3.8032
1.1729,-1.7465,-1.889,-1.3022,-0.15891,3.809
1.1728,-1.7426,-1.8947,-1.2998,-0.16291,3.8147
1.1726,-1.7386,-1.9004,-1.2973,-0.16688,3.8204
1.1726,-1.7344,-1.9061,-1.2946,-0.17081,3.8261
1.1726,-1.7301,-1.9119,-1.2919,-0.17471,3.8318
1.1727,-1.7256,-1.9177,-1.2891,-0.17857,3.8375
1.1729,-1.721,-1.9236,-1.2862,-0.18239,3.8431
1.1731,-1.7162,-1.9295,-1.2832,-0.18617,3.8488
1.1734,-1.7112,-1.9354,-1.28,-0.18992,3.8544
1.1738,-1.7061,-1.9414,-1.2768,-0.19362,3.8601
1.1743,-1.7009,-1.9474,-1.2734,-0.19728,3.8657
1.1748,-1.6955,-1.9534,-1.27,-0.2009,3.8713
1.1754,-1.69,-1.9595,-1.2664,-0.20448,3.8769
1.1761,-1.6843,-1.9656,-1.2628,-0.20801,3.8825
1.1769,-1.6785,-1.9718,-1.259,-0.2115,3.8881
1.1777,-1.6726,-1.9779,-1.2551,-0.21495,3.8937
1.1786,-1.6665,-1.9841,-1.2512,-0.21835,3.8992
1.1796,-1.6602,-1.9903,-1.2471,-0.2217,3.9048
1.1807,-1.6538,-1.9966,-1.2429,-0.22501,3.9103
1.1818,-1.6473,-2.0028,-1.2386,-0.22826,3.9158
1.183,-1.6406,-2.0091,-1.2342,-0.23147,3.9213
1.1843,-1.6339,-2.0155,-1.2297,-0.23463,3.9268
1.1857,-1.6269,-2.0218,-1.2251,-0.23775,3.9322
1.1872,-1.6199,-2.0281,-1.2204,-0.24081,3.9377
1.1887,-1.6127,-2.0345,-1.2156,-0.24381,3.9431
1.1903,-1.6053,-2.0409,-1.2106,-0.24677,3.9485
1.192,-1.5979,-2.0473,-1.2056,-0.24967,3.9539
1.1938,-1.5903,-2.0537,-1.2005,-0.25252,3.9593
1.1956,-1.5826,-2.0601,-1.1952,-0.25532,3.9647
1.1975,-1.5748,-2.0665,-1.1899,-0.25806,3.97
1.1995,-1.5668,-2.073,-1.1844,-0.26075,3.9753
1.2016,-1.5587,-2.0794,-1.1789,-0.26338,3.9806
1.2038,-1.5505,-2.0859,-1.1732,-0.26595,3.9859
1.206,-1.5422,-2.0924,-1.1674,-0.26846,3.9911
1.2083,-1.5338,-2.0988,-1.1616,-0.27092,3.9964
1.2107,-1.5252,-2.1053,-1.1556,-0.27332,4.0016
1.2132,-1.5165,-2.1117,-1.1495,-0.27566,4.0067
1.2158,-1.5078,-2.1182,-1.1433,-0.27794,4.0119
1.2184,-1.4989,-2.1247,-1.137,-0.28016,4.017
1.2211,-1.4899,-2.1311,-1.1306,-0.28232,4.0222
1.2239,-1.4808,-2.1375,-1.1241,-0.28442,4.0272
1.2268,-1.4716,-2.144,-1.1175,-0.28645,4.0323
1.2297,-1.4623,-2.1504,-1.1108,-0.28842,4.0373
1.2327,-1.4529,-2.1568,-1.104,-0.29033,4.0423
1.2358,-1.4434,-2.1632,-1.0971,-0.29217,4.0473
1.239,-1.4338,-2.1696,-1.0901,-0.29395,4.0523
1.2423,-1.4241,-2.176,-1.0829,-0.29567,4.0572
1.2456,-1.4143,-2.1823,-1.0757,-0.29732,4.0621
1.249,-1.4044,-2.1886,-1.0684,-0.2989,4.067
1.2525,-1.3944,-2.195,-1.061,-0.30042,4.0718
1.2561,-1.3843,-2.2012,-1.0534,-0.30187,4.0766
1.2597,-1.3742,-2.2075,-1.0458,-0.30325,4.0814
1.2634,-1.364,-2.2137,-1.0381,-0.30456,4.0861
1.2672,-1.3537,-2.2199,-1.0303,-0.30581,4.0908
1.2711,-1.3433,-2.2261,-1.0223,-0.30698,4.0955
1.275,-1.3328,-2.2322,-1.0143,-0.30809,4.1001
1.2791,-1.3223,-2.2383,-1.0062,-0.30913,4.1047
1.2832,-1.3117,-2.2444,-0.99795,-0.31009,4.1093
1.2873,-1.301,-2.2504,-0.98963,-0.31099,4.1138
1.2916,-1.2902,-2.2564,-0.98121,-0.31182,4.1183
1.2959,-1.2794,-2.2623,-0.97269,-0.31257,4.1228
1.3003,-1.2685,-2.2682,-0.96408,-0.31325,4.1272
1.3048,-1.2576,-2.274,-0.95537,-0.31386,4.1316
1.3093,-1.2466,-2.2798,-0.94656,-0.31439,4.1359
1.3139,-1.2356,-2.2856,-0.93766,-0.31486,4.1402
1.3186,-1.2244,-2.2913,-0.92866,-0.31524,4.1445
1.3234,-1.2133,-2.2969,-0.91957,-0.31556,4.1487
1.3282,-1.2021,-2.3025,-0.91039,-0.3158,4.1529
1.3331,-1.1908,-2.3081,-0.90111,-0.31597,4.157
1.3381,-1.1795,-2.3135,-0.89174,-0.31606,4.1611
1.3431,-1.1682,-2.3189,-0.88228,-0.31607,4.1651
1.3482,-1.1568,-2.3243,-0.87272,-0.31601,4.1692
1.3534,-1.1454,-2.3296,-0.86308,-0.31588,4.1731
1.3586,-1.1339,-2.3348,-0.85335,-0.31566,4.177
1.3639,-1.1224,-2.3399,-0.84352,-0.31538,4.1809
1.3693,-1.1109,-2.345,-0.83361,-0.31501,4.1847
1.3748,-1.0994,-2.35,-0.82361,-0.31457,4.1885
1.3803,-1.0878,-2.3549,-0.81353,-0.31405,4.1922
1.3858,-1.0762,-2.3598,-0.80335,-0.31345,4.1959
1.3915,-1.0646,-2.3645,-0.79309,-0.31278,4.1995
1.3972,-1.0529,-2.3692,-0.78275,-0.31203,4.2031
1.403,-1.0413,-2.3738,-0.77232,-0.3112,4.2066
1.4088,-1.0296,-2.3783,-0.76181,-0.31029,4.2101
1.4147,-1.0179,-2.3828,-0.75121,-0.3093,4.2135
1.4206,-1.0062,-2.3871,-0.74053,-0.30823,4.2169
1.4267,-0.99455,-2.3914,-0.72977,-0.30709,4.2202
1.4327,-0.98285,-2.3955,-0.71893,-0.30586,4.2234
1.4389,-0.97115,-2.3996,-0.70801,-0.30456,4.2266
1.4451,-0.95945,-2.4036,-0.69701,-0.30318,4.2298
1.4513,-0.94775,-2.4074,-0.68593,-0.30172,4.2328
1.4576,-0.93606,-2.4112,-0.67477,-0.30018,4.2359
1.464,-0.92438,-2.4149,-0.66354,-0.29855,4.2388
1.4704,-0.91271,-2.4184,-0.65223,-0.29685,4.2417
1.4769,-0.90105,-2.4219,-0.64085,-0.29507,4.2446
1.4834,-0.88941,-2.4253,-0.62939,-0.29321,4.2474
1.49,-0.87779,-2.4285,-0.61786,-0.29127,4.2501
1.4966,-0.86618,-2.4316,-0.60625,-0.28925,4.2528
1.5033,-0.8546,-2.4347,-0.59458,-0.28715,4.2554
1.5101,-0.84305,-2.4376,-0.58283,-0.28497,4.2579
1.5168,-0.83152,-2.4403,-0.57102,-0.28271,4.2604
1.5237,-0.82002,-2.443,-0.55913,-0.28037,4.2628
1.5306,-0.80855,-2.4456,-0.54718,-0.27795,4.2651
1.5375,-0.79712,-2.448,-0.53516,-0.27545,4.2674
1.5445,-0.78572,-2.4503,-0.52308,-0.27287,4.2696
1.5515,-0.77437,-2.4525,-0.51093,-0.27021,4.2717
1.5586,-0.76305,-2.4545,-0.49872,-0.26747,4.2738
1.5657,-0.75178,-2.4565,-0.48644,-0.26465,4.2758
1.5728,-0.74056,-2.4583,-0.4741,-0.26175,4.2777
1.58,-0.72938,-2.4599,-0.4617,-0.25877,4.2796
1.5873,-0.71826,-2.4614,-0.44924,-0.25571,4.2814
1.5946,-0.70719,-2.4628,-0.43673,-0.25257,4.2831
1.6019,-0.69617,-2.4641,-0.42415,-0.24935,4.2847
1.6092,-0.68522,-2.4652,-0.41152,-0.24605,4.2863
1.6166,-0.67432,-2.4662,-0.39883,-0.24267,4.2878
1.6241,-0.66348,-2.467,-0.38609,-0.23922,4.2892
1.6315,-0.65271,-2.4677,-0.37329,-0.23568,4.2905
1.639,-0.64201,-2.4682,-0.36044,-0.23207,4.2918
1.6466,-0.63137,-2.4686,-0.34754,-0.22837,4.2929
1.6541,-0.62081,-2.4689,-0.33459,-0.2246,4.294
1.6617,-0.61032,-2.469,-0.32159,-0.22075,4.2951
1.6694,-0.5999,-2.4689,-0.30854,-0.21683,4.296
1.677,-0.58956,-2.4687,-0.29545,-0.21282,4.2969
1.6847,-0.5793,-2.4683,-0.2823,-0.20874,4.2976
1.6924,-0.56913,-2.4678,-0.26912,-0.20458,4.2983
1.7002,-0.55903,-2.4671,-0.25589,-0.20034,4.2989
1.7079,-0.54903,-2.4663,-0.24262,-0.19603,4.2995
1.7157,-0.53911,-2.4653,-0.2293,-0.19164,4.2999
1.7235,-0.52928,-2.4642,-0.21595,-0.18717,4.3003
1.7314,-0.51954,-2.4628,-0.20256,-0.18263,4.3005
1.7392,-0.50989,-2.4614,-0.18913,-0.17801,4.3007
1.7471,-0.50034,-2.4597,-0.17566,-0.17332,4.3008
1.755,-0.49089,-2.4579,-0.16216,-0.16855,4.3008
1.7629,-0.48154,-2.4559,-0.14863,-0.16371,4.3007
1.7709,-0.47229,-2.4538,-0.13506,-0.15879,4.3006
1.7788,-0.46314,-2.4515,-0.12146,-0.1538,4.3003
1.7868,-0.4541,-2.449,-0.10783,-0.14874,4.3
1.7947,-0.44516,-2.4463,-0.094167,-0.1436,4.2995
1.8027,-0.43633,-2.4435,-0.080479,-0.13839,4.299
1.8107,-0.42761,-2.4404,-0.066764,-0.1331,4.2983
1.8187,-0.41901,-2.4373,-0.053024,-0.12775,4.2976
1.8267,-0.41052,-2.4339,-0.03926,-0.12232,4.2968
1.8347,-0.40214,-2.4304,-0.025472,-0.11682,4.2959
1.8428,-0.39388,-2.4266,-0.011663,-0.11125,4.2948
1.8508,-0.38574,-2.4227,0.002167,-0.10561,4.2937
1.8588,-0.37772,-2.4187,0.016016,-0.099903,4.2925
1.8669,-0.36982,-2.4144,0.029883,-0.094124,4.2912
1.8749,-0.36204,-2.41,0.043766,-0.088276,4.2898
1.883,-0.35439,-2.4053,0.057665,-0.082359,4.2883
1.891,-0.34687,-2.4005,0.071578,-0.076375,4.2867
1.8991,-0.33947,-2.3955,0.085503,-0.070322,4.285
1.9071,-0.3322,-2.3903,0.099441,-0.064203,4.2832
1.9151,-0.32506,-2.385,0.11339,-0.058018,4.2812
1.9232,-0.31806,-2.3794,0.12734,-0.051766,4.2792
1.9312,-0.31119,-2.3737,0.14131,-0.045449,4.2771
1.9392,-0.30445,-2.3677,0.15528,-0.039067,4.2749
1.9472,-0.29784,-2.3616,0.16925,-0.032621,4.2725
1.9552,-0.29138,-2.3553,0.18323,-0.026111,4.2701
1.9632,-0.28505,-2.3488,0.19721,-0.019537,4.2675
1.9712,-0.27886,-2.3421,0.21119,-0.012901,4.2649
1.9791,-0.27282,-2.3353,0.22517,-0.0062034,4.2621
1.9871,-0.26691,-2.3282,0.23915,0.00055614,4.2593
1.995,-0.26115,-2.3209,0.25313,0.0073765,4.2563
2.0029,-0.25553,-2.3135,0.2671,0.014257,4.2532
2.0108,-0.25005,-2.3058,0.28106,0.021197,4.25
2.0187,-0.24472,-2.298,0.29502,0.028196,4.2467
2.0266,-0.23954,-2.29,0.30897,0.035254,4.2433
2.0344,-0.23451,-2.2818,0.32291,0.042369,4.2397
2.0422,-0.22962,-2.2733,0.33684,0.049542,4.2361
2.05,-0.22488,-2.2647,0.35076,0.05677,4.2323
2.0578,-0.2203,-2.2559,0.36466,0.064055,4.2284
2.0655,-0.21586,-2.2469,0.37855,0.071394,4.2244
2.0732,-0.21158,-2.2377,0.39242,0.078788,4.2203
2.0809,-0.20745,-2.2284,0.40627,0.086236,4.2161
2.0886,-0.20347,-2.2188,0.4201,0.093736,4.2118
2.0962,-0.19965,-2.209,0.43391,0.10129,4.2073
2.1038,-0.19598,-2.199,0.4477,0.10889,4.2028
2.1113,-0.19246,-2.1889,0.46147,0.11655,4.1981
2.1189,-0.1891,-2.1785,0.47521,0.12425,4.1933
2.1263,-0.1859,-2.168,0.48893,0.13201,4.1883
2.1338,-0.18285,-2.1572,0.50262,0.13981,4.1833
2.1412,-0.17996,-2.1463,0.51627,0.14766,4.1781
2.1486,-0.17723,-2.1352,0.5299,0.15556,4.1728
2.1559,-0.17466,-2.1239,0.5435,0.16351,4.1674
2.1632,-0.17224,-2.1124,0.55707,0.1715,4.1619
2.1705,-0.16999,-2.1007,0.5706,0.17953,4.1562
2.1777,-0.16789,-2.0888,0.58409,0.18761,4.1505
2.1848,-0.16595,-2.0767,0.59755,0.19573,4.1446
2.192,-0.16417,-2.0644,0.61096,0.2039,4.1385
2.199,-0.16255,-2.0519,0.62434,0.2121,4.1324
2.2061,-0.16109,-2.0393,0.63768,0.22035,4.1261
2.213,-0.15979,-2.0264,0.65098,0.22864,4.1197
2.22,-0.15865,-2.0134,0.66423,0.23696,4.1132
2.2269,-0.15767,-2.0002,0.67743,0.24533,4.1066
2.2337,-0.15685,-1.9868,0.69059,0.25373,4.0998
2.2404,-0.15619,-1.9732,0.70371,0.26217,4.0929
2.2472,-0.15569,-1.9594,0.71677,0.27064,4.0859
2.2538,-0.15535,-1.9454,0.72978,0.27915,4.0787
2.2604,-0.15517,-1.9313,0.74274,0.2877,4.0715
2.267,-0.15515,-1.917,0.75565,0.29627,4.0641
2.2735,-0.15529,-1.9025,0.7685,0.30488,4.0565
2.2799,-0.15559,-1.8878,0.7813,0.31352,4.0489
2.2863,-0.15605,-1.8729,0.79403,0.3222,4.0411
2.2926,-0.15666,-1.8578,0.80671,0.3309,4.0332
2.2988,-0.15744,-1.8426,0.81934,0.33963,4.0251
2.305,-0.15837,-1.8272,0.8319,0.34839,4.0169
2.3111,-0.15946,-1.8116,0.84439,0.35717,4.0086
2.3172,-0.16071,-1.7958,0.85683,0.36599,4.0002
2.3232,-0.16212,-1.7799,0.86919,0.37482,3.9916
2.3291,-0.16368,-1.7638,0.8815,0.38369,3.9829
2.3349,-0.1654,-1.7475,0.89373,0.39257,3.9741
2.3407,-0.16727,-1.7311,0.90589,0.40148,3.9651
2.3464,-0.1693,-1.7144,0.91799,0.41041,3.956
2.3521,-0.17148,-1.6976,0.93001,0.41936,3.9468
2.3576,-0.17382,-1.6807,0.94196,0.42833,3.9375
2.3631,-0.17631,-1.6636,0.95384,0.43732,3.928
2.3686,-0.17896,-1.6463,0.96564,0.44633,3.9183
2.3739,-0.18175,-1.6288,0.97737,0.45536,3.9086
2.3792,-0.1847,-1.6112,0.98901,0.4644,3.8987
2.3844,-0.1878,-1.5934,1.0006,0.47345,3.8887
2.3895,-0.19105,-1.5755,1.0121,0.48253,3.8785
2.3945,-0.19444,-1.5574,1.0235,0.49161,3.8683
2.3995,-0.19799,-1.5392,1.0348,0.50071,3.8578
2.4043,-0.20168,-1.5208,1.046,0.50982,3.8473
2.4091,-0.20552,-1.5022,1.0572,0.51894,3.8366
2.4139,-0.2095,-1.4835,1.0683,0.52806,3.8258
2.4185,-0.21363,-1.4647,1.0792,0.5372,3.8148
2.423,-0.2179,-1.4457,1.0901,0.54635,3.8037
2.4275,-0.22232,-1.4266,1.1009,0.5555,3.7925
2.4319,-0.22687,-1.4073,1.1116,0.56466,3.7812
2.4362,-0.23157,-1.3878,1.1223,0.57382,3.7697
2.4404,-0.2364,-1.3683,1.1328,0.58299,3.7581
2.4445,-0.24138,-1.3486,1.1432,0.59216,3.7463
2.4485,-0.24649,-1.3287,1.1536,0.60133,3.7344
2.4524,-0.25174,-1.3088,1.1638,0.6105,3.7224
2.4563,-0.25712,-1.2886,1.1739,0.61968,3.7103
2.4601,-0.26264,-1.2684,1.184,0.62885,3.698
2.4637,-0.26829,-1.248,1.1939,0.63802,3.6855
2.4673,-0.27407,-1.2275,1.2037,0.64719,3.673
2.4708,-0.27999,-1.2069,1.2135,0.65635,3.6603
2.4742,-0.28603,-1.1862,1.2231,0.66551,3.6475
2.4775,-0.2922,-1.1653,1.2326,0.67466,3.6345
2.4807,-0.29849,-1.1443,1.2421,0.68381,3.6214
2.4838,-0.30491,-1.1232,1.2514,0.69295,3.6082
2.4868,-0.31146,-1.102,1.2606,0.70208,3.5948
2.4897,-0.31812,-1.0807,1.2697,0.7112,3.5814
2.4925,-0.32491,-1.0593,1.2787,0.72031,3.5677
2.4952,-0.33182,-1.0377,1.2876,0.72941,3.554
2.4978,-0.33884,-1.0161,1.2963,0.7385,3.5401
2.5004,-0.34599,-0.99432,1.305,0.74757,3.5261
2.5028,-0.35324,-0.97246,1.3135,0.75663,3.5119
2.5051,-0.36062,-0.95051,1.3219,0.76567,3.4977
2.5073,-0.3681,-0.92846,1.3302,0.7747,3.4832
2.5094,-0.3757,-0.90631,1.3384,0.78371,3.4687
2.5115,-0.3834,-0.88408,1.3465,0.79271,3.454
2.5134,-0.39122,-0.86175,1.3545,0.80168,3.4392
2.5152,-0.39914,-0.83933,1.3623,0.81063,3.4243
2.5169,-0.40716,-0.81683,1.37,0.81956,3.4092
2.5185,-0.41529,-0.79425,1.3776,0.82847,3.394
2.52,-0.42352,-0.77159,1.3851,0.83736,3.3787
2.5214,-0.43185,-0.74884,1.3924,0.84623,3.3633
2.5227,-0.44028,-0.72603,1.3996,0.85506,3.3477
2.5239,-0.4488,-0.70314,1.4067,0.86388,3.332
2.5249,-0.45742,-0.68017,1.4137,0.87266,3.3161
2.5259,-0.46614,-0.65715,1.4206,0.88142,3.3002
2.5268,-0.47494,-0.63405,1.4273,0.89015,3.2841
2.5275,-0.48384,-0.61089,1.4339,0.89886,3.2679
2.5282,-0.49283,-0.58767,1.4403,0.90753,3.2515
2.5287,-0.5019,-0.56439,1.4467,0.91617,3.235
2.5292,-0.51106,-0.54106,1.4529,0.92477,3.2184
2.5295,-0.5203,-0.51767,1.4589,0.93335,3.2017
2.5297,-0.52963,-0.49424,1.4649,0.94189,3.1849
2.5299,-0.53903,-0.47075,1.4707,0.95039,3.1679
2.5299,-0.54851,-0.44722,1.4763,0.95886,3.1508
2.5298,-0.55807,-0.42365,1.4819,0.9673,3.1336
2.5295,-0.56771,-0.40003,1.4873,0.97569,3.1163
2.5292,-0.57742,-0.37638,1.4925,0.98405,3.0988
2.5288,-0.5872,-0.35269,1.4976,0.99236,3.0812
2.5282,-0.59705,-0.32897,1.5026,1.0006,3.0635
2.5276,-0.60697,-0.30522,1.5075,1.0089,3.0457
2.5268,-0.61696,-0.28144,1.5122,1.0171,3.0278
2.5259,-0.62701,-0.25764,1.5168,1.0252,3.0097
2.525,-0.63713,-0.23382,1.5212,1.0333,2.9915
2.5239,-0.6473,-0.20997,1.5255,1.0414,2.9732
2.5226,-0.65754,-0.18611,1.5296,1.0494,2.9548
2.5213,-0.66783,-0.16224,1.5336,1.0574,2.9363
2.5199,-0.67818,-0.13835,1.5375,1.0653,2.9176
2.5184,-0.68859,-0.11446,1.5412,1.0732,2.8989
2.5167,-0.69905,-0.090555,1.5448,1.081,2.88
2.5149,-0.70956,-0.066649,1.5483,1.0888,2.861
2.5131,-0.72011,-0.042743,1.5515,1.0965,2.8419
2.5111,-0.73072,-0.018838,1.5547,1.1042,2.8227
2.509,-0.74137,0.0050627,1.5577,1.1118,2.8034
2.5068,-0.75207,0.028956,1.5605,1.1194,2.784
2.5044,-0.76281,0.05284,1.5632,1.1269,2.7644
2.502,-0.77358,0.076712,1.5658,1.1344,2.7448
2.4995,-0.7844,0.10057,1.5682,1.1418,2.725
2.4968,-0.79526,0.12441,1.5705,1.1491,2.7052
2.494,-0.80615,0.14823,1.5726,1.1564,2.6852
2.4912,-0.81707,0.17202,1.5746,1.1636,2.6651
2.4882,-0.82803,0.1958,1.5764,1.1708,2.6449
2.4851,-0.83902,0.21954,1.5781,1.1779,2.6246
2.4818,-0.85004,0.24325,1.5796,1.185,2.6043
2.4785,-0.86108,0.26693,1.581,1.192,2.5838
2.4751,-0.87215,0.29057,1.5822,1.1989,2.5632
2.4715,-0.88324,0.31418,1.5832,1.2058,2.5425
2.4679,-0.89436,0.33774,1.5842,1.2126,2.5217
2.4641,-0.90549,0.36126,1.5849,1.2194,2.5008
2.4602,-0.91665,0.38474,1.5855,1.226,2.4798
2.4563,-0.92782,0.40816,1.586,1.2327,2.4587
2.4522,-0.93901,0.43154,1.5863,1.2392,2.4376
2.448,-0.95021,0.45486,1.5865,1.2457,2.4163
2.4436,-0.96143,0.47812,1.5865,1.2521,2.3949
2.4392,-0.97265,0.50133,1.5863,1.2585,2.3735
2.4347,-0.98389,0.52447,1.586,1.2647,2.3519
2.43,-0.99513,0.54755,1.5856,1.271,2.3303
2.4253,-1.0064,0.57056,1.585,1.2771,2.3085
2.4204,-1.0176,0.59351,1.5842,1.2832,2.2867
2.4155,-1.0289,0.61638,1.5833,1.2892,2.2648
2.4104,-1.0402,0.63918,1.5822,1.2951,2.2428
2.4052,-1.0514,0.6619,1.581,1.301,2.2207
2.3999,-1.0627,0.68454,1.5796,1.3067,2.1986
2.3946,-1.0739,0.7071,1.5781,1.3125,2.1763
2.3891,-1.0852,0.72958,1.5764,1.3181,2.154
2.3835,-1.0964,0.75198,1.5745,1.3236,2.1316
2.3778,-1.1077,0.77428,1.5725,1.3291,2.1091
2.3719,-1.1189,0.79649,1.5704,1.3345,2.0866
2.366,-1.1301,0.81861,1.5681,1.3399,2.0639
2.36,-1.1413,0.84064,1.5656,1.3451,2.0412
2.3539,-1.1525,0.86257,1.563,1.3503,2.0184
2.3477,-1.1637,0.88439,1.5603,1.3554,1.9956
2.3413,-1.1749,0.90612,1.5573,1.3604,1.9726
2.3349,-1.186,0.92774,1.5543,1.3654,1.9496
2.3284,-1.1972,0.94926,1.551,1.3702,1.9265
2.3217,-1.2083,0.97066,1.5476,1.375,1.9034
2.315,-1.2194,0.99196,1.5441,1.3797,1.8802
2.3082,-1.2305,1.0131,1.5404,1.3843,1.8569
2.3012,-1.2415,1.0342,1.5366,1.3889,1.8336
2.2942,-1.2526,1.0551,1.5326,1.3933,1.8101
2.2871,-1.2636,1.076,1.5284,1.3977,1.7867
2.2799,-1.2746,1.0967,1.5241,1.402,1.7631
2.2725,-1.2855,1.1173,1.5196,1.4062,1.7396
2.2651,-1.2964,1.1377,1.515,1.4103,1.7159
2.2576,-1.3073,1.1581,1.5103,1.4144,1.6922
2.25,-1.3182,1.1783,1.5053,1.4183,1.6684
2.2423,-1.329,1.1983,1.5003,1.4222,1.6446
2.2345,-1.3398,1.2183,1.4951,1.426,1.6208
2.2266,-1.3506,1.2381,1.4897,1.4297,1.5968
2.2186,-1.3613,1.2577,1.4842,1.4333,1.5729
2.2105,-1.372,1.2772,1.4785,1.4368,1.5488
2.2024,-1.3827,1.2966,1.4726,1.4402,1.5248
2.1941,-1.3933,1.3158,1.4667,1.4436,1.5007
2.1857,-1.4039,1.3349,1.4605,1.4469,1.4765
2.1773,-1.4145,1.3539,1.4543,1.45,1.4523
2.1688,-1.425,1.3727,1.4478,1.4531,1.4281
2.1601,-1.4354,1.3913,1.4413,1.4561,1.4038
2.1514,-1.4459,1.4098,1.4345,1.459,1.3794
2.1426,-1.4562,1.4282,1.4277,1.4618,1.3551
2.1338,-1.4666,1.4463,1.4206,1.4645,1.3307
2.1248,-1.4769,1.4644,1.4135,1.4672,1.3063
2.1157,-1.4871,1.4822,1.4061,1.4697,1.2818
2.1066,-1.4973,1.5,1.3987,1.4722,1.2573
2.0974,-1.5075,1.5175,1.3911,1.4745,1.2328
2.0881,-1.5176,1.5349,1.3833,1.4768,1.2082
2.0787,-1.5277,1.5521,1.3754,1.479,1.1836
2.0692,-1.5377,1.5692,1.3673,1.4811,1.159
2.0597,-1.5477,1.5861,1.3592,1.4831,1.1344
2.0501,-1.5576,1.6028,1.3508,1.485,1.1097
2.0403,-1.5675,1.6193,1.3423,1.4868,1.085
2.0306,-1.5773,1.6357,1.3337,1.4885,1.0603
2.0207,-1.5871,1.6519,1.325,1.4902,1.0356
2.0108,-1.5968,1.6679,1.316,1.4917,1.0109
2.0008,-1.6065,1.6838,1.307,1.4931,0.98614
1.9907,-1.6161,1.6995,1.2978,1.4945,0.96138
1.9805,-1.6256,1.715,1.2885,1.4958,0.9366
1.9703,-1.6352,1.7303,1.279,1.4969,0.91182
1.96,-1.6446,1.7454,1.2694,1.498,0.88702
1.9496,-1.654,1.7604,1.2597,1.499,0.86221
1.9391,-1.6634,1.7752,1.2498,1.4998,0.8374
1.9286,-1.6727,1.7898,1.2398,1.5006,0.81259
1.918,-1.6819,1.8042,1.2296,1.5013,0.78777
1.9074,-1.6911,1.8184,1.2193,1.5019,0.76295
1.8966,-1.7002,1.8325,1.2089,1.5024,0.73813
1.8858,-1.7093,1.8463,1.1983,1.5029,0.71331
1.875,-1.7183,1.86,1.1876,1.5032,0.6885
1.8641,-1.7273,1.8735,1.1768,1.5034,0.66369
1.8531,-1.7362,1.8867,1.1659,1.5035,0.63888
1.842,-1.7451,1.8998,1.1548,1.5036,0.61408
1.8309,-1.7539,1.9128,1.1436,1.5035,0.5893
1.8197,-1.7626,1.9255,1.1322,1.5034,0.56452
1.8085,-1.7713,1.938,1.1207,1.5031,0.53976
1.7972,-1.78,1.9503,1.1091,1.5028,0.51501
1.7859,-1.7885,1.9625,1.0974,1.5024,0.49027
1.7745,-1.7971,1.9744,1.0855,1.5018,0.46556
1.763,-1.8055,1.9862,1.0736,1.5012,0.44086
1.7515,-1.8139,1.9977,1.0614,1.5005,0.41618
1.7399,-1.8223,2.0091,1.0492,1.4997,0.39153
1.7282,-1.8306,2.0202,1.0369,1.4988,0.3669
1.7166,-1.8388,2.0312,1.0244,1.4978,0.34229
1.7048,-1.847,2.042,1.0118,1.4967,0.31771
1.693,-1.8551,2.0526,0.99907,1.4955,0.29316
1.6812,-1.8632,2.0629,0.98623,1.4942,0.26864
1.6693,-1.8712,2.0731,0.97327,1.4929,0.24415
1.6573,-1.8792,2.0831,0.9602,1.4914,0.2197
1.6454,-1.8871,2.0929,0.947,1.4899,0.19528
1.6333,-1.8949,2.1025,0.9337,1.4882,0.17089
1.6212,-1.9027,2.1118,0.92027,1.4865,0.14654
1.6091,-1.9105,2.121,0.90674,1.4846,0.12224
1.5969,-1.9182,2.13,0.89309,1.4827,0.097971
1.5847,-1.9258,2.1388,0.87933,1.4807,0.073748
1.5725,-1.9334,2.1474,0.86545,1.4786,0.049569
1.5602,-1.9409,2.1558,0.85147,1.4764,0.025437
1.5478,-1.9484,2.164,0.83738,1.4741,0.0013512
1.5354,-1.9558,2.172,0.82317,1.4717,-0.022685
1.523,-1.9632,2.1797,0.80887,1.4692,-0.046671
1.5105,-1.9705,2.1873,0.79445,1.4667,-0.070604
1.498,-1.9778,2.1947,0.77993,1.464,-0.094483
1.4855,-1.985,2.2019,0.76531,1.4613,-0.11831
1.4729,-1.9921,2.2089,0.75058,1.4584,-0.14207
1.4603,-1.9993,2.2157,0.73575,1.4555,-0.16578
1.4477,-2.0063,2.2223,0.72082,1.4525,-0.18943
1.435,-2.0133,2.2287,0.70579,1.4494,-0.21302
1.4223,-2.0203,2.235,0.69066,1.4462,-0.23654
1.4096,-2.0272,2.241,0.67543,1.4429,-0.26
1.3968,-2.0341,2.2468,0.66011,1.4396,-0.28339
1.384,-2.0409,2.2524,0.64468,1.4361,-0.30672
1.3712,-2.0477,2.2578,0.62917,1.4325,-0.32998
1.3583,-2.0544,2.2631,0.61356,1.4289,-0.35316
1.3455,-2.0611,2.2681,0.59786,1.4252,-0.37627
1.3326,-2.0678,2.2729,0.58206,1.4214,-0.39931
1.3196,-2.0744,2.2776,0.56618,1.4175,-0.42227
1.3067,-2.0809,2.282,0.5502,1.4135,-0.44516
1.2937,-2.0874,2.2863,0.53414,1.4095,-0.46797
1.2807,-2.0939,2.2904,0.51799,1.4053,-0.4907
1.2677,-2.1003,2.2943,0.50176,1.4011,-0.51334
1.2546,-2.1067,2.298,0.48544,1.3968,-0.5359
1.2416,-2.113,2.3015,0.46903,1.3924,-0.55838
1.2285,-2.1193,2.3048,0.45255,1.3879,-0.58078
1.2154,-2.1256,2.3079,0.43598,1.3833,-0.60308
1.2023,-2.1318,2.3108,0.41933,1.3787,-0.6253
1.1891,-2.138,2.3136,0.4026,1.3739,-0.64742
1.176,-2.1441,2.3161,0.3858,1.3691,-0.66946
1.1628,-2.1503,2.3185,0.36891,1.3642,-0.6914
1.1496,-2.1563,2.3207,0.35195,1.3592,-0.71325
1.1365,-2.1624,2.3227,0.33492,1.3542,-0.735
1.1232,-2.1684,2.3246,0.31781,1.349,-0.75665
1.11,-2.1743,2.3262,0.30064,1.3438,-0.77821
1.0968,-2.1803,2.3277,0.28338,1.3385,-0.79966
1.0836,-2.1862,2.329,0.26606,1.3332,-0.82101
1.0703,-2.192,2.3301,0.24868,1.3277,-0.84226
1.0571,-2.1979,2.3311,0.23122,1.3222,-0.86341
1.0438,-2.2037,2.3318,0.2137,1.3166,-0.88444
1.0305,-2.2094,2.3324,0.19611,1.3109,-0.90538
1.0172,-2.2152,2.3328,0.17846,1.3051,-0.9262
1.004,-2.2209,2.3331,0.16074,1.2993,-0.94691
0.99067,-2.2266,2.3332,0.14296,1.2934,-0.96751
0.97738,-2.2323,2.3331,0.12513,1.2874,-0.988
0.96408,-2.2379,2.3328,0.10723,1.2813,-1.0084
0.95078,-2.2435,2.3324,0.089274,1.2752,-1.0286
0.93748,-2.2491,2.3318,0.071262,1.269,-1.0488
0.92418,-2.2546,2.331,0.053195,1.2627,-1.0688
0.91088,-2.2602,2.3301,0.035073,1.2564,-1.0887
0.89758,-2.2657,2.329,0.016897,1.25,-1.1085
0.88427,-2.2712,2.3278,-0.0013302,1.2435,-1.1282
0.87097,-2.2766,2.3263,-0.019609,1.2369,-1.1477
0.85768,-2.2821,2.3248,-0.037937,1.2303,-1.1671
0.84438,-2.2875,2.3231,-0.056313,1.2236,-1.1864
0.83109,-2.2929,2.3212,-0.074737,1.2168,-1.2056
0.8178,-2.2983,2.3192,-0.093207,1.21,-1.2246
0.80452,-2.3037,2.317,-0.11172,1.2031,-1.2435
0.79124,-2.309,2.3146,-0.13028,1.1961,-1.2623
0.77797,-2.3143,2.3122,-0.14888,1.1891,-1.281
0.76471,-2.3197,2.3095,-0.16752,1.182,-1.2995
0.75145,-2.325,2.3068,-0.18621,1.1748,-1.3179
0.7382,-2.3303,2.3038,-0.20493,1.1676,-1.3361
0.72496,-2.3355,2.3008,-0.22369,1.1603,-1.3542
0.71173,-2.3408,2.2976,-0.24248,1.1529,-1.3722
0.69851,-2.346,2.2942,-0.26131,1.1455,-1.39
0.6853,-2.3513,2.2907,-0.28018,1.138,-1.4077
0.6721,-2.3565,2.2871,-0.29907,1.1305,-1.4253
0.65892,-2.3617,2.2833,-0.318,1.1229,-1.4427
0.64574,-2.3669,2.2795,-0.33696,1.1152,-1.46
0.63258,-2.3721,2.2754,-0.35595,1.1075,-1.4771
0.61943,-2.3773,2.2713,-0.37497,1.0997,-1.4941
0.60629,-2.3824,2.267,-0.39401,1.0919,-1.511
0.59317,-2.3876,2.2626,-0.41308,1.084,-1.5276
0.58006,-2.3927,2.258,-0.43217,1.0761,-1.5442
0.56697,-2.3979,2.2534,-0.45129,1.0681,-1.5606
0.55389,-2.403,2.2486,-0.47043,1.06,-1.5769
0.54083,-2.4082,2.2437,-0.48959,1.0519,-1.593
0.52779,-2.4133,2.2387,-0.50877,1.0437,-1.6089
0.51476,-2.4184,2.2335,-0.52797,1.0355,-1.6247
0.50175,-2.4235,2.2283,-0.54719,1.0273,-1.6404
0.48876,-2.4286,2.2229,-0.56642,1.0189,-1.6558
0.47579,-2.4338,2.2174,-0.58566,1.0106,-1.6712
0.46284,-2.4389,2.2119,-0.60493,1.0021,-1.6864
0.44991,-2.444,2.2062,-0.6242,0.99366,-1.7014
0.43699,-2.4491,2.2004,-0.64349,0.98514,-1.7163
0.4241,-2.4542,2.1944,-0.66278,0.97657,-1.731
0.41123,-2.4593,2.1884,-0.68209,0.96796,-1.7455
0.39837,-2.4644,2.1823,-0.7014,0.95929,-1.7599
0.38554,-2.4695,2.1761,-0.72072,0.95058,-1.7742
0.37273,-2.4746,2.1698,-0.74005,0.94183,-1.7882
0.35995,-2.4797,2.1634,-0.75938,0.93303,-1.8022
0.34718,-2.4848,2.1569,-0.77871,0.92418,-1.8159
0.33444,-2.4899,2.1503,-0.79805,0.91529,-1.8295
0.32173,-2.495,2.1436,-0.81739,0.90636,-1.8429
0.30903,-2.5001,2.1368,-0.83673,0.89739,-1.8562
0.29636,-2.5052,2.13,-0.85606,0.88838,-1.8693
0.28371,-2.5103,2.123,-0.8754,0.87933,-1.8822
0.27109,-2.5154,2.116,-0.89473,0.87023,-1.895
0.2585,-2.5205,2.1089,-0.91406,0.8611,-1.9076
0.24592,-2.5256,2.1017,-0.93338,0.85193,-1.92
0.23338,-2.5307,2.0944,-0.9527,0.84272,-1.9323
0.22085,-2.5358,2.087,-0.97201,0.83347,-1.9444
0.20836,-2.541,2.0796,-0.99131,0.82419,-1.9563
0.19589,-2.5461,2.0721,-1.0106,0.81487,-1.968
0.18345,-2.5512,2.0646,-1.0299,0.80552,-1.9796
0.17103,-2.5564,2.0569,-1.0492,0.79614,-1.9911
0.15864,-2.5615,2.0492,-1.0684,0.78672,-2.0023
0.14628,-2.5666,2.0414,-1.0877,0.77726,-2.0134
0.13394,-2.5718,2.0336,-1.1069,0.76778,-2.0243
0.12163,-2.5769,2.0257,-1.1261,0.75826,-2.035
0.10935,-2.5821,2.0178,-1.1453,0.74872,-2.0456
0.097098,-2.5872,2.0097,-1.1645,0.73914,-2.056
0.084873,-2.5924,2.0017,-1.1836,0.72954,-2.0662
0.072675,-2.5976,1.9935,-1.2028,0.7199,-2.0762
0.060506,-2.6027,1.9854,-1.2219,0.71024,-2.0861
0.048365,-2.6079,1.9771,-1.241,0.70055,-2.0958
0.036252,-2.6131,1.9688,-1.26,0.69084,-2.1053
0.024168,-2.6183,1.9605,-1.2791,0.6811,-2.1146
0.012112,-2.6234,1.9521,-1.2981,0.67133,-2.1238
8.5515e-05,-2.6286,1.9437,-1.3171,0.66154,-2.1328
-0.011912,-2.6338,1.9352,-1.3361,0.65173,-2.1416
-0.023881,-2.639,1.9267,-1.355,0.64189,-2.1503
-0.035822,-2.6442,1.9182,-1.3739,0.63203,-2.1588
-0.047733,-2.6494,1.9096,-1.3928,0.62215,-2.167
-0.059614,-2.6546,1.901,-1.4117,0.61225,-2.1752
-0.071467,-2.6598,1.8923,-1.4305,0.60233,-2.1831
-0.083291,-2.665,1.8836,-1.4493,0.59239,-2.1909
-0.095085,-2.6702,1.8749,-1.468,0.58243,-2.1985
-0.10685,-2.6754,1.8661,-1.4868,0.57246,-2.2059
-0.11859,-2.6806,1.8573,-1.5054,0.56246,-2.2131
-0.13029,-2.6859,1.8485,-1.5241,0.55245,-2.2202
-0.14197,-2.6911,1.8397,-1.5427,0.54243,-2.2271
-0.15362,-2.6963,1.8308,-1.5613,0.53238,-2.2338
-0.16524,-2.7015,1.822,-1.5798,0.52233,-2.2403
-0.17683,-2.7067,1.8131,-1.5983,0.51226,-2.2467
-0.18839,-2.7119,1.8041,-1.6168,0.50217,-2.2529
-0.19992,-2.7171,1.7952,-1.6352,0.49208,-2.2589
-0.21142,-2.7223,1.7862,-1.6536,0.48197,-2.2647
-0.22289,-2.7275,1.7773,-1.6719,0.47185,-2.2704
-0.23434,-2.7327,1.7683,-1.6902,0.46172,-2.2758
-0.24575,-2.7379,1.7593,-1.7084,0.45158,-2.2812
-0.25714,-2.7431,1.7503,-1.7266,0.44143,-2.2863
-0.2685,-2.7483,1.7413,-1.7448,0.43127,-2.2912
-0.27983,-2.7535,1.7323,-1.7629,0.42111,-2.296
-0.29113,-2.7587,1.7233,-1.7809,0.41093,-2.3006
-0.3024,-2.7639,1.7142,-1.7989,0.40076,-2.3051
-0.31364,-2.769,1.7052,-1.8169,0.39057,-2.3093
-0.32486,-2.7742,1.6962,-1.8348,0.38038,-2.3134
-0.33604,-2.7793,1.6871,-1.8527,0.37018,-2.3173
-0.3472,-2.7845,1.6781,-1.8705,0.35998,-2.3211
-0.35834,-2.7896,1.6691,-1.8882,0.34978,-2.3246
-0.36944,-2.7947,1.6601,-1.9059,0.33957,-2.328
-0.38052,-2.7998,1.6511,-1.9236,0.32937,-2.3312
-0.39157,-2.8049,1.6421,-1.9412,0.31916,-2.3343
-0.40259,-2.81,1.6331,-1.9587,0.30894,-2.3372
-0.41358,-2.8151,1.6241,-1.9762,0.29873,-2.3399
-0.42455,-2.8202,1.6151,-1.9936,0.28852,-2.3424
-0.4355,-2.8252,1.6061,-2.011,0.27831,-2.3448
-0.44641,-2.8302,1.5972,-2.0283,0.2681,-2.347
-0.4573,-2.8353,1.5882,-2.0455,0.2579,-2.349
-0.46816,-2.8403,1.5793,-2.0627,0.24769,-2.3509
-0.479,-2.8452,1.5704,-2.0799,0.23749,-2.3526
-0.48981,-2.8502,1.5615,-2.0969,0.22729,-2.3541
-0.5006,-2.8551,1.5526,-2.114,0.2171,-2.3555
-0.51136,-2.8601,1.5438,-2.1309,0.20691,-2.3567
-0.5221,-2.865,1.5349,-2.1478,0.19673,-2.3577
-0.53281,-2.8698,1.5261,-2.1646,0.18655,-2.3586
-0.5435,-2.8747,1.5174,-2.1814,0.17638,-2.3593
-0.55416,-2.8795,1.5086,-2.1981,0.16622,-2.3598
-0.5648,-2.8843,1.4999,-2.2147,0.15607,-2.3602
-0.57542,-2.8891,1.4912,-2.2313,0.14592,-2.3604
-0.58601,-2.8938,1.4825,-2.2478,0.13578,-2.3605
-0.59658,-2.8986,1.4738,-2.2643,0.12566,-2.3604
-0.60713,-2.9033,1.4652,-2.2807,0.11554,-2.3601
-0.61766,-2.9079,1.4566,-2.297,0.10543,-2.3597
-0.62816,-2.9126,1.4481,-2.3132,0.095333,-2.3591
-0.63864,-2.9172,1.4395,-2.3294,0.085248,-2.3584
-0.6491,-2.9217,1.431,-2.3455,0.075175,-2.3575
-0.65954,-2.9263,1.4226,-2.3615,0.065114,-2.3564
-0.66995,-2.9308,1.4142,-2.3775,0.055067,-2.3552
-0.68035,-2.9352,1.4058,-2.3934,0.045033,-2.3539
-0.69072,-2.9396,1.3974,-2.4093,0.035013,-2.3524
-0.70108,-2.944,1.3891,-2.425,0.025008,-2.3507
-0.71141,-2.9484,1.3808,-2.4407,0.015018,-2.3489
-0.72173,-2.9527,1.3726,-2.4563,0.0050436,-2.3469
-0.73202,-2.9569,1.3644,-2.4719,-0.0049149,-2.3448
-0.7423,-2.9612,1.3563,-2.4874,-0.014857,-2.3426
-0.75256,-2.9653,1.3481,-2.5028,-0.024782,-2.3401
-0.7628,-2.9695,1.3401,-2.5181,-0.034689,-2.3376
-0.77302,-2.9735,1.3321,-2.5334,-0.044579,-2.3349
-0.78323,-2.9776,1.3241,-2.5485,-0.05445,-2.332
-0.79342,-2.9816,1.3161,-2.5637,-0.064303,-2.3291
-0.80359,-2.9855,1.3082,-2.5787,-0.074136,-2.3259
-0.81374,-2.9894,1.3004,-2.5937,-0.083949,-2.3227
-0.82388,-2.9932,1.2926,-2.6086,-0.093743,-2.3193
-0.834,-2.997,1.2848,-2.6234,-0.10352,-2.3157
-0.84411,-3.0007,1.2771,-2.6381,-0.11327,-2.312
-0.8542,-3.0044,1.2695,-2.6528,-0.123,-2.3082
-0.86428,-3.008,1.2618,-2.6674,-0.13271,-2.3042
-0.87434,-3.0116,1.2543,-2.6819,-0.14239,-2.3002
-0.88439,-3.0151,1.2468,-2.6963,-0.15206,-2.2959
-0.89442,-3.0185,1.2393,-2.7107,-0.1617,-2.2916
-0.90444,-3.0219,1.2319,-2.725,-0.17131,-2.2871
-0.91445,-3.0252,1.2245,-2.7392,-0.18091,-2.2825
-0.92445,-3.0285,1.2172,-2.7533,-0.19048,-2.2777
-0.93443,-3.0317,1.2099,-2.7674,-0.20002,-2.2729
-0.9444,-3.0348,1.2027,-2.7814,-0.20954,-2.2679
-0.95436,-3.0378,1.1956,-2.7953,-0.21903,-2.2627
-0.9643,-3.0408,1.1885,-2.8091,-0.2285,-2.2575
-0.97424,-3.0437,1.1814,-2.8228,-0.23795,-2.2521
-0.98417,-3.0466,1.1744,-2.8365,-0.24736,-2.2467
-0.99408,-3.0493,1.1675,-2.8501,-0.25675,-2.2411
-1.004,-3.052,1.1606,-2.8636,-0.26611,-2.2353
-1.0139,-3.0547,1.1537,-2.8771,-0.27545,-2.2295
-1.0238,-3.0572,1.147,-2.8904,-0.28476,-2.2236
-1.0336,-3.0597,1.1402,-2.9037,-0.29403,-2.2175
-1.0435,-3.0621,1.1336,-2.9169,-0.30328,-2.2113
-1.0534,-3.0644,1.1269,-2.93,-0.31251,-2.205
-1.0632,-3.0667,1.1204,-2.943,-0.3217,-2.1986
-1.0731,-3.0688,1.1139,-2.956,-0.33086,-2.1921
-1.0829,-3.0709,1.1074,-2.9689,-0.34,-2.1855
-1.0927,-3.0729,1.101,-2.9817,-0.3491,-2.1788
-1.1026,-3.0748,1.0947,-2.9944,-0.35818,-2.172
-1.1124,-3.0766,1.0884,-3.0071,-0.36722,-2.1651
-1.1222,-3.0784,1.0822,-3.0196,-0.37623,-2.158
-1.132,-3.08,1.076,-3.0321,-0.38521,-2.1509
-1.1418,-3.0816,1.0699,-3.0445,-0.39416,-2.1437
-1.1516,-3.083,1.0638,-3.0569,-0.40308,-2.1364
-1.1614,-3.0844,1.0578,-3.0691,-0.41197,-2.129
-1.1712,-3.0857,1.0519,-3.0813,-0.42082,-2.1215
-1.181,-3.0869,1.046,-3.0934,-0.42965,-2.1139
-1.1907,-3.088,1.0402,-3.1054,-0.43844,-2.1062
-1.2005,-3.089,1.0344,-3.1173,-0.44719,-2.0985
-1.2103,-3.0899,1.0287,-3.1292,-0.45592,-2.0906
-1.2201,-3.0907,1.023,-3.141,-0.46461,-2.0827
-1.2298,-3.0915,1.0174,-3.1527,-0.47327,-2.0747
-1.2396,-3.0921,1.0119,-3.1643,-0.48189,-2.0666
-1.2494,-3.0926,1.0064,-3.1758,-0.49048,-2.0584
-1.2591,-3.093,1.0009,-3.1873,-0.49904,-2.0501
-1.2689,-3.0933,0.99555,-3.1987,-0.50756,-2.0418
-1.2786,-3.0936,0.99023,-3.21,-0.51604,-2.0334
-1.2884,-3.0937,0.98496,-3.2212,-0.5245,-2.0249
-1.2982,-3.0937,0.97975,-3.2323,-0.53291,-2.0163
-1.3079,-3.0936,0.97459,-3.2434,-0.5413,-2.0077
-1.3177,-3.0934,0.96949,-3.2544,-0.54964,-1.999
-1.3274,-3.0931,0.96445,-3.2653,-0.55796,-1.9902
-1.3372,-3.0927,0.95946,-3.2761,-0.56623,-1.9814
-1.347,-3.0921,0.95452,-3.2869,-0.57447,-1.9725
-1.3567,-3.0915,0.94964,-3.2976,-0.58268,-1.9636
-1.3665,-3.0908,0.94482,-3.3082,-0.59085,-1.9545
-1.3763,-3.0899,0.94005,-3.3187,-0.59898,-1.9455
-1.386,-3.0889,0.93533,-3.3292,-0.60708,-1.9363
-1.3958,-3.0879,0.93067,-3.3395,-0.61513,-1.9272
-1.4056,-3.0867,0.92606,-3.3498,-0.62316,-1.9179
-1.4153,-3.0854,0.92151,-3.36,-0.63114,-1.9086
-1.4251,-3.084,0.917,-3.3702,-0.63909,-1.8993
-1.4349,-3.0824,0.91256,-3.3802,-0.64701,-1.8899
-1.4447,-3.0808,0.90816,-3.3902,-0.65488,-1.8805
-1.4545,-3.079,0.90382,-3.4002,-0.66272,-1.871
-1.4643,-3.0772,0.89953,-3.41,-0.67052,-1.8615
-1.4741,-3.0752,0.89529,-3.4198,-0.67829,-1.8519
-1.4839,-3.0731,0.8911,-3.4294,-0.68601,-1.8423
-1.4937,-3.0708,0.88697,-3.4391,-0.6937,-1.8327
-1.5035,-3.0685,0.88288,-3.4486,-0.70135,-1.823
-1.5133,-3.066,0.87885,-3.4581,-0.70897,-1.8133
-1.5231,-3.0634,0.87487,-3.4675,-0.71654,-1.8036
-1.5329,-3.0607,0.87093,-3.4768,-0.72408,-1.7938
-1.5427,-3.0579,0.86705,-3.486,-0.73158,-1.7841
-1.5526,-3.055,0.86322,-3.4952,-0.73904,-1.7742
-1.5624,-3.0519,0.85943,-3.5043,-0.74647,-1.7644
-1.5722,-3.0487,0.85569,-3.5133,-0.75385,-1.7545
-1.5821,-3.0454,0.85201,-3.5223,-0.7612,-1.7446
-1.5919,-3.042,0.84837,-3.5312,-0.76851,-1.7347
-1.6018,-3.0384,0.84477,-3.54,-0.77578,-1.7248
-1.6116,-3.0348,0.84123,-3.5487,-0.78301,-1.7149
-1.6215,-3.031,0.83773,-3.5574,-0.79021,-1.7049
-1.6314,-3.0271,0.83428,-3.566,-0.79736,-1.6949
-1.6413,-3.023,0.83087,-3.5745,-0.80448,-1.685
-1.6511,-3.0189,0.82751,-3.583,-0.81156,-1.675
-1.661,-3.0146,0.8242,-3.5914,-0.8186,-1.665
-1.6709,-3.0102,0.82093,-3.5997,-0.8256,-1.655
-1.6808,-3.0057,0.81771,-3.6079,-0.83257,-1.645
-1.6907,-3.001,0.81452,-3.6161,-0.83949,-1.635
-1.7006,-2.9962,0.81139,-3.6242,-0.84638,-1.625
-1.7106,-2.9914,0.80829,-3.6323,-0.85323,-1.615
-1.7205,-2.9863,0.80524,-3.6402,-0.86004,-1.605
-1.7304,-2.9812,0.80224,-3.6481,-0.86681,-1.595
-1.7404,-2.9759,0.79927,-3.656,-0.87354,-1.585
-1.7503,-2.9706,0.79634,-3.6638,-0.88023,-1.5751
-1.7602,-2.965,0.79346,-3.6715,-0.88689,-1.5651
-1.7702,-2.9594,0.79062,-3.6791,-0.8935,-1.5551
-1.7802,-2.9537,0.78782,-3.6867,-0.90008,-1.5452
-1.7901,-2.9478,0.78506,-3.6942,-0.90662,-1.5353
-1.8001,-2.9418,0.78233,-3.7016,-0.91312,-1.5254
-1.8101,-2.9357,0.77965,-3.709,-0.91958,-1.5155
-1.8201,-2.9295,0.77701,-3.7163,-0.92601,-1.5057
-1.83,-2.9231,0.7744,-3.7236,-0.93239,-1.4958
-1.84,-2.9166,0.77184,-3.7308,-0.93874,-1.486
-1.85,-2.91,0.76931,-3.7379,-0.94505,-1.4763
-1.86,-2.9033,0.76681,-3.745,-0.95132,-1.4665
-1.8701,-2.8965,0.76436,-3.752,-0.95755,-1.4568
-1.8801,-2.8896,0.76194,-3.7589,-0.96375,-1.4471
-1.8901,-2.8825,0.75955,-3.7658,-0.9699,-1.4375
-1.9001,-2.8753,0.75721,-3.7726,-0.97602,-1.4278
-1.9101,-2.868,0.75489,-3.7794,-0.9821,-1.4183
-1.9202,-2.8606,0.75261,-3.7861,-0.98814,-1.4087
-1.9302,-2.8531,0.75037,-3.7927,-0.99415,-1.3992
-1.9402,-2.8454,0.74816,-3.7993,-1.0001,-1.3898
-1.9503,-2.8377,0.74599,-3.8058,-1.006,-1.3804
-1.9603,-2.8298,0.74384,-3.8123,-1.0119,-1.371
-1.9704,-2.8218,0.74173,-3.8187,-1.0178,-1.3617
-1.9804,-2.8137,0.73965,-3.825,-1.0236,-1.3524
-1.9905,-2.8055,0.73761,-3.8313,-1.0294,-1.3432
-2.0005,-2.7972,0.73559,-3.8375,-1.0351,-1.3341
-2.0106,-2.7888,0.73361,-3.8437,-1.0408,-1.3249
-2.0207,-2.7803,0.73166,-3.8498,-1.0465,-1.3159
-2.0307,-2.7716,0.72974,-3.8559,-1.0521,-1.3069
-2.0408,-2.7629,0.72784,-3.8619,-1.0577,-1.298
-2.0509,-2.754,0.72598,-3.8679,-1.0632,-1.2891
-2.0609,-2.7451,0.72415,-3.8737,-1.0688,-1.2803
-2.071,-2.736,0.72235,-3.8796,-1.0742,-1.2716
-2.0811,-2.7269,0.72057,-3.8854,-1.0797,-1.2629
-2.0911,-2.7176,0.71883,-3.8911,-1.0851,-1.2543
-2.1012,-2.7083,0.71711,-3.8968,-1.0904,-1.2458
-2.1113,-2.6988,0.71542,-3.9024,-1.0958,-1.2373
-2.1213,-2.6892,0.71375,-3.908,-1.1011,-1.2289
-2.1314,-2.6796,0.71212,-3.9135,-1.1063,-1.2206
-2.1415,-2.6698,0.71051,-3.919,-1.1116,-1.2123
-2.1515,-2.66,0.70892,-3.9244,-1.1167,-1.2042
-2.1616,-2.6501,0.70737,-3.9298,-1.1219,-1.1961
-2.1716,-2.64,0.70583,-3.9351,-1.127,-1.1881
-2.1817,-2.6299,0.70433,-3.9404,-1.1321,-1.1802
-2.1917,-2.6197,0.70285,-3.9456,-1.1371,-1.1723
-2.2018,-2.6094,0.70139,-3.9508,-1.1421,-1.1646
-2.2118,-2.599,0.69996,-3.9559,-1.1471,-1.1569
-2.2218,-2.5886,0.69855,-3.961,-1.152,-1.1493
-2.2319,-2.578,0.69717,-3.966,-1.1569,-1.1418
-2.2419,-2.5674,0.69581,-3.971,-1.1618,-1.1344
-2.2519,-2.5567,0.69447,-3.976,-1.1666,-1.1271
-2.2619,-2.5459,0.69316,-3.9809,-1.1714,-1.1199
-2.2719,-2.535,0.69187,-3.9857,-1.1761,-1.1128
-2.2819,-2.5241,0.6906,-3.9905,-1.1808,-1.1058
-2.2919,-2.513,0.68936,-3.9953,-1.1855,-1.0989
-2.3019,-2.5019,0.68813,-4,-1.1902,-1.092
-2.3118,-2.4908,0.68693,-4.0046,-1.1948,-1.0853
-2.3218,-2.4795,0.68575,-4.0092,-1.1994,-1.0787
-2.3317,-2.4682,0.68459,-4.0138,-1.2039,-1.0722
-2.3417,-2.4569,0.68346,-4.0184,-1.2084,-1.0658
-2.3516,-2.4454,0.68234,-4.0229,-1.2129,-1.0595
-2.3615,-2.4339,0.68125,-4.0273,-1.2173,-1.0533
-2.3714,-2.4224,0.68017,-4.0317,-1.2217,-1.0472
-2.3813,-2.4107,0.67912,-4.0361,-1.2261,-1.0412
-2.3912,-2.3991,0.67809,-4.0404,-1.2304,-1.0354
-2.4011,-2.3873,0.67708,-4.0447,-1.2347,-1.0296
-2.4109,-2.3755,0.67608,-4.0489,-1.239,-1.024
-2.4207,-2.3637,0.67511,-4.0531,-1.2432,-1.0184
-2.4305,-2.3518,0.67416,-4.0573,-1.2474,-1.013
-2.4403,-2.3399,0.67322,-4.0614,-1.2516,-1.0078
-2.4501,-2.3279,0.67231,-4.0655,-1.2557,-1.0026
-2.4599,-2.3158,0.67142,-4.0695,-1.2598,-0.99753
-2.4696,-2.3037,0.67054,-4.0736,-1.2639,-0.9926
-2.4794,-2.2916,0.66968,-4.0775,-1.2679,-0.9878
-2.4891,-2.2794,0.66885,-4.0815,-1.2719,-0.98311
-2.4987,-2.2672,0.66803,-4.0853,-1.2759,-0.97856
-2.5084,-2.255,0.66723,-4.0892,-1.2798,-0.97412
-2.5181,-2.2427,0.66644,-4.093,-1.2837,-0.96982
-2.5277,-2.2304,0.66568,-4.0968,-1.2876,-0.96564
-2.5373,-2.2181,0.66494,-4.1006,-1.2914,-0.96159
-2.5468,-2.2057,0.66421,-4.1043,-1.2952,-0.95767
-2.5564,-2.1933,0.6635,-4.1079,-1.299,-0.95388
-2.5659,-2.1809,0.66281,-4.1116,-1.3027,-0.95022
-2.5754,-2.1685,0.66214,-4.1152,-1.3064,-0.9467
-2.5849,-2.156,0.66149,-4.1188,-1.31,-0.94331
-2.5943,-2.1435,0.66085,-4.1223,-1.3137,-0.94006
-2.6038,-2.131,0.66023,-4.1258,-1.3173,-0.93694
-2.6132,-2.1185,0.65963,-4.1293,-1.3208,-0.93395
-2.6225,-2.106,0.65905,-4.1327,-1.3244,-0.93111
-2.6318,-2.0935,0.65849,-4.1361,-1.3279,-0.9284
-2.6411,-2.0809,0.65794,-4.1395,-1.3313,-0.92583
-2.6504,-2.0684,0.65741,-4.1429,-1.3348,-0.9234
-2.6596,-2.0558,0.6569,-4.1462,-1.3382,-0.92112
-2.6688,-2.0433,0.65641,-4.1494,-1.3416,-0.91897
-2.678,-2.0307,0.65593,-4.1527,-1.3449,-0.91697
-2.6872,-2.0182,0.65547,-4.1559,-1.3482,-0.91511
-2.6963,-2.0056,0.65504,-4.1591,-1.3515,-0.91339
-2.7053,-1.9931,0.65461,-4.1622,-1.3547,-0.91182
-2.7143,-1.9806,0.65421,-4.1654,-1.3579,-0.9104
-2.7233,-1.9681,0.65382,-4.1685,-1.3611,-0.90912
-2.7323,-1.9555,0.65346,-4.1715,-1.3643,-0.90799
-2.7412,-1.9431,0.6531,-4.1746,-1.3674,-0.907
-2.7501,-1.9306,0.65277,-4.1776,-1.3705,-0.90616
-2.7589,-1.9181,0.65246,-4.1805,-1.3735,-0.90548
-2.7677,-1.9057,0.65216,-4.1835,-1.3765,-0.90494
-2.7764,-1.8933,0.65188,-4.1864,-1.3795,-0.90455
-2.7851,-1.8809,0.65162,-4.1893,-1.3825,-0.90431
-2.7938,-1.8685,0.65138,-4.1922,-1.3854,-0.90423
-2.8024,-1.8562,0.65116,-4.195,-1.3883,-0.90429
-2.811,-1.8439,0.65095,-4.1978,-1.3912,-0.90451
-2.8195,-1.8316,0.65076,-4.2006,-1.394,-0.90488
-2.828,-1.8194,0.6506,-4.2033,-1.3968,-0.9054
-2.8364,-1.8072,0.65044,-4.2061,-1.3995,-0.90608
-2.8448,-1.795,0.65031,-4.2087,-1.4023,-0.90691
-2.8531,-1.7829,0.6502,-4.2114,-1.405,-0.9079
-2.8614,-1.7708,0.65011,-4.2141,-1.4077,-0.90904
-2.8697,-1.7588,0.65003,-4.2167,-1.4103,-0.91034
-2.8778,-1.7468,0.64997,-4.2193,-1.4129,-0.91179
-2.886,-1.7349,0.64994,-4.2218,-1.4155,-0.9134
-2.894,-1.723,0.64992,-4.2244,-1.418,-0.91516
-2.9021,-1.7112,0.64992,-4.2269,-1.4205,-0.91708
-2.91,-1.6994,0.64994,-4.2294,-1.423,-0.91916
-2.9179,-1.6877,0.64998,-4.2318,-1.4255,-0.9214
-2.9258,-1.6761,0.65003,-4.2343,-1.4279,-0.92379
-2.9336,-1.6645,0.65011,-4.2367,-1.4303,-0.92634
-2.9413,-1.653,0.65021,-4.2391,-1.4326,-0.92905
-2.949,-1.6415,0.65033,-4.2415,-1.435,-0.93192
-2.9566,-1.6301,0.65047,-4.2438,-1.4372,-0.93495
-2.9641,-1.6188,0.65062,-4.2461,-1.4395,-0.93813
-2.9716,-1.6076,0.6508,-4.2484,-1.4417,-0.94147
-2.9791,-1.5964,0.651,-4.2507,-1.4439,-0.94498
-2.9864,-1.5853,0.65121,-4.2529,-1.4461,-0.94864
-2.9937,-1.5743,0.65145,-4.2551,-1.4482,-0.95246
-3.001,-1.5634,0.65171,-4.2573,-1.4503,-0.95643
-3.0081,-1.5525,0.65199,-4.2595,-1.4524,-0.96057
-3.0152,-1.5417,0.65229,-4.2616,-1.4544,-0.96487
-3.0223,-1.531,0.65261,-4.2638,-1.4564,-0.96932
-3.0292,-1.5204,0.65295,-4.2659,-1.4584,-0.97394
-3.0361,-1.5099,0.65331,-4.2679,-1.4603,-0.97871
-3.043,-1.4995,0.6537,-4.27,-1.4622,-0.98365
-3.0497,-1.4892,0.6541,-4.272,-1.4641,-0.98874
-3.0564,-1.4789,0.65453,-4.274,-1.466,-0.99399
-3.063,-1.4688,0.65497,-4.276,-1.4678,-0.9994
-3.0696,-1.4587,0.65544,-4.2779,-1.4696,-1.005
-3.076,-1.4488,0.65593,-4.2799,-1.4713,-1.0107
-3.0824,-1.4389,0.65644,-4.2818,-1.473,-1.0166
-3.0887,-1.4292,0.65698,-4.2837,-1.4747,-1.0226
-3.095,-1.4196,0.65753,-4.2855,-1.4763,-1.0288
-3.1011,-1.41,0.65811,-4.2874,-1.478,-1.0352
-3.1072,-1.4006,0.65871,-4.2892,-1.4795,-1.0417
-3.1132,-1.3913,0.65933,-4.291,-1.4811,-1.0484
-3.1192,-1.3821,0.65997,-4.2928,-1.4826,-1.0552
-3.125,-1.373,0.66064,-4.2945,-1.4841,-1.0622
-3.1308,-1.364,0.66132,-4.2962,-1.4855,-1.0693
-3.1364,-1.3551,0.66203,-4.298,-1.487,-1.0766
-3.142,-1.3464,0.66277,-4.2996,-1.4883,-1.0841
-3.1475,-1.3377,0.66352,-4.3013,-1.4897,-1.0917
-3.153,-1.3292,0.6643,-4.3029,-1.491,-1.0994
-3.1583,-1.3208,0.6651,-4.3045,-1.4923,-1.1074
-3.1636,-1.3125,0.66592,-4.3061,-1.4935,-1.1154
-3.1688,-1.3044,0.66676,-4.3077,-1.4947,-1.1237
-3.1738,-1.2963,0.66763,-4.3092,-1.4959,-1.132
-3.1788,-1.2884,0.66852,-4.3107,-1.4971,-1.1406
-3.1837,-1.2806,0.66943,-4.3122,-1.4982,-1.1493
-3.1886,-1.273,0.67037,-4.3137,-1.4993,-1.1581
-3.1933,-1.2655,0.67133,-4.3151,-1.5003,-1.1671
-3.1979,-1.2581,0.67231,-4.3166,-1.5013,-1.1762
-3.2025,-1.2508,0.67331,-4.318,-1.5023,-1.1855
-3.2069,-1.2437,0.67434,-4.3193,-1.5032,-1.1949
-3.2113,-1.2367,0.67539,-4.3207,-1.5041,-1.2045
-3.2156,-1.2298,0.67646,-4.322,-1.505,-1.2142
-3.2197,-1.2231,0.67756,-4.3233,-1.5058,-1.2241
-3.2238,-1.2165,0.67867,-4.3246,-1.5066,-1.2341
-3.2278,-1.21,0.67981,-4.3259,-1.5074,-1.2443
-3.2317,-1.2037,0.68098,-4.3271,-1.5081,-1.2546
-3.2355,-1.1975,0.68216,-4.3283,-1.5088,-1.2651
-3.2392,-1.1915,0.68337,-4.3295,-1.5095,-1.2757
-3.2427,-1.1856,0.6846,-4.3306,-1.5101,-1.2864
-3.2462,-1.1798,0.68586,-4.3318,-1.5107,-1.2973
-3.2496,-1.1742,0.68713,-4.3329,-1.5112,-1.3083
-3.2529,-1.1687,0.68843,-4.334,-1.5117,-1.3195
-3.2561,-1.1634,0.68975,-4.335,-1.5122,-1.3308
-3.2592,-1.1582,0.69109,-4.3361,-1.5126,-1.3422
-3.2622,-1.1532,0.69246,-4.3371,-1.513,-1.3538
-3.2651,-1.1483,0.69384,-4.3381,-1.5134,-1.3655
-3.2679,-1.1435,0.69525,-4.339,-1.5137,-1.3774
-3.2705,-1.1389,0.69668,-4.3399,-1.514,-1.3894
-3.2731,-1.1345,0.69813,-4.3409,-1.5142,-1.4015
-3.2756,-1.1302,0.6996,-4.3417,-1.5145,-1.4138
-3.2779,-1.126,0.7011,-4.3426,-1.5146,-1.4262
-3.2802,-1.122,0.70261,-4.3434,-1.5148,-1.4387
-3.2824,-1.1181,0.70415,-4.3442,-1.5149,-1.4513
-3.2844,-1.1144,0.70571,-4.345,-1.5149,-1.4641
-3.2863,-1.1108,0.70729,-4.3457,-1.5149,-1.477
-3.2882,-1.1074,0.70888,-4.3465,-1.5149,-1.4901
-3.2899,-1.1041,0.7105,-4.3472,-1.5149,-1.5032
-3.2915,-1.101,0.71214,-4.3478,-1.5148,-1.5165
-3.293,-1.098,0.7138,-4.3485,-1.5146,-1.5299
-3.2944,-1.0952,0.71548,-4.3491,-1.5145,-1.5435
-3.2957,-1.0925,0.71717,-4.3497,-1.5142,-1.5571
-3.2968,-1.09,0.71889,-4.3502,-1.514,-1.5709
-3.2979,-1.0876,0.72062,-4.3507,-1.5137,-1.5848
-3.2988,-1.0854,0.72238,-4.3512,-1.5134,-1.5988
-3.2997,-1.0833,0.72415,-4.3517,-1.513,-1.6129
-3.3004,-1.0814,0.72594,-4.3521,-1.5126,-1.6272
-3.301,-1.0796,0.72775,-4.3526,-1.5121,-1.6416
-3.3015,-1.078,0.72957,-4.3529,-1.5116,-1.656
-3.3019,-1.0765,0.73142,-4.3533,-1.5111,-1.6706
-3.3022,-1.0751,0.73328,-4.3536,-1.5105,-1.6853
-3.3023,-1.0739,0.73515,-4.3539,-1.5099,-1.7001
-3.3024,-1.0729,0.73705,-4.3542,-1.5092,-1.715
-3.3023,-1.072,0.73895,-4.3544,-1.5085,-1.7301
-3.3021,-1.0713,0.74088,-4.3546,-1.5078,-1.7452
-3.3018,-1.0707,0.74282,-4.3548,-1.507,-1.7604
-3.3014,-1.0702,0.74477,-4.3549,-1.5061,-1.7758
-3.3008,-1.0699,0.74674,-4.355,-1.5053,-1.7912
-3.3002,-1.0698,0.74872,-4.3551,-1.5044,-1.8068
-3.2994,-1.0698,0.75072,-4.3551,-1.5034,-1.8224
-3.2985,-1.0699,0.75273,-4.3552,-1.5024,-1.8381
-3.2975,-1.0702,0.75475,-4.3551,-1.5013,-1.854
-3.2964,-1.0706,0.75678,-4.3551,-1.5003,-1.8699
-3.2952,-1.0711,0.75883,-4.355,-1.4991,-1.8859
-3.2938,-1.0718,0.76089,-4.3549,-1.4979,-1.902
-3.2923,-1.0727,0.76296,-4.3547,-1.4967,-1.9182
-3.2907,-1.0737,0.76503,-4.3546,-1.4955,-1.9345
-3.289,-1.0748,0.76712,-4.3543,-1.4941,-1.9509
-3.2872,-1.076,0.76922,-4.3541,-1.4928,-1.9674
-3.2852,-1.0774,0.77133,-4.3538,-1.4914,-1.9839
-3.2832,-1.079,0.77345,-4.3535,-1.4899,-2.0006
-3.281,-1.0806,0.77557,-4.3531,-1.4885,-2.0173
-3.2787,-1.0824,0.7777,-4.3527,-1.4869,-2.0341
-3.2763,-1.0844,0.77984,-4.3523,-1.4853,-2.051
-3.2737,-1.0864,0.78199,-4.3519,-1.4837,-2.0679
-3.2711,-1.0886,0.78414,-4.3514,-1.482,-2.085
-3.2683,-1.091,0.7863,-4.3508,-1.4803,-2.1021
-3.2654,-1.0934,0.78846,-4.3503,-1.4786,-2.1192
-3.2624,-1.096,0.79062,-4.3497,-1.4767,-2.1365
-3.2592,-1.0987,0.79279,-4.349,-1.4749,-2.1538
-3.256,-1.1015,0.79497,-4.3483,-1.473,-2.1712
-3.2526,-1.1045,0.79714,-4.3476,-1.471,-2.1887
-3.2491,-1.1076,0.79932,-4.3469,-1.469,-2.2062
-3.2455,-1.1108,0.8015,-4.3461,-1.467,-2.2238
-3.2418,-1.1141,0.80367,-4.3453,-1.4649,-2.2414
-3.2379,-1.1176,0.80585,-4.3444,-1.4627,-2.2591
-3.2339,-1.1211,0.80803,-4.3435,-1.4605,-2.2769
-3.2299,-1.1248,0.81021,-4.3426,-1.4583,-2.2947
-3.2257,-1.1286,0.81238,-4.3416,-1.456,-2.3126
-3.2213,-1.1325,0.81455,-4.3406,-1.4537,-2.3305
-3.2169,-1.1365,0.81672,-4.3395,-1.4513,-2.3485
-3.2123,-1.1406,0.81888,-4.3384,-1.4489,-2.3665
-3.2077,-1.1449,0.82104,-4.3373,-1.4464,-2.3846
-3.2029,-1.1492,0.8232,-4.3361,-1.4438,-2.4027
-3.1979,-1.1536,0.82534,-4.3349,-1.4413,-2.4209
-3.1929,-1.1582,0.82748,-4.3336,-1.4386,-2.4391
-3.1878,-1.1628,0.82962,-4.3323,-1.436,-2.4573
-3.1825,-1.1676,0.83174,-4.331,-1.4332,-2.4756
-3.1771,-1.1724,0.83385,-4.3296,-1.4304,-2.4939
-3.1716,-1.1774,0.83596,-4.3281,-1.4276,-2.5123
-3.166,-1.1824,0.83805,-4.3267,-1.4247,-2.5307
-3.1603,-1.1875,0.84014,-4.3252,-1.4218,-2.5492
-3.1544,-1.1927,0.84221,-4.3236,-1.4188,-2.5676
-3.1485,-1.1981,0.84426,-4.322,-1.4158,-2.5861
-3.1424,-1.2035,0.84631,-4.3204,-1.4127,-2.6046
-3.1362,-1.2089,0.84834,-4.3187,-1.4096,-2.6232
-3.1299,-1.2145,0.85035,-4.317,-1.4064,-2.6418
-3.1235,-1.2201,0.85235,-4.3152,-1.4032,-2.6604
-3.117,-1.2259,0.85433,-4.3134,-1.3999,-2.679
-3.1103,-1.2317,0.85629,-4.3115,-1.3965,-2.6976
-3.1036,-1.2376,0.85824,-4.3096,-1.3932,-2.7163
-3.0967,-1.2435,0.86016,-4.3077,-1.3897,-2.735
-3.0897,-1.2495,0.86207,-4.3057,-1.3862,-2.7536
-3.0826,-1.2556,0.86395,-4.3037,-1.3827,-2.7723
-3.0754,-1.2618,0.86581,-4.3016,-1.3791,-2.7911
-3.0681,-1.268,0.86765,-4.2995,-1.3754,-2.8098
-3.0607,-1.2743,0.86946,-4.2973,-1.3717,-2.8285
-3.0532,-1.2807,0.87125,-4.2951,-1.368,-2.8472
-3.0455,-1.2871,0.87302,-4.2928,-1.3642,-2.866
-3.0378,-1.2935,0.87476,-4.2905,-1.3603,-2.8847
-3.0299,-1.3001,0.87647,-4.2881,-1.3564,-2.9034
-3.022,-1.3066,0.87816,-4.2857,-1.3524,-2.9222
-3.0139,-1.3133,0.87981,-4.2833,-1.3484,-2.9409
-3.0057,-1.3199,0.88144,-4.2808,-1.3444,-2.9596
-2.9975,-1.3267,0.88303,-4.2783,-1.3402,-2.9783
-2.9891,-1.3334,0.8846,-4.2757,-1.3361,-2.997
-2.9806,-1.3402,0.88613,-4.273,-1.3318,-3.0157
-2.972,-1.3471,0.88763,-4.2703,-1.3275,-3.0344
-2.9633,-1.354,0.88909,-4.2676,-1.3232,-3.0531
-2.9545,-1.3609,0.89052,-4.2648,-1.3188,-3.0718
-2.9456,-1.3679,0.89191,-4.262,-1.3144,-3.0904
-2.9366,-1.3748,0.89327,-4.2591,-1.3099,-3.109
-2.9275,-1.3819,0.89459,-4.2562,-1.3053,-3.1276
-2.9183,-1.3889,0.89587,-4.2532,-1.3007,-3.1462
-2.909,-1.396,0.89711,-4.2502,-1.2961,-3.1647
-2.8996,-1.403,0.89831,-4.2471,-1.2914,-3.1833
-2.8901,-1.4102,0.89947,-4.2439,-1.2866,-3.2018
-2.8806,-1.4173,0.90059,-4.2408,-1.2818,-3.2202
-2.8709,-1.4244,0.90167,-4.2375,-1.2769,-3.2386
-2.8611,-1.4316,0.9027,-4.2343,-1.272,-3.257
-2.8512,-1.4387,0.90369,-4.2309,-1.267,-3.2754
-2.8413,-1.4459,0.90463,-4.2276,-1.262,-3.2937
-2.8312,-1.4531,0.90552,-4.2241,-1.2569,-3.312
-2.821,-1.4603,0.90637,-4.2206,-1.2518,-3.3303
-2.8108,-1.4674,0.90717,-4.2171,-1.2466,-3.3485
-2.8005,-1.4746,0.90792,-4.2135,-1.2414,-3.3667
-2.7901,-1.4818,0.90862,-4.2099,-1.2361,-3.3848
-2.7795,-1.489,0.90927,-4.2062,-1.2307,-3.4028
-2.7689,-1.4961,0.90987,-4.2025,-1.2253,-3.4209
-2.7583,-1.5033,0.91042,-4.1987,-1.2199,-3.4388
-2.7475,-1.5104,0.91091,-4.1949,-1.2144,-3.4568
-2.7366,-1.5176,0.91135,-4.191,-1.2088,-3.4746
-2.7257,-1.5247,0.91173,-4.187,-1.2032,-3.4924
-2.7147,-1.5318,0.91206,-4.183,-1.1975,-3.5102
-2.7036,-1.5389,0.91233,-4.179,-1.1918,-3.5279
-2.6924,-1.5459,0.91254,-4.1749,-1.186,-3.5455
-2.6811,-1.5529,0.91269,-4.1707,-1.1802,-3.5631
-2.6698,-1.5599,0.91279,-4.1665,-1.1743,-3.5806
-2.6584,-1.5669,0.91282,-4.1623,-1.1684,-3.598
-2.6469,-1.5738,0.91279,-4.158,-1.1624,-3.6154
-2.6353,-1.5807,0.91271,-4.1536,-1.1563,-3.6327
-2.6236,-1.5876,0.91255,-4.1492,-1.1502,-3.6499
-2.6119,-1.5944,0.91234,-4.1448,-1.1441,-3.6671
-2.6001,-1.6012,0.91206,-4.1402,-1.1379,-3.6842
-2.5883,-1.608,0.91172,-4.1357,-1.1317,-3.7012
-2.5763,-1.6146,0.91131,-4.1311,-1.1253,-3.7181
-2.5643,-1.6213,0.91083,-4.1264,-1.119,-3.735
-2.5522,-1.6279,0.91029,-4.1217,-1.1126,-3.7518
-2.5401,-1.6345,0.90968,-4.1169,-1.1061,-3.7685
-2.5279,-1.641,0.909,-4.112,-1.0996,-3.7851
-2.5156,-1.6474,0.90825,-4.1072,-1.0931,-3.8016
-2.5032,-1.6538,0.90743,-4.1022,-1.0864,-3.818
-2.4908,-1.6601,0.90654,-4.0972,-1.0798,-3.8344
-2.4784,-1.6664,0.90557,-4.0922,-1.0731,-3.8507
-2.4658,-1.6726,0.90454,-4.0871,-1.0663,-3.8668
-2.4532,-1.6787,0.90343,-4.0819,-1.0595,-3.8829
-2.4406,-1.6848,0.90224,-4.0767,-1.0526,-3.8989
-2.4279,-1.6908,0.90099,-4.0715,-1.0457,-3.9148
-2.4151,-1.6967,0.89965,-4.0662,-1.0387,-3.9306
-2.4023,-1.7025,0.89824,-4.0608,-1.0317,-3.9463
-2.3894,-1.7083,0.89676,-4.0554,-1.0247,-3.9619
-2.3765,-1.714,0.8952,-4.0499,-1.0175,-3.9774
-2.3635,-1.7197,0.89356,-4.0444,-1.0104,-3.9928
-2.3505,-1.7252,0.89184,-4.0389,-1.0032,-4.008
-2.3374,-1.7307,0.89004,-4.0332,-0.9959,-4.0232
-2.3242,-1.736,0.88816,-4.0276,-0.98858,-4.0383
-2.3111,-1.7413,0.8862,-4.0218,-0.98122,-4.0533
-2.2978,-1.7465,0.88416,-4.0161,-0.97382,-4.0681
-2.2846,-1.7517,0.88204,-4.0102,-0.96636,-4.0829
-2.2712,-1.7567,0.87984,-4.0043,-0.95886,-4.0975
-2.2579,-1.7616,0.87756,-3.9984,-0.95131,-4.112
-2.2445,-1.7665,0.87519,-3.9924,-0.94371,-4.1264
-2.231,-1.7712,0.87274,-3.9864,-0.93606,-4.1407
-2.2176,-1.7758,0.8702,-3.9803,-0.92837,-4.1549
-2.204,-1.7804,0.86758,-3.9741,-0.92063,-4.1689
-2.1905,-1.7848,0.86487,-3.9679,-0.91285,-4.1829
-2.1769,-1.7892,0.86208,-3.9617,-0.90502,-4.1967
-2.1633,-1.7934,0.85921,-3.9554,-0.89715,-4.2104
-2.1496,-1.7976,0.85624,-3.949,-0.88923,-4.2239
-2.1359,-1.8016,0.85319,-3.9426,-0.88126,-4.2374
-2.1222,-1.8055,0.85005,-3.9362,-0.87325,-4.2507
-2.1084,-1.8093,0.84683,-3.9297,-0.8652,-4.2639
-2.0947,-1.8131,0.84352,-3.9231,-0.8571,-4.2769
-2.0808,-1.8167,0.84012,-3.9165,-0.84896,-4.2899
-2.067,-1.8201,0.83663,-3.9099,-0.84078,-4.3026
-2.0532,-1.8235,0.83305,-3.9032,-0.83256,-4.3153
-2.0393,-1.8268,0.82938,-3.8964,-0.82429,-4.3278
-2.0254,-1.8299,0.82562,-3.8896,-0.81598,-4.3402
-2.0115,-1.8329,0.82177,-3.8828,-0.80763,-4.3525
-1.9975,-1.8358,0.81783,-3.8759,-0.79924,-4.3646
-1.9836,-1.8386,0.81381,-3.8689,-0.7908,-4.3766
-1.9696,-1.8413,0.80969,-3.8619,-0.78233,-4.3884
-1.9556,-1.8438,0.80548,-3.8549,-0.77382,-4.4001
-1.9416,-1.8463,0.80117,-3.8478,-0.76526,-4.4117
-1.9276,-1.8486,0.79678,-3.8406,-0.75667,-4.4231
-1.9135,-1.8507,0.7923,-3.8334,-0.74804,-4.4344
-1.8995,-1.8528,0.78772,-3.8262,-0.73937,-4.4455
-1.8854,-1.8547,0.78305,-3.8189,-0.73066,-4.4565
-1.8714,-1.8565,0.77829,-3.8115,-0.72192,-4.4673
-1.8573,-1.8582,0.77344,-3.8042,-0.71314,-4.478
-1.8432,-1.8597,0.7685,-3.7967,-0.70432,-4.4886
-1.8292,-1.8612,0.76346,-3.7893,-0.69546,-4.4989
-1.8151,-1.8624,0.75833,-3.7817,-0.68657,-4.5092
-1.801,-1.8636,0.75311,-3.7742,-0.67765,-4.5193
-1.7869,-1.8646,0.7478,-3.7665,-0.66869,-4.5292
-1.7728,-1.8655,0.74239,-3.7589,-0.65969,-4.539
-1.7588,-1.8663,0.7369,-3.7512,-0.65067,-4.5486
-1.7447,-1.8669,0.73131,-3.7434,-0.64161,-4.5581
-1.7306,-1.8674,0.72562,-3.7356,-0.63251,-4.5674
-1.7165,-1.8678,0.71985,-3.7278,-0.62338,-4.5766
-1.7025,-1.868,0.71398,-3.7199,-0.61423,-4.5856
-1.6884,-1.8682,0.70803,-3.7119,-0.60504,-4.5945
-1.6744,-1.8681,0.70197,-3.704,-0.59582,-4.6032
-1.6604,-1.868,0.69583,-3.696,-0.58657,-4.6117
-1.6464,-1.8677,0.6896,-3.6879,-0.57728,-4.6201
-1.6323,-1.8672,0.68327,-3.6798,-0.56798,-4.6283
-1.6184,-1.8667,0.67686,-3.6716,-0.55864,-4.6363
-1.6044,-1.866,0.67035,-3.6635,-0.54927,-4.6442
-1.5904,-1.8651,0.66375,-3.6552,-0.53988,-4.652
-1.5765,-1.8642,0.65706,-3.647,-0.53046,-4.6595
-1.5626,-1.8631,0.65029,-3.6386,-0.52101,-4.6669
-1.5487,-1.8618,0.64342,-3.6303,-0.51153,-4.6742
-1.5348,-1.8605,0.63646,-3.6219,-0.50204,-4.6812
-1.5209,-1.859,0.62941,-3.6135,-0.49251,-4.6881
-1.5071,-1.8573,0.62227,-3.605,-0.48296,-4.6949
-1.4933,-1.8556,0.61505,-3.5965,-0.47339,-4.7014
-1.4795,-1.8537,0.60773,-3.5879,-0.4638,-4.7078
-1.4658,-1.8516,0.60033,-3.5793,-0.45418,-4.7141
-1.452,-1.8495,0.59284,-3.5707,-0.44454,-4.7202
-1.4383,-1.8471,0.58526,-3.562,-0.43488,-4.726
-1.4247,-1.8447,0.5776,-3.5533,-0.4252,-4.7318
-1.411,-1.8421,0.56985,-3.5446,-0.4155,-4.7373
-1.3974,-1.8394,0.56202,-3.5358,-0.40578,-4.7427
-1.3839,-1.8366,0.5541,-3.527,-0.39604,-4.7479
-1.3704,-1.8337,0.54609,-3.5182,-0.38629,-4.753
-1.3569,-1.8306,0.538,-3.5093,-0.37651,-4.7579
-1.3434,-1.8274,0.52983,-3.5004,-0.36672,-4.7626
-1.33,-1.824,0.52157,-3.4914,-0.35691,-4.7671
-1.3166,-1.8205,0.51323,-3.4824,-0.34709,-4.7714
-1.3033,-1.8169,0.50481,-3.4734,-0.33725,-4.7756
-1.29,-1.8132,0.49631,-3.4644,-0.3274,-4.7796
-1.2768,-1.8094,0.48773,-3.4553,-0.31753,-4.7835
-1.2635,-1.8054,0.47906,-3.4462,-0.30766,-4.7871
-1.2504,-1.8013,0.47032,-3.437,-0.29776,-4.7906
-1.2373,-1.7971,0.4615,-3.4279,-0.28786,-4.7939
-1.2242,-1.7927,0.4526,-3.4186,-0.27795,-4.7971
-1.2112,-1.7882,0.44362,-3.4094,-0.26802,-4.8
-1.1982,-1.7837,0.43457,-3.4001,-0.25809,-4.8028
-1.1853,-1.779,0.42544,-3.3908,-0.24815,-4.8054
-1.1725,-1.7741,0.41624,-3.3815,-0.2382,-4.8079
-1.1596,-1.7692,0.40696,-3.3722,-0.22824,-4.8101
-1.1469,-1.7641,0.39761,-3.3628,-0.21827,-4.8122
-1.1342,-1.759,0.38819,-3.3534,-0.2083,-4.8141
-1.1215,-1.7537,0.37869,-3.3439,-0.19832,-4.8159
-1.109,-1.7483,0.36912,-3.3345,-0.18834,-4.8174
-1.0964,-1.7428,0.35949,-3.325,-0.17836,-4.8188
-1.0839,-1.7372,0.34978,-3.3155,-0.16837,-4.82
-1.0715,-1.7314,0.34001,-3.3059,-0.15837,-4.821
-1.0592,-1.7256,0.33017,-3.2964,-0.14838,-4.8219
-1.0469,-1.7197,0.32026,-3.2868,-0.13839,-4.8226
-1.0347,-1.7136,0.31028,-3.2772,-0.12839,-4.8231
-1.0225,-1.7075,0.30024,-3.2675,-0.1184,-4.8234
-1.0104,-1.7012,0.29014,-3.2579,-0.1084,-4.8235
-0.99835,-1.6949,0.27998,-3.2482,-0.098409,-4.8235
-0.98637,-1.6884,0.26975,-3.2385,-0.088419,-4.8233
-0.97447,-1.6819,0.25946,-3.2288,-0.078433,-4.8229
-0.96263,-1.6752,0.24912,-3.219,-0.06845,-4.8224
-0.95085,-1.6685,0.23871,-3.2093,-0.058472,-4.8216
-0.93915,-1.6617,0.22825,-3.1995,-0.048499,-4.8207
-0.92752,-1.6548,0.21773,-3.1897,-0.038533,-4.8196
-0.91596,-1.6478,0.20715,-3.1798,-0.028573,-4.8184
-0.90446,-1.6407,0.19652,-3.17,-0.018621,-4.8169
-0.89305,-1.6335,0.18584,-3.1602,-0.0086779,-4.8153
-0.8817,-1.6262,0.1751,-3.1503,0.0012564,-4.8135
-0.87043,-1.6189,0.16432,-3.1404,0.011181,-4.8116
-0.85923,-1.6115,0.15348,-3.1305,0.021094,-4.8094
-0.8481,-1.6039,0.14259,-3.1206,0.030997,-4.8071
-0.83706,-1.5964,0.13166,-3.1106,0.040887,-4.8046
-0.82609,-1.5887,0.12068,-3.1007,0.050764,-4.802
-0.81519,-1.581,0.10966,-3.0907,0.060627,-4.7992
-0.80437,-1.5732,0.098586,-3.0808,0.070476,-4.7962
-0.79364,-1.5653,0.087474,-3.0708,0.08031,-4.793
-0.78298,-1.5574,0.07632,-3.0608,0.090128,-4.7896
-0.7724,-1.5494,0.065125,-3.0508,0.099928,-4.7861
-0.7619,-1.5413,0.053891,-3.0408,0.10971,-4.7824
-0.75148,-1.5332,0.042618,-3.0307,0.11948,-4.7786
-0.74114,-1.525,0.031309,-3.0207,0.12922,-4.7745
-0.73089,-1.5168,0.019964,-3.0106,0.13895,-4.7703
-0.72072,-1.5085,0.0085845,-3.0006,0.14865,-4.7659
-0.71063,-1.5001,-0.0028282,-2.9905,0.15834,-4.7614
-0.70062,-1.4917,-0.014273,-2.9805,0.168,-4.7567
-0.6907,-1.4833,-0.025748,-2.9704,0.17764,-4.7518
-0.68086,-1.4748,-0.037253,-2.9603,0.18725,-4.7468
-0.67111,-1.4662,-0.048785,-2.9502,0.19685,-4.7415
-0.66144,-1.4577,-0.060345,-2.9401,0.20641,-4.7362
-0.65186,-1.449,-0.07193,-2.93,0.21595,-4.7306
-0.64237,-1.4404,-0.083539,-2.9199,0.22546,-4.7249
-0.63296,-1.4317,-0.095171,-2.9098,0.23495,-4.719
-0.62364,-1.423,-0.10682,-2.8997,0.24441,-4.713
-0.61441,-1.4142,-0.1185,-2.8896,0.25383,-4.7068
-0.60527,-1.4054,-0.13019,-2.8795,0.26323,-4.7004
-0.59621,-1.3966,-0.1419,-2.8693,0.2726,-4.6938
-0.58725,-1.3877,-0.15363,-2.8592,0.28193,-4.6871
-0.57837,-1.3789,-0.16537,-2.8491,0.29124,-4.6803
-0.56958,-1.37,-0.17713,-2.839,0.30051,-4.6733
-0.56089,-1.3611,-0.18889,-2.8289,0.30975,-4.6661
-0.55228,-1.3521,-0.20067,-2.8188,0.31895,-4.6587
-0.54376,-1.3432,-0.21246,-2.8086,0.32812,-4.6512
-0.53534,-1.3343,-0.22426,-2.7985,0.33725,-4.6436
-0.527,-1.3253,-0.23606,-2.7884,0.34634,-4.6357
-0.51876,-1.3163,-0.24787,-2.7783,0.3554,-4.6278
-0.51061,-1.3074,-0.25968,-2.7682,0.36442,-4.6196
-0.50255,-1.2984,-0.2715,-2.7581,0.3734,-4.6114
-0.49458,-1.2894,-0.28332,-2.748,0.38234,-4.6029
-0.4867,-1.2805,-0.29513,-2.738,0.39124,-4.5943
-0.47892,-1.2715,-0.30695,-2.7279,0.4001,-4.5856
-0.47123,-1.2625,-0.31876,-2.7178,0.40891,-4.5767
-0.46363,-1.2536,-0.33057,-2.7078,0.41769,-4.5676
-0.45612,-1.2446,-0.34238,-2.6977,0.42642,-4.5584
-0.44871,-1.2357,-0.35417,-2.6877,0.4351,-4.549
-0.44139,-1.2268,-0.36596,-2.6776,0.44374,-4.5395
-0.43416,-1.2179,-0.37775,-2.6676,0.45234,-4.5299
-0.42702,-1.209,-0.38952,-2.6576,0.46089,-4.5201
-0.41998,-1.2002,-0.40127,-2.6476,0.46939,-4.5101
-0.41303,-1.1914,-0.41302,-2.6376,0.47785,-4.5
-0.40618,-1.1826,-0.42475,-2.6276,0.48625,-4.4898
-0.39941,-1.1738,-0.43646,-2.6176,0.49461,-4.4794
-0.39274,-1.1651,-0.44816,-2.6077,0.50291,-4.4689
-0.38617,-1.1564,-0.45984,-2.5977,0.51117,-4.4582
-0.37969,-1.1477,-0.4715,-2.5878,0.51937,-4.4474
-0.3733,-1.1391,-0.48313,-2.5779,0.52753,-4.4365
-0.367,-1.1305,-0.49475,-2.568,0.53562,-4.4254
-0.36079,-1.1219,-0.50634,-2.5581,0.54367,-4.4141
-0.35468,-1.1134,-0.5179,-2.5482,0.55166,-4.4028
-0.34866,-1.105,-0.52944,-2.5384,0.5596,-4.3913
-0.34274,-1.0966,-0.54095,-2.5285,0.56748,-4.3796
-0.3369,-1.0882,-0.55244,-2.5187,0.5753,-4.3678
-0.33116,-1.0799,-0.56389,-2.5089,0.58307,-4.3559
-0.32551,-1.0717,-0.57531,-2.4991,0.59078,-4.3439
-0.31995,-1.0635,-0.5867,-2.4894,0.59843,-4.3317
-0.31449,-1.0553,-0.59805,-2.4796,0.60603,-4.3194
-0.30911,-1.0473,-0.60937,-2.4699,0.61356,-4.307
-0.30383,-1.0393,-0.62065,-2.4602,0.62103,-4.2944
-0.29864,-1.0313,-0.6319,-2.4505,0.62845,-4.2817
-0.29353,-1.0235,-0.6431,-2.4409,0.6358,-4.2689
-0.28852,-1.0157,-0.65427,-2.4312,0.64308,-4.256
-0.2836,-1.0079,-0.6654,-2.4216,0.65031,-4.2429
-0.27877,-1.0003,-0.67648,-2.412,0.65747,-4.2297
-0.27403,-0.99271,-0.68752,-2.4025,0.66457,-4.2164
-0.26938,-0.98521,-0.69851,-2.3929,0.6716,-4.203
-0.26481,-0.97779,-0.70946,-2.3834,0.67857,-4.1894
-0.26034,-0.97045,-0.72036,-2.3739,0.68547,-4.1758
-0.25595,-0.9632,-0.73122,-2.3644,0.69231,-4.162
-0.25165,-0.95603,-0.74202,-2.355,0.69908,-4.1481
-0.24744,-0.94895,-0.75277,-2.3455,0.70578,-4.134
-0.24331,-0.94196,-0.76348,-2.3361,0.71241,-4.1199
-0.23928,-0.93506,-0.77413,-2.3268,0.71898,-4.1056
-0.23532,-0.92826,-0.78472,-2.3174,0.72547,-4.0913
-0.23146,-0.92154,-0.79527,-2.3081,0.7319,-4.0768
-0.22768,-0.91493,-0.80575,-2.2988,0.73825,-4.0622
-0.22398,-0.90841,-0.81618,-2.2896,0.74453,-4.0475
-0.22037,-0.90199,-0.82656,-2.2804,0.75074,-4.0327
-0.21684,-0.89568,-0.83687,-2.2712,0.75688,-4.0178
-0.21339,-0.88947,-0.84713,-2.262,0.76295,-4.0028
-0.21003,-0.88336,-0.85732,-2.2528,0.76894,-3.9877
-0.20675,-0.87735,-0.86745,-2.2437,0.77486,-3.9725
-0.20355,-0.87146,-0.87752,-2.2347,0.78071,-3.9571
-0.20044,-0.86568,-0.88753,-2.2256,0.78648,-3.9417
-0.1974,-0.86,-0.89748,-2.2166,0.79217,-3.9262
-0.19444,-0.85444,-0.90735,-2.2076,0.79779,-3.9106
-0.19156,-0.84899,-0.91717,-2.1987,0.80333,-3.8948
-0.18876,-0.84366,-0.92691,-2.1897,0.8088,-3.879
-0.18604,-0.83844,-0.93659,-2.1809,0.81419,-3.8631
-0.1834,-0.83334,-0.9462,-2.172,0.8195,-3.8471
-0.18083,-0.82836,-0.95574,-2.1632,0.82473,-3.831
-0.17834,-0.82351,-0.96522,-2.1544,0.82988,-3.8148
-0.17593,-0.81877,-0.97462,-2.1457,0.83496,-3.7985
-0.17359,-0.81415,-0.98395,-2.1369,0.83996,-3.7822
-0.17132,-0.80966,-0.9932,-2.1283,0.84487,-3.7657
-0.16913,-0.8053,-1.0024,-2.1196,0.84971,-3.7492
-0.16701,-0.80106,-1.0115,-2.111,0.85446,-3.7325
-0.16496,-0.79695,-1.0205,-2.1024,0.85913,-3.7158
-0.16298,-0.79297,-1.0295,-2.0939,0.86373,-3.699
-0.16108,-0.78912,-1.0384,-2.0854,0.86824,-3.6821
-0.15924,-0.7854,-1.0472,-2.0769,0.87266,-3.6652
-0.15747,-0.78181,-1.0559,-2.0685,0.87701,-3.6482
-0.15577,-0.77835,-1.0646,-2.0601,0.88127,-3.631
-0.15414,-0.77503,-1.0732,-2.0518,0.88545,-3.6138
-0.15258,-0.77184,-1.0817,-2.0435,0.88955,-3.5966
-0.15108,-0.76879,-1.0901,-2.0352,0.89356,-3.5792
-0.14964,-0.76587,-1.0984,-2.027,0.89748,-3.5618
-0.14827,-0.76309,-1.1067,-2.0188,0.90132,-3.5443
-0.14696,-0.76044,-1.1149,-2.0106,0.90508,-3.5268
-0.14572,-0.75794,-1.123,-2.0025,0.90875,-3.5092
-0.14453,-0.75557,-1.131,-1.9944,0.91234,-3.4915
-0.14341,-0.75334,-1.139,-1.9864,0.91584,-3.4737
-0.14235,-0.75126,-1.1468,-1.9784,0.91925,-3.4559
-0.14135,-0.74931,-1.1546,-1.9704,0.92258,-3.438
-0.1404,-0.74751,-1.1623,-1.9625,0.92582,-3.42
-0.13951,-0.74584,-1.1699,-1.9546,0.92897,-3.402
-0.13868,-0.74432,-1.1774,-1.9468,0.93204,-3.3839
-0.13791,-0.74294,-1.1849,-1.939,0.93501,-3.3658
-0.13719,-0.7417,-1.1922,-1.9312,0.93791,-3.3476
-0.13652,-0.74061,-1.1995,-1.9235,0.94071,-3.3293
-0.1359,-0.73966,-1.2067,-1.9158,0.94342,-3.311
-0.13534,-0.73885,-1.2138,-1.9082,0.94605,-3.2927
-0.13483,-0.73819,-1.2208,-1.9006,0.94859,-3.2742
-0.13436,-0.73767,-1.2278,-1.8931,0.95104,-3.2558
-0.13395,-0.73729,-1.2346,-1.8856,0.9534,-3.2373
-0.13358,-0.73706,-1.2414,-1.8781,0.95567,-3.2187
-0.13327,-0.73697,-1.2481,-1.8707,0.95785,-3.2001
-0.13299,-0.73703,-1.2547,-1.8633,0.95994,-3.1814
-0.13277,-0.73723,-1.2612,-1.856,0.96195,-3.1627
-0.13258,-0.73757,-1.2677,-1.8487,0.96386,-3.1439
-0.13244,-0.73806,-1.274,-1.8415,0.96568,-3.1251
-0.13234,-0.7387,-1.2803,-1.8342,0.96742,-3.1063
-0.13229,-0.73947,-1.2865,-1.8271,0.96906,-3.0874
-0.13227,-0.74039,-1.2926,-1.82,0.97062,-3.0685
-0.13229,-0.74146,-1.2986,-1.8129,0.97208,-3.0495
-0.13235,-0.74266,-1.3045,-1.8059,0.97345,-3.0305
-0.13245,-0.74401,-1.3103,-1.7989,0.97474,-3.0115
-0.13258,-0.7455,-1.3161,-1.7919,0.97593,-2.9924
-0.13275,-0.74714,-1.3218,-1.785,0.97703,-2.9733
-0.13295,-0.74891,-1.3274,-1.7782,0.97805,-2.9541
-0.13318,-0.75083,-1.3329,-1.7714,0.97897,-2.935
-0.13345,-0.75288,-1.3383,-1.7646,0.9798,-2.9158
-0.13375,-0.75508,-1.3436,-1.7579,0.98054,-2.8965
-0.13407,-0.75741,-1.3489,-1.7512,0.9812,-2.8773
-0.13443,-0.75988,-1.3541,-1.7446,0.98176,-2.858
-0.13481,-0.7625,-1.3592,-1.738,0.98223,-2.8386
-0.13522,-0.76524,-1.3642,-1.7314,0.98261,-2.8193
-0.13566,-0.76813,-1.3691,-1.7249,0.9829,-2.7999
-0.13612,-0.77115,-1.374,-1.7184,0.9831,-2.7806
-0.1366,-0.77431,-1.3788,-1.712,0.98321,-2.7611
-0.13711,-0.7776,-1.3834,-1.7057,0.98323,-2.7417
-0.13764,-0.78102,-1.3881,-1.6993,0.98316,-2.7223
-0.13818,-0.78458,-1.3926,-1.693,0.983,-2.7028
-0.13875,-0.78826,-1.397,-1.6868,0.98275,-2.6833
-0.13933,-0.79208,-1.4014,-1.6806,0.98241,-2.6638
-0.13994,-0.79603,-1.4057,-1.6745,0.98199,-2.6443
-0.14055,-0.8001,-1.4099,-1.6683,0.98147,-2.6248
-0.14119,-0.8043,-1.4141,-1.6623,0.98086,-2.6052
-0.14183,-0.80863,-1.4182,-1.6563,0.98017,-2.5857
-0.14249,-0.81309,-1.4222,-1.6503,0.97938,-2.5661
-0.14316,-0.81766,-1.4261,-1.6444,0.97851,-2.5465
-0.14384,-0.82236,-1.4299,-1.6385,0.97755,-2.527
-0.14454,-0.82718,-1.4337,-1.6326,0.9765,-2.5074
-0.14524,-0.83212,-1.4374,-1.6268,0.97536,-2.4878
-0.14594,-0.83718,-1.441,-1.621,0.97414,-2.4682
-0.14666,-0.84236,-1.4446,-1.6153,0.97283,-2.4486
-0.14737,-0.84765,-1.4481,-1.6097,0.97143,-2.429
-0.1481,-0.85306,-1.4515,-1.604,0.96994,-2.4093
-0.14882,-0.85858,-1.4548,-1.5984,0.96836,-2.3897
-0.14955,-0.86421,-1.4581,-1.5929,0.9667,-2.3701
-0.15028,-0.86995,-1.4613,-1.5874,0.96496,-2.3505
-0.15101,-0.8758,-1.4645,-1.5819,0.96312,-2.3309
-0.15174,-0.88176,-1.4676,-1.5765,0.9612,-2.3113
-0.15246,-0.88782,-1.4706,-1.5711,0.9592,-2.2917
-0.15319,-0.89399,-1.4735,-1.5658,0.95711,-2.2721
-0.1539,-0.90026,-1.4764,-1.5605,0.95494,-2.2525
-0.15462,-0.90663,-1.4793,-1.5553,0.95268,-2.2329
-0.15532,-0.9131,-1.482,-1.55,0.95033,-2.2134
-0.15602,-0.91966,-1.4847,-1.5449,0.94791,-2.1938
-0.15671,-0.92632,-1.4874,-1.5398,0.9454,-2.1742
-0.1574,-0.93307,-1.49,-1.5347,0.9428,-2.1547
-0.15807,-0.93992,-1.4925,-1.5296,0.94013,-2.1351
-0.15873,-0.94685,-1.495,-1.5246,0.93737,-2.1156
-0.15937,-0.95387,-1.4974,-1.5197,0.93453,-2.0961
-0.16001,-0.96098,-1.4998,-1.5147,0.93161,-2.0766
-0.16063,-0.96817,-1.5021,-1.5098,0.9286,-2.0571
-0.16123,-0.97545,-1.5043,-1.505,0.92552,-2.0377
-0.16182,-0.9828,-1.5065,-1.5002,0.92236,-2.0182
-0.16239,-0.99023,-1.5087,-1.4954,0.91911,-1.9988
-0.16294,-0.99774,-1.5108,-1.4907,0.91579,-1.9794
-0.16347,-1.0053,-1.5129,-1.486,0.91239,-1.96
-0.16398,-1.013,-1.5149,-1.4814,0.90891,-1.9406
-0.16447,-1.0207,-1.5168,-1.4768,0.90535,-1.9213
-0.16494,-1.0285,-1.5188,-1.4722,0.90172,-1.902
-0.16538,-1.0364,-1.5206,-1.4677,0.898,-1.8827
-0.1658,-1.0443,-1.5225,-1.4632,0.89422,-1.8634
-0.16619,-1.0523,-1.5243,-1.4587,0.89035,-1.8441
-0.16656,-1.0603,-1.526,-1.4543,0.88641,-1.8249
-0.1669,-1.0684,-1.5277,-1.4499,0.8824,-1.8057
-0.16722,-1.0766,-1.5294,-1.4456,0.87831,-1.7865
-0.1675,-1.0848,-1.5311,-1.4412,0.87415,-1.7674
-0.16775,-1.093,-1.5327,-1.437,0.86991,-1.7483
-0.16798,-1.1013,-1.5342,-1.4327,0.8656,-1.7292
-0.16817,-1.1097,-1.5358,-1.4285,0.86122,-1.7101
-0.16833,-1.1181,-1.5373,-1.4244,0.85677,-1.6911
-0.16845,-1.1265,-1.5388,-1.4202,0.85224,-1.6721
-0.16854,-1.135,-1.5402,-1.4161,0.84765,-1.6531
-0.1686,-1.1435,-1.5416,-1.4121,0.84299,-1.6342
-0.16862,-1.1521,-1.543,-1.408,0.83826,-1.6153
-0.1686,-1.1607,-1.5444,-1.404,0.83345,-1.5964
-0.16855,-1.1693,-1.5457,-1.4001,0.82859,-1.5776
-0.16845,-1.1779,-1.547,-1.3961,0.82365,-1.5588
-0.16832,-1.1866,-1.5483,-1.3922,0.81865,-1.5401
-0.16815,-1.1953,-1.5496,-1.3884,0.81358,-1.5213
-0.16793,-1.204,-1.5509,-1.3845,0.80845,-1.5027
-0.16768,-1.2127,-1.5521,-1.3807,0.80325,-1.484
-0.16738,-1.2214,-1.5533,-1.377,0.79799,-1.4654
-0.16704,-1.2302,-1.5545,-1.3732,0.79266,-1.4468
-0.16665,-1.239,-1.5557,-1.3695,0.78727,-1.4283
-0.16622,-1.2477,-1.5569,-1.3658,0.78182,-1.4098
-0.16574,-1.2565,-1.558,-1.3622,0.77631,-1.3914
-0.16522,-1.2653,-1.5592,-1.3586,0.77074,-1.373
-0.16465,-1.2741,-1.5603,-1.355,0.76511,-1.3546
-0.16403,-1.2829,-1.5614,-1.3514,0.75942,-1.3363
-0.16337,-1.2917,-1.5626,-1.3479,0.75367,-1.3181
-0.16265,-1.3004,-1.5637,-1.3444,0.74787,-1.2998
-0.16188,-1.3092,-1.5648,-1.3409,0.742,-1.2817
-0.16107,-1.318,-1.5659,-1.3375,0.73609,-1.2635
-0.1602,-1.3267,-1.567,-1.3341,0.73011,-1.2454
-0.15928,-1.3354,-1.5681,-1.3307,0.72408,-1.2274
-0.15831,-1.3441,-1.5692,-1.3273,0.718,-1.2094
-0.15729,-1.3528,-1.5703,-1.324,0.71187,-1.1914
-0.15621,-1.3615,-1.5715,-1.3206,0.70568,-1.1735
-0.15507,-1.3702,-1.5726,-1.3174,0.69944,-1.1557
-0.15389,-1.3788,-1.5737,-1.3141,0.69315,-1.1379
-0.15264,-1.3874,-1.5748,-1.3108,0.68681,-1.1201
-0.15134,-1.3959,-1.576,-1.3076,0.68042,-1.1024
-0.14999,-1.4044,-1.5771,-1.3044,0.67399,-1.0848
-0.14857,-1.4129,-1.5783,-1.3013,0.6675,-1.0672
-0.1471,-1.4213,-1.5794,-1.2981,0.66097,-1.0496
-0.14557,-1.4297,-1.5806,-1.295,0.65439,-1.0321
-0.14399,-1.4381,-1.5818,-1.2919,0.64777,-1.0147
-0.14234,-1.4464,-1.583,-1.2888,0.64111,-0.9973
-0.14063,-1.4547,-1.5842,-1.2858,0.6344,-0.97996
-0.13886,-1.4629,-1.5854,-1.2827,0.62765,-0.96267
-0.13704,-1.471,-1.5867,-1.2797,0.62085,-0.94544
-0.13515,-1.4791,-1.588,-1.2767,0.61402,-0.92826
-0.1332,-1.4872,-1.5893,-1.2737,0.60715,-0.91113
-0.13118,-1.4952,-1.5906,-1.2708,0.60023,-0.89406
-0.12911,-1.5031,-1.5919,-1.2678,0.59328,-0.87704
-0.12697,-1.5109,-1.5933,-1.2649,0.58629,-0.86008
-0.12477,-1.5187,-1.5947,-1.262,0.57927,-0.84318
-0.1225,-1.5264,-1.5961,-1.2591,0.57221,-0.82633
-0.12018,-1.5341,-1.5975,-1.2563,0.56511,-0.80954
-0.11778,-1.5417,-1.599,-1.2534,0.55799,-0.7928
-0.11533,-1.5492,-1.6005,-1.2506,0.55082,-0.77612
-0.11281,-1.5566,-1.602,-1.2478,0.54363,-0.7595
-0.11022,-1.5639,-1.6036,-1.2449,0.53641,-0.74293
-0.10757,-1.5712,-1.6052,-1.2422,0.52915,-0.72642
-0.10485,-1.5783,-1.6068,-1.2394,0.52187,-0.70997
-0.10206,-1.5854,-1.6084,-1.2366,0.51455,-0.69358
-0.099212,-1.5924,-1.6101,-1.2339,0.50721,-0.67725
-0.096295,-1.5993,-1.6119,-1.2312,0.49985,-0.66097
-0.093311,-1.6061,-1.6136,-1.2284,0.49245,-0.64476
-0.090261,-1.6129,-1.6154,-1.2257,0.48504,-0.6286
-0.087143,-1.6195,-1.6173,-1.2231,0.47759,-0.6125
-0.083958,-1.626,-1.6191,-1.2204,0.47013,-0.59646
-0.080706,-1.6324,-1.6211,-1.2177,0.46264,-0.58048
-0.077386,-1.6388,-1.623,-1.2151,0.45514,-0.56456
-0.073998,-1.645,-1.625,-1.2124,0.44761,-0.5487
-0.070542,-1.6511,-1.6271,-1.2098,0.44006,-0.53291
-0.067019,-1.6571,-1.6292,-1.2072,0.4325,-0.51717
-0.063427,-1.663,-1.6313,-1.2045,0.42491,-0.50149
-0.059768,-1.6688,-1.6335,-1.2019,0.41731,-0.48587
-0.05604,-1.6745,-1.6357,-1.1993,0.4097,-0.47031
-0.052243,-1.68,-1.638,-1.1968,0.40207,-0.45481
-0.048379,-1.6854,-1.6403,-1.1942,0.39443,-0.43938
-0.044446,-1.6908,-1.6426,-1.1916,0.38677,-0.424
-0.040445,-1.696,-1.645,-1.189,0.3791,-0.40869
-0.036375,-1.7011,-1.6475,-1.1865,0.37142,-0.39343
-0.032237,-1.706,-1.65,-1.1839,0.36373,-0.37824
-0.028031,-1.7108,-1.6526,-1.1814,0.35604,-0.36311
-0.023756,-1.7156,-1.6552,-1.1789,0.34833,-0.34804
-0.019413,-1.7201,-1.6578,-1.1763,0.34062,-0.33303
-0.015002,-1.7246,-1.6606,-1.1738,0.3329,-0.31808
-0.010523,-1.7289,-1.6633,-1.1713,0.32517,-0.3032
-0.0059763,-1.7331,-1.6661,-1.1688,0.31745,-0.28837
-0.0013614,-1.7371,-1.669,-1.1662,0.30971,-0.27361
0.0033212,-1.7411,-1.6719,-1.1637,0.30198,-0.25891
0.0080714,-1.7449,-1.6749,-1.1612,0.29424,-0.24427
0.012889,-1.7485,-1.6779,-1.1587,0.28651,-0.22969
0.017774,-1.752,-1.681,-1.1562,0.27877,-0.21518
0.022726,-1.7554,-1.6842,-1.1537,0.27104,-0.20072
0.027745,-1.7586,-1.6874,-1.1512,0.2633,-0.18633
0.032831,-1.7617,-1.6906,-1.1487,0.25557,-0.172
0.037983,-1.7647,-1.6939,-1.1462,0.24785,-0.15772
0.043201,-1.7675,-1.6973,-1.1437,0.24013,-0.14352
0.048486,-1.7701,-1.7007,-1.1412,0.23241,-0.12937
0.053836,-1.7726,-1.7042,-1.1387,0.22471,-0.11528
0.059252,-1.775,-1.7077,-1.1362,0.21701,-0.10126
0.064733,-1.7772,-1.7113,-1.1338,0.20932,-0.087291
0.070279,-1.7793,-1.715,-1.1313,0.20163,-0.073388
0.075889,-1.7812,-1.7187,-1.1288,0.19396,-0.059546
0.081564,-1.783,-1.7225,-1.1263,0.1863,-0.045764
0.087303,-1.7846,-1.7263,-1.1238,0.17866,-0.032044
0.093105,-1.786,-1.7302,-1.1213,0.17102,-0.018385
0.09897,-1.7873,-1.7341,-1.1188,0.1634,-0.0047857
0.1049,-1.7885,-1.7381,-1.1162,0.1558,0.0087527
0.11089,-1.7895,-1.7421,-1.1137,0.14821,0.022231
0.11694,-1.7904,-1.7462,-1.1112,0.14064,0.035648
0.12306,-1.7911,-1.7504,-1.1087,0.13309,0.049006
0.12923,-1.7916,-1.7546,-1.1062,0.12555,0.062303
0.13547,-1.792,-1.7589,-1.1036,0.11804,0.07554
0.14177,-1.7922,-1.7632,-1.1011,0.11054,0.088718
0.14812,-1.7923,-1.7676,-1.0986,0.10307,0.10184
0.15454,-1.7922,-1.7721,-1.096,0.095619,0.11489
0.16101,-1.7919,-1.7766,-1.0935,0.088191,0.12789
0.16755,-1.7915,-1.7811,-1.0909,0.080788,0.14083
0.17414,-1.791,-1.7858,-1.0884,0.073409,0.15371
0.18079,-1.7903,-1.7904,-1.0858,0.066056,0.16654
0.18749,-1.7894,-1.7952,-1.0833,0.05873,0.1793
0.19425,-1.7883,-1.7999,-1.0807,0.051431,0.19201
0.20107,-1.7872,-1.8048,-1.0781,0.044161,0.20465
0.20794,-1.7858,-1.8096,-1.0755,0.03692,0.21724
0.21487,-1.7843,-1.8146,-1.0729,0.029709,0.22977
0.22185,-1.7826,-1.8196,-1.0703,0.022528,0.24224
0.22889,-1.7808,-1.8246,-1.0677,0.01538,0.25466
0.23598,-1.7788,-1.8297,-1.0651,0.0082641,0.26702
0.24312,-1.7766,-1.8349,-1.0624,0.0011815,0.27932
0.25031,-1.7743,-1.8401,-1.0598,-0.0058668,0.29156
0.25755,-1.7719,-1.8453,-1.0571,-0.01288,0.30375
0.26484,-1.7692,-1.8506,-1.0545,-0.019858,0.31588
0.27218,-1.7665,-1.856,-1.0518,-0.026798,0.32796
0.27957,-1.7635,-1.8613,-1.0491,-0.033702,0.33998
0.28701,-1.7604,-1.8668,-1.0465,-0.040567,0.35194
0.2945,-1.7572,-1.8723,-1.0438,-0.047393,0.36385
0.30203,-1.7538,-1.8778,-1.0411,-0.05418,0.3757
0.30961,-1.7502,-1.8834,-1.0383,-0.060925,0.3875
0.31724,-1.7465,-1.889,-1.0356,-0.06763,0.39925
0.32491,-1.7426,-1.8947,-1.0329,-0.074292,0.41093
0.33262,-1.7386,-1.9004,-1.0301,-0.080912,0.42257
0.34038,-1.7344,-1.9061,-1.0274,-0.087488,0.43415
0.34817,-1.7301,-1.9119,-1.0246,-0.094019,0.44568
0.35602,-1.7256,-1.9177,-1.0218,-0.10051,0.45715
0.3639,-1.721,-1.9236,-1.019,-0.10695,0.46857
0.37182,-1.7162,-1.9295,-1.0162,-0.11334,0.47994
0.37978,-1.7112,-1.9354,-1.0134,-0.11969,0.49126
0.38778,-1.7061,-1.9414,-1.0106,-0.12599,0.50252
0.39581,-1.7009,-1.9474,-1.0078,-0.13224,0.51373
0.40389,-1.6955,-1.9534,-1.0049,-0.13844,0.52489
0.412,-1.69,-1.9595,-1.0021,-0.14459,0.536
0.42014,-1.6843,-1.9656,-0.9992,-0.15069,0.54706
0.42832,-1.6785,-1.9718,-0.99632,-0.15674,0.55807
0.43653,-1.6726,-1.9779,-0.99342,-0.16273,0.56902
0.44478,-1.6665,-1.9841,-0.99052,-0.16868,0.57993
0.45305,-1.6602,-1.9903,-0.9876,-0.17457,0.59079
0.46136,-1.6538,-1.9966,-0.98467,-0.1804,0.60159
0.4697,-1.6473,-2.0028,-0.98172,-0.18619,0.61235
0.47807,-1.6406,-2.0091,-0.97877,-0.19191,0.62306
0.48646,-1.6339,-2.0155,-0.9758,-0.19758,0.63372
0.49488,-1.6269,-2.0218,-0.97282,-0.2032,0.64433
0.50333,-1.6199,-2.0281,-0.96983,-0.20875,0.6549
0.5118,-1.6127,-2.0345,-0.96683,-0.21425,0.66541
0.5203,-1.6053,-2.0409,-0.96381,-0.21969,0.67588
0.52883,-1.5979,-2.0473,-0.96078,-0.22507,0.6863
0.53737,-1.5903,-2.0537,-0.95774,-0.2304,0.69668
0.54594,-1.5826,-2.0601,-0.95468,-0.23566,0.70701
0.55453,-1.5748,-2.0665,-0.95162,-0.24086,0.71729
0.56313,-1.5668,-2.073,-0.94854,-0.246,0.72753
0.57176,-1.5587,-2.0794,-0.94544,-0.25108,0.73772
0.5804,-1.5505,-2.0859,-0.94234,-0.2561,0.74786
0.58907,-1.5422,-2.0924,-0.93922,-0.26105,0.75797
0.59774,-1.5338,-2.0988,-0.93609,-0.26594,0.76802
0.60644,-1.5252,-2.1053,-0.93295,-0.27077,0.77804
0.61514,-1.5165,-2.1117,-0.9298,-0.27553,0.78801
0.62386,-1.5078,-2.1182,-0.92663,-0.28023,0.79793
0.6326,-1.4989,-2.1247,-0.92345,-0.28487,0.80782
0.64134,-1.4899,-2.1311,-0.92026,-0.28943,0.81766
0.65009,-1.4808,-2.1375,-0.91706,-0.29394,0.82745
0.65886,-1.4716,-2.144,-0.91384,-0.29837,0.83721
0.66763,-1.4623,-2.1504,-0.91062,-0.30274,0.84693
0.67641,-1.4529,-2.1568,-0.90738,-0.30704,0.8566
0.68519,-1.4434,-2.1632,-0.90413,-0.31127,0.86623
0.69398,-1.4338,-2.1696,-0.90087,-0.31544,0.87582
0.70278,-1.4241,-2.176,-0.89759,-0.31954,0.88537
0.71158,-1.4143,-2.1823,-0.89431,-0.32356,0.89488
0.72038,-1.4044,-2.1886,-0.89101,-0.32752,0.90436
0.72918,-1.3944,-2.195,-0.88771,-0.33141,0.91379
0.73798,-1.3843,-2.2012,-0.88439,-0.33523,0.92318
0.74679,-1.3742,-2.2075,-0.88106,-0.33898,0.93253
0.75559,-1.364,-2.2137,-0.87772,-0.34265,0.94185
0.76438,-1.3537,-2.2199,-0.87437,-0.34626,0.95113
0.77318,-1.3433,-2.2261,-0.87101,-0.34979,0.96037
0.78197,-1.3328,-2.2322,-0.86764,-0.35326,0.96957
0.79075,-1.3223,-2.2383,-0.86425,-0.35665,0.97874
0.79953,-1.3117,-2.2444,-0.86086,-0.35997,0.98787
0.8083,-1.301,-2.2504,-0.85746,-0.36321,0.99696
0.81706,-1.2902,-2.2564,-0.85405,-0.36639,1.006
0.82581,-1.2794,-2.2623,-0.85063,-0.36949,1.015
0.83455,-1.2685,-2.2682,-0.8472,-0.37251,1.024
0.84327,-1.2576,-2.274,-0.84376,-0.37547,1.033
0.85199,-1.2466,-2.2798,-0.84031,-0.37835,1.0419
0.86069,-1.2356,-2.2856,-0.83686,-0.38115,1.0508
0.86938,-1.2244,-2.2913,-0.83339,-0.38389,1.0596
0.87805,-1.2133,-2.2969,-0.82992,-0.38654,1.0684
0.8867,-1.2021,-2.3025,-0.82644,-0.38913,1.0772
0.89534,-1.1908,-2.3081,-0.82295,-0.39163,1.086
0.90396,-1.1795,-2.3135,-0.81946,-0.39407,1.0947
0.91256,-1.1682,-2.3189,-0.81595,-0.39643,1.1034
0.92114,-1.1568,-2.3243,-0.81244,-0.39871,1.112
0.92969,-1.1454,-2.3296,-0.80893,-0.40092,1.1207
0.93823,-1.1339,-2.3348,-0.8054,-0.40305,1.1292
0.94674,-1.1224,-2.3399,-0.80187,-0.40511,1.1378
0.95522,-1.1109,-2.345,-0.79834,-0.40709,1.1463
0.96368,-1.0994,-2.35,-0.7948,-0.40899,1.1548
0.97211,-1.0878,-2.3549,-0.79125,-0.41082,1.1633
0.98052,-1.0762,-2.3598,-0.7877,-0.41258,1.1717
0.9889,-1.0646,-2.3645,-0.78414,-0.41425,1.1801
0.99724,-1.0529,-2.3692,-0.78058,-0.41586,1.1885
1.0056,-1.0413,-2.3738,-0.77702,-0.41738,1.1969
1.0138,-1.0296,-2.3783,-0.77345,-0.41883,1.2052
1.0221,-1.0179,-2.3828,-0.76988,-0.4202,1.2135
1.0303,-1.0062,-2.3871,-0.7663,-0.4215,1.2218
1.0385,-0.99455,-2.3914,-0.76272,-0.42272,1.23
1.0467,-0.98285,-2.3955,-0.75914,-0.42387,1.2382
1.0548,-0.97115,-2.3996,-0.75556,-0.42494,1.2464
1.0629,-0.95945,-2.4036,-0.75197,-0.42593,1.2545
1.0709,-0.94775,-2.4074,-0.74839,-0.42685,1.2627
1.0789,-0.93606,-2.4112,-0.7448,-0.42769,1.2708
1.0869,-0.92438,-2.4149,-0.74121,-0.42846,1.2789
1.0948,-0.91271,-2.4184,-0.73762,-0.42915,1.2869
1.1027,-0.90105,-2.4219,-0.73403,-0.42976,1.2949
1.1105,-0.88941,-2.4253,-0.73044,-0.4303,1.3029
1.1183,-0.87779,-2.4285,-0.72685,-0.43077,1.3109
1.126,-0.86618,-2.4316,-0.72326,-0.43116,1.3189
1.1337,-0.8546,-2.4347,-0.71968,-0.43147,1.3268
1.1414,-0.84305,-2.4376,-0.71609,-0.43171,1.3347
1.149,-0.83152,-2.4403,-0.71251,-0.43187,1.3426
1.1566,-0.82002,-2.443,-0.70893,-0.43196,1.3505
1.1641,-0.80855,-2.4456,-0.70535,-0.43198,1.3583
1.1716,-0.79712,-2.448,-0.70177,-0.43192,1.3661
1.179,-0.78572,-2.4503,-0.6982,-0.43178,1.3739
1.1864,-0.77437,-2.4525,-0.69463,-0.43158,1.3817
1.1937,-0.76305,-2.4545,-0.69107,-0.4313,1.3894
1.2009,-0.75178,-2.4565,-0.68751,-0.43094,1.3972
1.2081,-0.74056,-2.4583,-0.68396,-0.43051,1.4049
1.2153,-0.72938,-2.4599,-0.68041,-0.43001,1.4126
1.2224,-0.71826,-2.4614,-0.67687,-0.42944,1.4202
1.2295,-0.70719,-2.4628,-0.67334,-0.42879,1.4279
1.2364,-0.69617,-2.4641,-0.66981,-0.42808,1.4355
1.2434,-0.68522,-2.4652,-0.66629,-0.42729,1.4431
1.2503,-0.67432,-2.4662,-0.66278,-0.42642,1.4507
1.2571,-0.66348,-2.467,-0.65927,-0.42549,1.4582
1.2638,-0.65271,-2.4677,-0.65578,-0.42449,1.4658
1.2705,-0.64201,-2.4682,-0.65229,-0.42341,1.4733
1.2772,-0.63137,-2.4686,-0.64881,-0.42227,1.4808
1.2837,-0.62081,-2.4689,-0.64534,-0.42105,1.4883
1.2903,-0.61032,-2.469,-0.64189,-0.41977,1.4958
1.2967,-0.5999,-2.4689,-0.63844,-0.41842,1.5032
1.3031,-0.58956,-2.4687,-0.63501,-0.41699,1.5107
1.3094,-0.5793,-2.4683,-0.63158,-0.4155,1.5181
1.3157,-0.56913,-2.4678,-0.62817,-0.41394,1.5255
1.3219,-0.55903,-2.4671,-0.62477,-0.41232,1.5329
1.328,-0.54903,-2.4663,-0.62139,-0.41062,1.5402
1.3341,-0.53911,-2.4653,-0.61801,-0.40886,1.5476
1.3401,-0.52928,-2.4642,-0.61466,-0.40704,1.5549
1.346,-0.51954,-2.4628,-0.61131,-0.40514,1.5622
1.3519,-0.50989,-2.4614,-0.60798,-0.40318,1.5695
1.3577,-0.50034,-2.4597,-0.60467,-0.40116,1.5768
1.3634,-0.49089,-2.4579,-0.60137,-0.39907,1.5841
1.369,-0.48154,-2.4559,-0.59809,-0.39692,1.5913
1.3746,-0.47229,-2.4538,-0.59483,-0.3947,1.5985
1.3801,-0.46314,-2.4515,-0.59158,-0.39242,1.6058
1.3856,-0.4541,-2.449,-0.58835,-0.39008,1.613
1.391,-0.44516,-2.4463,-0.58514,-0.38768,1.6202
1.3963,-0.43633,-2.4435,-0.58195,-0.38521,1.6273
1.4015,-0.42761,-2.4404,-0.57878,-0.38269,1.6345
1.4066,-0.41901,-2.4373,-0.57562,-0.3801,1.6416
1.4117,-0.41052,-2.4339,-0.57249,-0.37745,1.6488
1.4167,-0.40214,-2.4304,-0.56938,-0.37474,1.6559
1.4217,-0.39388,-2.4266,-0.56628,-0.37198,1.663
1.4265,-0.38574,-2.4227,-0.56321,-0.36915,1.6701
1.4313,-0.37772,-2.4187,-0.56017,-0.36627,1.6772
1.436,-0.36982,-2.4144,-0.55714,-0.36333,1.6842
1.4406,-0.36204,-2.41,-0.55414,-0.36034,1.6913
1.4452,-0.35439,-2.4053,-0.55116,-0.35728,1.6983
1.4497,-0.34687,-2.4005,-0.5482,-0.35418,1.7053
1.4541,-0.33947,-2.3955,-0.54527,-0.35101,1.7123
1.4584,-0.3322,-2.3903,-0.54237,-0.3478,1.7193
1.4627,-0.32506,-2.385,-0.53948,-0.34453,1.7263
1.4668,-0.31806,-2.3794,-0.53663,-0.3412,1.7333
1.4709,-0.31119,-2.3737,-0.5338,-0.33783,1.7402
1.4749,-0.30445,-2.3677,-0.531,-0.3344,1.7472
1.4789,-0.29784,-2.3616,-0.52822,-0.33092,1.7541
1.4827,-0.29138,-2.3553,-0.52548,-0.32739,1.7611
1.4865,-0.28505,-2.3488,-0.52276,-0.32381,1.768
1.4902,-0.27886,-2.3421,-0.52007,-0.32019,1.7749
1.4938,-0.27282,-2.3353,-0.51741,-0.31651,1.7818
1.4974,-0.26691,-2.3282,-0.51478,-0.31279,1.7886
1.5008,-0.26115,-2.3209,-0.51218,-0.30902,1.7955
1.5042,-0.25553,-2.3135,-0.5096,-0.3052,1.8024
1.5075,-0.25005,-2.3058,-0.50706,-0.30134,1.8092
1.5107,-0.24472,-2.298,-0.50456,-0.29743,1.816
1.5139,-0.23954,-2.29,-0.50208,-0.29348,1.8229
1.5169,-0.23451,-2.2818,-0.49964,-0.28948,1.8297
1.5199,-0.22962,-2.2733,-0.49722,-0.28545,1.8365
1.5228,-0.22488,-2.2647,-0.49485,-0.28137,1.8433
1.5257,-0.2203,-2.2559,-0.4925,-0.27724,1.8501
1.5284,-0.21586,-2.2469,-0.49019,-0.27308,1.8568
1.5311,-0.21158,-2.2377,-0.48792,-0.26888,1.8636
1.5336,-0.20745,-2.2284,-0.48568,-0.26464,1.8703
1.5361,-0.20347,-2.2188,-0.48347,-0.26036,1.8771
1.5386,-0.19965,-2.209,-0.4813,-0.25605,1.8838
1.5409,-0.19598,-2.199,-0.47917,-0.25169,1.8905
1.5431,-0.19246,-2.1889,-0.47707,-0.24731,1.8972
1.5453,-0.1891,-2.1785,-0.47502,-0.24288,1.9039
1.5474,-0.1859,-2.168,-0.47299,-0.23842,1.9106
1.5494,-0.18285,-2.1572,-0.47101,-0.23393,1.9173
1.5514,-0.17996,-2.1463,-0.46907,-0.22941,1.924
1.5532,-0.17723,-2.1352,-0.46716,-0.22485,1.9306
1.555,-0.17466,-2.1239,-0.4653,-0.22026,1.9373
1.5567,-0.17224,-2.1124,-0.46347,-0.21564,1.9439
1.5583,-0.16999,-2.1007,-0.46168,-0.21099,1.9506
1.5599,-0.16789,-2.0888,-0.45994,-0.20632,1.9572
