AlexeiOvcharov/moveit_collision_checker/data/traektory2.csv
shoulder_pan_joint, shoulder_lift_joint, elbow_joint, wrist_1_joint, wrist_2_joint, wrist_3_joint
0.87266,-1.1345,1.4835,-0.2618,1.1345,-0.43633
0.87392,-1.1345,1.4857,-0.25013,1.1461,-0.42757
0.87519,-1.1345,1.4878,-0.2385,1.1578,-0.41884
0.87647,-1.1344,1.4898,-0.22692,1.1694,-0.41012
0.87775,-1.1344,1.4918,-0.21538,1.181,-0.40144
0.87905,-1.1344,1.4938,-0.2039,1.1925,-0.39278
0.88035,-1.1343,1.4956,-0.19246,1.204,-0.38415
0.88167,-1.1343,1.4974,-0.18107,1.2155,-0.37554
0.88299,-1.1343,1.4992,-0.16973,1.2269,-0.36696
0.88433,-1.1342,1.5009,-0.15845,1.2383,-0.3584
0.88568,-1.1341,1.5025,-0.14721,1.2497,-0.34988
0.88703,-1.1341,1.5041,-0.13602,1.261,-0.34138
0.8884,-1.134,1.5056,-0.12488,1.2723,-0.33291
0.88978,-1.1339,1.507,-0.1138,1.2835,-0.32446
0.89117,-1.1338,1.5084,-0.10277,1.2947,-0.31605
0.89257,-1.1337,1.5097,-0.091791,1.3058,-0.30766
0.89399,-1.1336,1.5109,-0.080866,1.317,-0.2993
0.89541,-1.1334,1.5121,-0.069994,1.328,-0.29097
0.89685,-1.1333,1.5132,-0.059177,1.3391,-0.28267
0.8983,-1.1331,1.5143,-0.048415,1.3501,-0.2744
0.89976,-1.133,1.5153,-0.037707,1.361,-0.26616
0.90123,-1.1328,1.5162,-0.027056,1.3719,-0.25795
0.90272,-1.1327,1.5171,-0.016461,1.3828,-0.24977
0.90422,-1.1325,1.5178,-0.0059218,1.3936,-0.24163
0.90573,-1.1323,1.5186,0.0045599,1.4043,-0.23351
0.90725,-1.1321,1.5192,0.014984,1.4151,-0.22542
0.90879,-1.1319,1.5198,0.02535,1.4257,-0.21736
0.91034,-1.1316,1.5204,0.035658,1.4364,-0.20934
0.9119,-1.1314,1.5208,0.045908,1.447,-0.20135
0.91348,-1.1311,1.5212,0.056097,1.4575,-0.19339
0.91507,-1.1309,1.5215,0.066228,1.468,-0.18546
0.91668,-1.1306,1.5218,0.076298,1.4784,-0.17756
0.91829,-1.1303,1.522,0.086307,1.4888,-0.1697
0.91993,-1.13,1.5221,0.096256,1.4991,-0.16187
0.92157,-1.1297,1.5221,0.10614,1.5094,-0.15407
0.92323,-1.1294,1.5221,0.11597,1.5197,-0.14631
0.92491,-1.1291,1.522,0.12573,1.5299,-0.13858
0.9266,-1.1287,1.5219,0.13543,1.54,-0.13088
0.9283,-1.1284,1.5216,0.14507,1.5501,-0.12322
0.93002,-1.128,1.5214,0.15464,1.5601,-0.11559
0.93176,-1.1276,1.521,0.16415,1.5701,-0.108
0.93351,-1.1272,1.5205,0.1736,1.5801,-0.10044
0.93527,-1.1268,1.52,0.18298,1.5899,-0.092912
0.93705,-1.1264,1.5195,0.1923,1.5998,-0.085422
0.93885,-1.126,1.5188,0.20155,1.6095,-0.077967
0.94066,-1.1255,1.5181,0.21074,1.6193,-0.070547
0.94248,-1.1251,1.5173,0.21985,1.6289,-0.063163
0.94433,-1.1246,1.5164,0.22891,1.6385,-0.055814
0.94618,-1.1241,1.5155,0.23789,1.6481,-0.048501
0.94806,-1.1236,1.5145,0.24681,1.6576,-0.041224
0.94995,-1.1231,1.5134,0.25566,1.667,-0.033983
0.95185,-1.1226,1.5122,0.26445,1.6764,-0.026779
0.95378,-1.1221,1.511,0.27316,1.6857,-0.01961
0.95572,-1.1215,1.5097,0.28181,1.695,-0.012479
0.95767,-1.1209,1.5083,0.29038,1.7042,-0.0053835
0.95964,-1.1203,1.5069,0.29889,1.7134,0.0016747
0.96163,-1.1197,1.5053,0.30733,1.7225,0.0086958
0.96364,-1.1191,1.5037,0.3157,1.7315,0.01568
0.96566,-1.1185,1.5021,0.32399,1.7405,0.022627
0.9677,-1.1179,1.5003,0.33222,1.7494,0.029536
0.96976,-1.1172,1.4985,0.34038,1.7582,0.036408
0.97183,-1.1165,1.4966,0.34846,1.767,0.043242
0.97392,-1.1158,1.4946,0.35647,1.7758,0.050038
0.97603,-1.1151,1.4926,0.36441,1.7844,0.056797
0.97816,-1.1144,1.4905,0.37228,1.793,0.063517
0.9803,-1.1137,1.4883,0.38008,1.8016,0.070199
0.98246,-1.1129,1.486,0.3878,1.8101,0.076843
0.98464,-1.1122,1.4837,0.39545,1.8185,0.083449
0.98684,-1.1114,1.4812,0.40303,1.8269,0.090016
0.98905,-1.1106,1.4788,0.41053,1.8351,0.096545
0.99128,-1.1098,1.4762,0.41796,1.8434,0.10303
0.99353,-1.1089,1.4735,0.42531,1.8515,0.10949
0.9958,-1.1081,1.4708,0.43259,1.8597,0.1159
0.99809,-1.1072,1.468,0.4398,1.8677,0.12227
1.0004,-1.1063,1.4651,0.44692,1.8757,0.12861
1.0027,-1.1054,1.4622,0.45398,1.8836,0.1349
1.0051,-1.1045,1.4592,0.46096,1.8914,0.14116
1.0074,-1.1036,1.4561,0.46786,1.8992,0.14737
1.0098,-1.1026,1.4529,0.47468,1.9069,0.15355
1.0122,-1.1017,1.4496,0.48143,1.9145,0.15969
1.0146,-1.1007,1.4463,0.48811,1.9221,0.16579
1.017,-1.0997,1.4429,0.4947,1.9296,0.17185
1.0195,-1.0987,1.4394,0.50122,1.9371,0.17787
1.022,-1.0977,1.4359,0.50766,1.9444,0.18385
1.0244,-1.0966,1.4322,0.51402,1.9517,0.18979
1.027,-1.0956,1.4285,0.52031,1.959,0.19569
1.0295,-1.0945,1.4247,0.52652,1.9662,0.20155
1.032,-1.0934,1.4209,0.53265,1.9733,0.20737
1.0346,-1.0923,1.4169,0.5387,1.9803,0.21315
1.0372,-1.0911,1.4129,0.54467,1.9872,0.21889
1.0398,-1.09,1.4088,0.55056,1.9941,0.22459
1.0424,-1.0888,1.4047,0.55638,2.0009,0.23025
1.045,-1.0876,1.4004,0.56211,2.0077,0.23588
1.0477,-1.0864,1.3961,0.56777,2.0144,0.24146
1.0504,-1.0852,1.3917,0.57334,2.021,0.247
1.0531,-1.084,1.3872,0.57884,2.0275,0.2525
1.0558,-1.0827,1.3827,0.58425,2.034,0.25796
1.0585,-1.0814,1.378,0.58959,2.0404,0.26338
1.0613,-1.0801,1.3733,0.59484,2.0467,0.26876
1.0641,-1.0788,1.3686,0.60002,2.0529,0.2741
1.0669,-1.0775,1.3637,0.60511,2.0591,0.2794
1.0697,-1.0762,1.3588,0.61012,2.0652,0.28466
1.0725,-1.0748,1.3538,0.61505,2.0713,0.28989
1.0754,-1.0734,1.3487,0.61991,2.0772,0.29507
1.0782,-1.072,1.3435,0.62467,2.0831,0.30021
1.0811,-1.0706,1.3383,0.62936,2.0889,0.30531
1.084,-1.0692,1.333,0.63397,2.0946,0.31037
1.087,-1.0677,1.3276,0.63849,2.1003,0.31539
1.0899,-1.0663,1.3221,0.64294,2.1059,0.32037
1.0929,-1.0648,1.3166,0.6473,2.1114,0.32531
1.0959,-1.0633,1.311,0.65158,2.1169,0.33021
1.0989,-1.0618,1.3053,0.65577,2.1222,0.33507
1.1019,-1.0602,1.2995,0.65989,2.1275,0.33989
1.1049,-1.0587,1.2937,0.66392,2.1327,0.34467
1.108,-1.0571,1.2877,0.66787,2.1379,0.34942
1.1111,-1.0555,1.2818,0.67174,2.1429,0.35412
1.1142,-1.0539,1.2757,0.67552,2.1479,0.35878
1.1173,-1.0523,1.2695,0.67922,2.1528,0.3634
1.1205,-1.0506,1.2633,0.68284,2.1577,0.36799
1.1236,-1.049,1.257,0.68638,2.1624,0.37253
1.1268,-1.0473,1.2507,0.68983,2.1671,0.37703
1.13,-1.0456,1.2442,0.6932,2.1717,0.3815
1.1332,-1.0439,1.2377,0.69649,2.1762,0.38592
1.1364,-1.0422,1.2311,0.69969,2.1807,0.39031
1.1397,-1.0404,1.2245,0.70281,2.1851,0.39466
1.143,-1.0386,1.2178,0.70585,2.1894,0.39896
1.1463,-1.0369,1.211,0.70881,2.1936,0.40323
1.1496,-1.0351,1.2041,0.71168,2.1978,0.40746
1.1529,-1.0332,1.1971,0.71446,2.2018,0.41166
1.1563,-1.0314,1.1901,0.71717,2.2058,0.41581
1.1596,-1.0295,1.183,0.71979,2.2097,0.41992
1.163,-1.0277,1.1758,0.72233,2.2136,0.424
1.1664,-1.0258,1.1686,0.72478,2.2173,0.42803
1.1699,-1.0239,1.1613,0.72715,2.221,0.43203
1.1733,-1.022,1.1539,0.72944,2.2246,0.43599
1.1768,-1.02,1.1464,0.73164,2.2281,0.43992
1.1803,-1.0181,1.1389,0.73376,2.2316,0.4438
1.1838,-1.0161,1.1313,0.7358,2.2349,0.44765
1.1873,-1.0141,1.1236,0.73776,2.2382,0.45145
1.1908,-1.0121,1.1159,0.73963,2.2414,0.45522
1.1944,-1.0101,1.1081,0.74141,2.2446,0.45896
1.1979,-1.008,1.1002,0.74312,2.2476,0.46265
1.2015,-1.006,1.0923,0.74474,2.2506,0.46631
1.2051,-1.0039,1.0843,0.74627,2.2535,0.46993
1.2088,-1.0018,1.0762,0.74773,2.2563,0.47352
1.2124,-0.99971,1.068,0.7491,2.2591,0.47706
1.2161,-0.99758,1.0598,0.75038,2.2617,0.48058
1.2198,-0.99545,1.0515,0.75159,2.2643,0.48405
1.2235,-0.99329,1.0431,0.75271,2.2668,0.48749
1.2272,-0.99112,1.0347,0.75375,2.2692,0.49089
1.2309,-0.98893,1.0262,0.7547,2.2716,0.49425
1.2347,-0.98673,1.0176,0.75558,2.2738,0.49758
1.2384,-0.98451,1.009,0.75637,2.276,0.50087
1.2422,-0.98228,1.0003,0.75707,2.2781,0.50413
1.246,-0.98003,0.99154,0.7577,2.2802,0.50735
1.2498,-0.97776,0.98271,0.75824,2.2821,0.51054
1.2537,-0.97548,0.97381,0.7587,2.284,0.51369
1.2575,-0.97319,0.96485,0.75908,2.2858,0.5168
1.2614,-0.97088,0.95582,0.75937,2.2875,0.51988
1.2653,-0.96855,0.94673,0.75958,2.2891,0.52293
1.2692,-0.96621,0.93758,0.75971,2.2907,0.52594
1.2731,-0.96385,0.92836,0.75976,2.2921,0.52892
1.2771,-0.96148,0.91907,0.75973,2.2935,0.53186
1.281,-0.95909,0.90972,0.75962,2.2948,0.53477
1.285,-0.95669,0.90031,0.75942,2.2961,0.53764
1.289,-0.95428,0.89084,0.75914,2.2972,0.54048
1.293,-0.95185,0.88131,0.75878,2.2983,0.54329
1.297,-0.94941,0.87171,0.75834,2.2993,0.54606
1.301,-0.94695,0.86205,0.75782,2.3002,0.5488
1.3051,-0.94448,0.85233,0.75722,2.3011,0.55151
1.3092,-0.94199,0.84255,0.75654,2.3018,0.55418
1.3132,-0.93949,0.83271,0.75577,2.3025,0.55682
1.3173,-0.93698,0.82281,0.75493,2.3031,0.55943
1.3214,-0.93446,0.81285,0.75401,2.3037,0.56201
1.3256,-0.93192,0.80283,0.753,2.3041,0.56456
1.3297,-0.92936,0.79275,0.75192,2.3045,0.56707
1.3339,-0.9268,0.78262,0.75076,2.3048,0.56955
1.338,-0.92422,0.77242,0.74951,2.305,0.572
1.3422,-0.92163,0.76217,0.74819,2.3051,0.57442
1.3464,-0.91903,0.75186,0.74679,2.3052,0.57681
1.3506,-0.91641,0.74149,0.74531,2.3051,0.57917
1.3549,-0.91378,0.73107,0.74375,2.305,0.58149
1.3591,-0.91114,0.72059,0.74211,2.3049,0.58379
1.3634,-0.90849,0.71006,0.7404,2.3046,0.58606
1.3676,-0.90582,0.69947,0.7386,2.3043,0.5883
1.3719,-0.90315,0.68883,0.73673,2.3039,0.5905
1.3762,-0.90046,0.67813,0.73478,2.3034,0.59268
1.3805,-0.89776,0.66738,0.73275,2.3028,0.59483
1.3849,-0.89505,0.65658,0.73065,2.3022,0.59695
1.3892,-0.89233,0.64572,0.72847,2.3015,0.59904
1.3935,-0.8896,0.63481,0.72621,2.3007,0.6011
1.3979,-0.88686,0.62385,0.72387,2.2998,0.60314
1.4023,-0.8841,0.61284,0.72146,2.2988,0.60514
1.4067,-0.88134,0.60177,0.71897,2.2978,0.60712
1.4111,-0.87856,0.59066,0.71641,2.2967,0.60907
1.4155,-0.87578,0.5795,0.71377,2.2955,0.611
1.4199,-0.87299,0.56829,0.71106,2.2943,0.61289
1.4243,-0.87018,0.55702,0.70827,2.2929,0.61476
1.4288,-0.86737,0.54571,0.70541,2.2915,0.61661
1.4332,-0.86455,0.53436,0.70247,2.2901,0.61842
1.4377,-0.86172,0.52295,0.69945,2.2885,0.62021
1.4422,-0.85887,0.5115,0.69637,2.2869,0.62198
1.4467,-0.85603,0.5,0.69321,2.2852,0.62372
1.4512,-0.85317,0.48845,0.68997,2.2834,0.62543
1.4557,-0.8503,0.47686,0.68667,2.2815,0.62712
1.4602,-0.84743,0.46523,0.68329,2.2796,0.62879
1.4647,-0.84454,0.45355,0.67983,2.2776,0.63043
1.4693,-0.84165,0.44183,0.67631,2.2755,0.63204
1.4738,-0.83876,0.43006,0.67271,2.2733,0.63364
1.4784,-0.83585,0.41825,0.66905,2.2711,0.6352
1.483,-0.83294,0.4064,0.66531,2.2688,0.63675
1.4875,-0.83002,0.39451,0.6615,2.2664,0.63827
1.4921,-0.82709,0.38257,0.65761,2.264,0.63977
1.4967,-0.82416,0.3706,0.65366,2.2615,0.64124
1.5013,-0.82122,0.35858,0.64964,2.2589,0.6427
1.5059,-0.81827,0.34653,0.64555,2.2562,0.64413
1.5106,-0.81532,0.33443,0.64139,2.2535,0.64554
1.5152,-0.81236,0.3223,0.63716,2.2507,0.64693
1.5198,-0.8094,0.31013,0.63286,2.2478,0.64829
1.5245,-0.80643,0.29792,0.62849,2.2448,0.64964
1.5291,-0.80346,0.28568,0.62406,2.2418,0.65096
1.5338,-0.80048,0.2734,0.61955,2.2387,0.65227
1.5384,-0.7975,0.26108,0.61498,2.2355,0.65355
1.5431,-0.79451,0.24873,0.61035,2.2323,0.65482
1.5478,-0.79152,0.23635,0.60564,2.229,0.65606
1.5525,-0.78852,0.22393,0.60087,2.2256,0.65729
1.5572,-0.78552,0.21148,0.59604,2.2222,0.65849
1.5619,-0.78252,0.19899,0.59113,2.2186,0.65968
1.5666,-0.77951,0.18647,0.58617,2.2151,0.66085
1.5713,-0.7765,0.17393,0.58114,2.2114,0.662
1.576,-0.77349,0.16135,0.57604,2.2077,0.66313
1.5807,-0.77047,0.14873,0.57088,2.2039,0.66425
1.5854,-0.76745,0.13609,0.56565,2.2,0.66535
1.5902,-0.76443,0.12343,0.56037,2.1961,0.66643
1.5949,-0.76141,0.11073,0.55502,2.1921,0.66749
1.5996,-0.75838,0.098002,0.5496,2.188,0.66854
1.6044,-0.75536,0.085249,0.54413,2.1839,0.66957
1.6091,-0.75233,0.072469,0.53859,2.1797,0.67058
1.6139,-0.7493,0.059663,0.53299,2.1754,0.67158
1.6186,-0.74627,0.046831,0.52733,2.1711,0.67257
1.6234,-0.74324,0.033975,0.52161,2.1667,0.67354
1.6281,-0.74021,0.021094,0.51583,2.1623,0.67449
1.6329,-0.73718,0.0081893,0.50999,2.1577,0.67543
1.6376,-0.73415,-0.0047383,0.50409,2.1531,0.67636
1.6424,-0.73112,-0.017688,0.49813,2.1485,0.67727
1.6472,-0.72809,-0.03066,0.49212,2.1438,0.67817
1.6519,-0.72506,-0.043653,0.48604,2.139,0.67905
1.6567,-0.72203,-0.056667,0.47991,2.1341,0.67993
1.6615,-0.719,-0.069701,0.47372,2.1292,0.68079
1.6662,-0.71598,-0.082754,0.46747,2.1243,0.68163
1.671,-0.71296,-0.095825,0.46117,2.1192,0.68247
1.6758,-0.70993,-0.10891,0.45481,2.1141,0.68329
1.6805,-0.70692,-0.12202,0.4484,2.109,0.6841
1.6853,-0.7039,-0.13515,0.44193,2.1038,0.6849
1.6901,-0.70089,-0.14829,0.4354,2.0985,0.68569
1.6948,-0.69788,-0.16144,0.42882,2.0931,0.68647
1.6996,-0.69487,-0.17461,0.42219,2.0877,0.68724
1.7044,-0.69186,-0.1878,0.4155,2.0823,0.688
1.7091,-0.68886,-0.20099,0.40876,2.0768,0.68875
1.7139,-0.68587,-0.2142,0.40197,2.0712,0.68949
1.7187,-0.68288,-0.22743,0.39513,2.0655,0.69022
1.7234,-0.67989,-0.24066,0.38823,2.0598,0.69094
1.7282,-0.67691,-0.25391,0.38129,2.0541,0.69165
1.7329,-0.67393,-0.26716,0.37429,2.0483,0.69236
1.7377,-0.67096,-0.28043,0.36724,2.0424,0.69305
1.7424,-0.66799,-0.29371,0.36015,2.0365,0.69374
1.7472,-0.66503,-0.30699,0.353,2.0305,0.69442
1.7519,-0.66208,-0.32028,0.34581,2.0244,0.6951
1.7566,-0.65913,-0.33358,0.33856,2.0183,0.69577
1.7614,-0.65619,-0.34688,0.33127,2.0122,0.69643
1.7661,-0.65326,-0.36019,0.32393,2.006,0.69708
1.7708,-0.65033,-0.37351,0.31655,1.9997,0.69773
1.7755,-0.64741,-0.38682,0.30912,1.9934,0.69837
1.7802,-0.6445,-0.40015,0.30164,1.987,0.69901
1.7849,-0.6416,-0.41347,0.29412,1.9806,0.69965
1.7896,-0.6387,-0.4268,0.28655,1.9741,0.70027
1.7943,-0.63582,-0.44013,0.27894,1.9676,0.7009
1.799,-0.63294,-0.45346,0.27128,1.961,0.70152
1.8037,-0.63007,-0.46679,0.26358,1.9544,0.70213
1.8084,-0.62721,-0.48013,0.25583,1.9477,0.70275
1.813,-0.62436,-0.49346,0.24805,1.941,0.70336
1.8177,-0.62152,-0.50678,0.24022,1.9342,0.70396
1.8223,-0.61869,-0.52011,0.23235,1.9273,0.70457
1.827,-0.61587,-0.53343,0.22444,1.9204,0.70517
1.8316,-0.61306,-0.54675,0.21649,1.9135,0.70577
1.8362,-0.61026,-0.56007,0.2085,1.9065,0.70636
1.8409,-0.60747,-0.57338,0.20047,1.8995,0.70696
1.8455,-0.6047,-0.58669,0.1924,1.8924,0.70755
1.8501,-0.60193,-0.59998,0.18429,1.8853,0.70815
1.8546,-0.59918,-0.61328,0.17614,1.8781,0.70874
1.8592,-0.59644,-0.62656,0.16795,1.8709,0.70933
1.8638,-0.59371,-0.63984,0.15973,1.8636,0.70993
1.8683,-0.591,-0.6531,0.15147,1.8563,0.71052
1.8729,-0.5883,-0.66636,0.14318,1.8489,0.71111
1.8774,-0.58561,-0.67961,0.13485,1.8415,0.71171
1.882,-0.58294,-0.69284,0.12648,1.8341,0.7123
1.8865,-0.58028,-0.70607,0.11808,1.8266,0.7129
1.891,-0.57763,-0.71928,0.10965,1.819,0.71349
1.8954,-0.575,-0.73248,0.10118,1.8114,0.71409
1.8999,-0.57238,-0.74566,0.092682,1.8038,0.71469
1.9044,-0.56978,-0.75883,0.084149,1.7961,0.7153
1.9088,-0.56719,-0.77199,0.075583,1.7884,0.71591
1.9133,-0.56462,-0.78513,0.066986,1.7807,0.71652
1.9177,-0.56206,-0.79825,0.058358,1.7729,0.71713
1.9221,-0.55952,-0.81136,0.0497,1.7651,0.71774
1.9265,-0.557,-0.82444,0.041011,1.7572,0.71836
1.9309,-0.55449,-0.83752,0.032293,1.7493,0.71899
1.9352,-0.552,-0.85057,0.023547,1.7413,0.71962
1.9396,-0.54953,-0.8636,0.014771,1.7333,0.72025
1.9439,-0.54707,-0.87661,0.0059679,1.7253,0.72089
1.9482,-0.54464,-0.8896,-0.0028629,1.7172,0.72153
1.9525,-0.54221,-0.90257,-0.01172,1.7091,0.72218
1.9568,-0.53981,-0.91551,-0.020605,1.701,0.72283
1.9611,-0.53743,-0.92844,-0.029514,1.6928,0.72349
1.9653,-0.53506,-0.94134,-0.03845,1.6846,0.72416
1.9696,-0.53272,-0.95421,-0.04741,1.6763,0.72483
1.9738,-0.53039,-0.96706,-0.056394,1.668,0.72551
1.978,-0.52808,-0.97989,-0.065402,1.6597,0.72619
1.9821,-0.5258,-0.99268,-0.074434,1.6514,0.72688
1.9863,-0.52353,-1.0055,-0.083488,1.643,0.72758
1.9905,-0.52128,-1.0182,-0.092564,1.6346,0.72829
1.9946,-0.51905,-1.0309,-0.10166,1.6261,0.72901
1.9987,-0.51685,-1.0436,-0.11078,1.6176,0.72973
2.0028,-0.51466,-1.0563,-0.11992,1.6091,0.73046
2.0068,-0.5125,-1.0689,-0.12908,1.6006,0.7312
2.0109,-0.51036,-1.0815,-0.13826,1.592,0.73195
2.0149,-0.50824,-1.094,-0.14746,1.5834,0.73271
2.0189,-0.50614,-1.1066,-0.15668,1.5747,0.73348
2.0229,-0.50406,-1.1191,-0.16591,1.5661,0.73425
2.0269,-0.50201,-1.1315,-0.17517,1.5574,0.73504
2.0308,-0.49998,-1.144,-0.18444,1.5486,0.73584
2.0347,-0.49797,-1.1564,-0.19372,1.5399,0.73665
2.0386,-0.49599,-1.1687,-0.20302,1.5311,0.73746
2.0425,-0.49403,-1.1811,-0.21234,1.5223,0.73829
2.0463,-0.4921,-1.1933,-0.22168,1.5135,0.73913
2.0502,-0.49018,-1.2056,-0.23102,1.5046,0.73998
2.054,-0.4883,-1.2178,-0.24038,1.4957,0.74084
2.0577,-0.48643,-1.23,-0.24976,1.4868,0.74171
2.0615,-0.4846,-1.2421,-0.25915,1.4779,0.7426
2.0652,-0.48278,-1.2542,-0.26855,1.4689,0.7435
2.0689,-0.481,-1.2663,-0.27796,1.4599,0.7444
2.0726,-0.47923,-1.2783,-0.28738,1.4509,0.74533
2.0763,-0.4775,-1.2903,-0.29681,1.4419,0.74626
2.0799,-0.47579,-1.3022,-0.30626,1.4328,0.74721
2.0835,-0.47411,-1.3141,-0.31571,1.4238,0.74817
2.0871,-0.47245,-1.3259,-0.32517,1.4147,0.74914
2.0907,-0.47082,-1.3377,-0.33465,1.4056,0.75013
2.0942,-0.46922,-1.3495,-0.34413,1.3964,0.75113
2.0977,-0.46764,-1.3612,-0.35361,1.3873,0.75214
2.1012,-0.4661,-1.3728,-0.36311,1.3781,0.75317
2.1046,-0.46458,-1.3845,-0.37261,1.3689,0.75421
2.108,-0.46309,-1.396,-0.38212,1.3597,0.75527
2.1114,-0.46162,-1.4076,-0.39163,1.3505,0.75634
2.1148,-0.46019,-1.419,-0.40115,1.3412,0.75742
2.1181,-0.45878,-1.4305,-0.41067,1.332,0.75853
2.1214,-0.45741,-1.4418,-0.4202,1.3227,0.75964
2.1247,-0.45606,-1.4532,-0.42973,1.3134,0.76077
2.128,-0.45474,-1.4644,-0.43927,1.3041,0.76192
2.1312,-0.45346,-1.4757,-0.44881,1.2948,0.76308
2.1344,-0.4522,-1.4868,-0.45834,1.2854,0.76426
2.1375,-0.45097,-1.4979,-0.46789,1.2761,0.76546
2.1407,-0.44977,-1.509,-0.47743,1.2667,0.76667
2.1438,-0.44861,-1.52,-0.48697,1.2573,0.76789
2.1468,-0.44747,-1.531,-0.49651,1.2479,0.76914
2.1499,-0.44637,-1.5419,-0.50606,1.2385,0.7704
2.1529,-0.44529,-1.5527,-0.5156,1.2291,0.77167
2.1558,-0.44425,-1.5635,-0.52514,1.2197,0.77297
2.1588,-0.44324,-1.5743,-0.53468,1.2103,0.77428
2.1617,-0.44226,-1.5849,-0.54421,1.2008,0.77561
2.1646,-0.44132,-1.5956,-0.55375,1.1914,0.77695
2.1674,-0.4404,-1.6061,-0.56328,1.1819,0.77831
2.1702,-0.43952,-1.6166,-0.57281,1.1724,0.7797
2.173,-0.43868,-1.6271,-0.58233,1.1629,0.78109
2.1757,-0.43786,-1.6375,-0.59185,1.1535,0.78251
2.1784,-0.43708,-1.6478,-0.60136,1.144,0.78395
2.1811,-0.43633,-1.6581,-0.61087,1.1345,0.7854
2.1837,-0.43562,-1.6683,-0.62037,1.125,0.78687
2.1863,-0.43494,-1.6784,-0.62986,1.1154,0.78836
2.1889,-0.43429,-1.6885,-0.63935,1.1059,0.78987
2.1914,-0.43368,-1.6985,-0.64883,1.0964,0.7914
2.1939,-0.4331,-1.7085,-0.6583,1.0869,0.79294
2.1964,-0.43256,-1.7184,-0.66776,1.0773,0.79451
2.1988,-0.43205,-1.7282,-0.67722,1.0678,0.79609
2.2012,-0.43158,-1.7379,-0.68666,1.0583,0.79769
2.2036,-0.43114,-1.7476,-0.6961,1.0487,0.79932
2.2059,-0.43074,-1.7573,-0.70552,1.0392,0.80096
2.2082,-0.43037,-1.7668,-0.71494,1.0297,0.80262
2.2104,-0.43004,-1.7763,-0.72434,1.0201,0.8043
2.2126,-0.42975,-1.7858,-0.73373,1.0106,0.806
2.2148,-0.42949,-1.7951,-0.74311,1.001,0.80772
2.2169,-0.42927,-1.8044,-0.75247,0.99148,0.80946
2.219,-0.42908,-1.8136,-0.76183,0.98194,0.81123
2.221,-0.42893,-1.8228,-0.77117,0.9724,0.81301
2.223,-0.42882,-1.8319,-0.78049,0.96286,0.81481
2.225,-0.42875,-1.8409,-0.7898,0.95332,0.81663
2.2269,-0.42871,-1.8498,-0.7991,0.94378,0.81847
2.2288,-0.42871,-1.8587,-0.80838,0.93425,0.82033
2.2307,-0.42875,-1.8675,-0.81765,0.92473,0.82221
2.2325,-0.42882,-1.8762,-0.8269,0.9152,0.82412
2.2342,-0.42894,-1.8849,-0.83613,0.90568,0.82604
2.236,-0.42909,-1.8935,-0.84535,0.89617,0.82799
2.2376,-0.42928,-1.902,-0.85455,0.88666,0.82995
2.2393,-0.42951,-1.9104,-0.86373,0.87716,0.83194
2.2409,-0.42978,-1.9188,-0.87289,0.86766,0.83394
2.2425,-0.43008,-1.9271,-0.88203,0.85817,0.83597
2.244,-0.43043,-1.9353,-0.89116,0.84869,0.83802
2.2454,-0.43081,-1.9434,-0.90026,0.83921,0.84009
2.2469,-0.43123,-1.9515,-0.90935,0.82974,0.84218
2.2483,-0.4317,-1.9595,-0.91842,0.82029,0.84429
2.2496,-0.4322,-1.9674,-0.92746,0.81084,0.84642
2.2509,-0.43274,-1.9752,-0.93648,0.8014,0.84858
2.2522,-0.43332,-1.983,-0.94549,0.79196,0.85075
2.2534,-0.43394,-1.9907,-0.95447,0.78254,0.85295
2.2546,-0.4346,-1.9983,-0.96343,0.77313,0.85517
2.2557,-0.4353,-2.0058,-0.97236,0.76374,0.85741
2.2568,-0.43605,-2.0132,-0.98127,0.75435,0.85967
2.2578,-0.43683,-2.0206,-0.99016,0.74497,0.86195
2.2588,-0.43765,-2.0279,-0.99903,0.73561,0.86425
2.2598,-0.43852,-2.0351,-1.0079,0.72626,0.86658
2.2607,-0.43942,-2.0422,-1.0167,0.71692,0.86892
2.2615,-0.44037,-2.0493,-1.0255,0.7076,0.87129
2.2623,-0.44135,-2.0562,-1.0342,0.69829,0.87368
2.2631,-0.44238,-2.0631,-1.043,0.68899,0.87609
2.2638,-0.44345,-2.0699,-1.0517,0.67971,0.87852
2.2645,-0.44456,-2.0766,-1.0604,0.67044,0.88097
2.2651,-0.44571,-2.0833,-1.069,0.66119,0.88345
2.2657,-0.44691,-2.0898,-1.0777,0.65196,0.88594
2.2662,-0.44814,-2.0963,-1.0863,0.64274,0.88846
2.2667,-0.44942,-2.1027,-1.0949,0.63354,0.891
2.2672,-0.45074,-2.109,-1.1034,0.62435,0.89355
2.2675,-0.4521,-2.1152,-1.1119,0.61519,0.89613
2.2679,-0.45351,-2.1213,-1.1204,0.60604,0.89874
2.2682,-0.45495,-2.1274,-1.1289,0.59691,0.90136
2.2684,-0.45644,-2.1333,-1.1373,0.5878,0.904
2.2686,-0.45797,-2.1392,-1.1457,0.5787,0.90667
2.2688,-0.45955,-2.145,-1.1541,0.56963,0.90936
2.2689,-0.46116,-2.1507,-1.1625,0.56058,0.91206
2.2689,-0.46282,-2.1563,-1.1708,0.55154,0.91479
2.2689,-0.46452,-2.1619,-1.179,0.54253,0.91754
2.2689,-0.46627,-2.1673,-1.1873,0.53354,0.92031
2.2688,-0.46805,-2.1727,-1.1955,0.52457,0.9231
2.2686,-0.46988,-2.1779,-1.2037,0.51562,0.92592
2.2684,-0.47176,-2.1831,-1.2119,0.50669,0.92875
2.2682,-0.47368,-2.1882,-1.22,0.49779,0.9316
2.2679,-0.47564,-2.1932,-1.2281,0.4889,0.93448
2.2675,-0.47764,-2.1982,-1.2361,0.48004,0.93737
2.2671,-0.47969,-2.203,-1.2441,0.47121,0.94029
2.2667,-0.48178,-2.2077,-1.2521,0.4624,0.94322
2.2662,-0.48391,-2.2124,-1.2601,0.45361,0.94618
2.2656,-0.48609,-2.217,-1.268,0.44484,0.94915
2.265,-0.48831,-2.2215,-1.2759,0.43611,0.95215
2.2643,-0.49057,-2.2258,-1.2837,0.42739,0.95517
2.2636,-0.49288,-2.2302,-1.2916,0.4187,0.9582
2.2629,-0.49523,-2.2344,-1.2993,0.41004,0.96126
2.2621,-0.49763,-2.2385,-1.3071,0.4014,0.96434
2.2612,-0.50007,-2.2425,-1.3148,0.39279,0.96743
2.2603,-0.50255,-2.2465,-1.3225,0.38421,0.97055
2.2593,-0.50508,-2.2503,-1.3301,0.37565,0.97369
2.2583,-0.50765,-2.2541,-1.3377,0.36713,0.97684
2.2572,-0.51026,-2.2577,-1.3452,0.35862,0.98001
2.256,-0.51292,-2.2613,-1.3528,0.35015,0.98321
2.2549,-0.51563,-2.2648,-1.3603,0.34171,0.98642
2.2536,-0.51837,-2.2682,-1.3677,0.33329,0.98965
2.2523,-0.52116,-2.2715,-1.3751,0.3249,0.9929
2.251,-0.524,-2.2747,-1.3825,0.31654,0.99617
2.2496,-0.52688,-2.2779,-1.3898,0.30822,0.99946
2.2481,-0.5298,-2.2809,-1.3971,0.29992,1.0028
2.2466,-0.53277,-2.2838,-1.4044,0.29165,1.0061
2.2451,-0.53578,-2.2867,-1.4116,0.28341,1.0094
2.2434,-0.53884,-2.2894,-1.4187,0.2752,1.0128
2.2418,-0.54194,-2.2921,-1.4259,0.26703,1.0162
2.24,-0.54508,-2.2947,-1.433,0.25888,1.0196
2.2382,-0.54827,-2.2971,-1.44,0.25077,1.023
2.2364,-0.5515,-2.2995,-1.4471,0.24268,1.0264
2.2345,-0.55478,-2.3018,-1.454,0.23463,1.0299
2.2326,-0.5581,-2.304,-1.461,0.22661,1.0333
2.2306,-0.56146,-2.3061,-1.4679,0.21863,1.0368
2.2285,-0.56487,-2.3081,-1.4747,0.21068,1.0403
2.2264,-0.56832,-2.3101,-1.4815,0.20276,1.0438
2.2242,-0.57182,-2.3119,-1.4883,0.19487,1.0474
2.222,-0.57536,-2.3136,-1.495,0.18702,1.0509
2.2197,-0.57894,-2.3153,-1.5017,0.1792,1.0545
2.2174,-0.58257,-2.3168,-1.5084,0.17141,1.0581
2.215,-0.58624,-2.3183,-1.515,0.16366,1.0617
2.2125,-0.58996,-2.3197,-1.5215,0.15595,1.0653
2.21,-0.59372,-2.3209,-1.5281,0.14827,1.0689
2.2074,-0.59752,-2.3221,-1.5345,0.14062,1.0725
2.2048,-0.60137,-2.3232,-1.541,0.13301,1.0762
2.2021,-0.60526,-2.3242,-1.5474,0.12543,1.0799
2.1994,-0.60919,-2.3251,-1.5537,0.11789,1.0836
2.1966,-0.61317,-2.3259,-1.56,0.11039,1.0873
2.1938,-0.61719,-2.3266,-1.5663,0.10292,1.091
2.1909,-0.62126,-2.3272,-1.5725,0.095489,1.0947
2.1879,-0.62537,-2.3278,-1.5787,0.088094,1.0985
2.1849,-0.62952,-2.3282,-1.5848,0.080736,1.1022
2.1818,-0.63372,-2.3285,-1.5909,0.073414,1.106
2.1787,-0.63795,-2.3288,-1.5969,0.06613,1.1098
2.1755,-0.64224,-2.3289,-1.603,0.058883,1.1136
2.1722,-0.64656,-2.329,-1.6089,0.051674,1.1174
2.1689,-0.65093,-2.329,-1.6148,0.044502,1.1212
2.1655,-0.65534,-2.3288,-1.6207,0.037368,1.1251
2.1621,-0.65979,-2.3286,-1.6265,0.030272,1.1289
2.1586,-0.66429,-2.3283,-1.6323,0.023214,1.1328
2.1551,-0.66883,-2.3279,-1.638,0.016195,1.1367
2.1515,-0.67341,-2.3274,-1.6437,0.0092144,1.1405
2.1478,-0.67803,-2.3268,-1.6494,0.0022725,1.1444
2.1441,-0.6827,-2.3262,-1.655,-0.0046304,1.1483
2.1403,-0.68741,-2.3254,-1.6605,-0.011494,1.1523
2.1365,-0.69216,-2.3245,-1.6661,-0.018319,1.1562
2.1326,-0.69695,-2.3236,-1.6715,-0.025104,1.1601
2.1287,-0.70178,-2.3225,-1.677,-0.03185,1.1641
2.1246,-0.70666,-2.3214,-1.6823,-0.038556,1.168
2.1206,-0.71158,-2.3201,-1.6877,-0.045222,1.172
2.1165,-0.71654,-2.3188,-1.693,-0.051849,1.176
2.1123,-0.72154,-2.3174,-1.6982,-0.058435,1.18
2.108,-0.72659,-2.3159,-1.7034,-0.064981,1.184
2.1037,-0.73167,-2.3143,-1.7086,-0.071487,1.188
2.0994,-0.7368,-2.3126,-1.7137,-0.077952,1.192
2.095,-0.74196,-2.3108,-1.7187,-0.084376,1.196
2.0905,-0.74717,-2.309,-1.7238,-0.09076,1.2
2.0859,-0.75242,-2.307,-1.7287,-0.097103,1.2041
2.0814,-0.75771,-2.305,-1.7337,-0.10341,1.2081
2.0767,-0.76304,-2.3028,-1.7386,-0.10967,1.2122
2.072,-0.76841,-2.3006,-1.7434,-0.11589,1.2162
2.0672,-0.77382,-2.2983,-1.7482,-0.12206,1.2203
2.0624,-0.77927,-2.2959,-1.7529,-0.1282,1.2244
2.0575,-0.78476,-2.2934,-1.7576,-0.1343,1.2285
2.0526,-0.79029,-2.2908,-1.7623,-0.14035,1.2325
2.0475,-0.79586,-2.2881,-1.7669,-0.14636,1.2366
2.0425,-0.80147,-2.2853,-1.7715,-0.15234,1.2407
2.0374,-0.80712,-2.2825,-1.776,-0.15826,1.2448
2.0322,-0.81281,-2.2795,-1.7805,-0.16415,1.2489
2.0269,-0.81854,-2.2765,-1.7849,-0.17,1.253
2.0216,-0.8243,-2.2734,-1.7893,-0.1758,1.2571
2.0163,-0.83011,-2.2702,-1.7936,-0.18156,1.2613
2.0109,-0.83595,-2.2669,-1.7979,-0.18728,1.2654
2.0054,-0.84183,-2.2635,-1.8022,-0.19296,1.2695
1.9999,-0.84775,-2.26,-1.8064,-0.19859,1.2736
1.9943,-0.85371,-2.2565,-1.8106,-0.20418,1.2777
1.9886,-0.85971,-2.2528,-1.8147,-0.20973,1.2819
1.9829,-0.86574,-2.2491,-1.8187,-0.21524,1.286
1.9771,-0.87181,-2.2453,-1.8228,-0.22071,1.2901
1.9713,-0.87792,-2.2414,-1.8268,-0.22613,1.2943
1.9654,-0.88407,-2.2374,-1.8307,-0.23151,1.2984
1.9595,-0.89025,-2.2333,-1.8346,-0.23684,1.3025
1.9535,-0.89647,-2.2292,-1.8384,-0.24214,1.3067
1.9474,-0.90273,-2.2249,-1.8422,-0.24739,1.3108
1.9413,-0.90902,-2.2206,-1.846,-0.2526,1.3149
1.9351,-0.91535,-2.2162,-1.8497,-0.25777,1.3191
1.9289,-0.92171,-2.2117,-1.8534,-0.26289,1.3232
1.9226,-0.92811,-2.2071,-1.857,-0.26797,1.3273
1.9162,-0.93455,-2.2024,-1.8606,-0.27301,1.3315
1.9098,-0.94102,-2.1977,-1.8641,-0.27801,1.3356
1.9033,-0.94753,-2.1929,-1.8676,-0.28296,1.3397
1.8968,-0.95407,-2.188,-1.8711,-0.28787,1.3438
1.8902,-0.96065,-2.183,-1.8745,-0.29274,1.348
1.8836,-0.96726,-2.1779,-1.8779,-0.29757,1.3521
1.8769,-0.9739,-2.1727,-1.8812,-0.30235,1.3562
1.8701,-0.98058,-2.1675,-1.8845,-0.30709,1.3603
1.8633,-0.98729,-2.1622,-1.8877,-0.31179,1.3644
1.8564,-0.99404,-2.1568,-1.8909,-0.31644,1.3685
1.8495,-1.0008,-2.1513,-1.894,-0.32105,1.3726
1.8425,-1.0076,-2.1458,-1.8971,-0.32562,1.3767
1.8354,-1.0145,-2.1401,-1.9002,-0.33015,1.3808
1.8283,-1.0214,-2.1344,-1.9032,-0.33463,1.3848
1.8211,-1.0283,-2.1286,-1.9062,-0.33908,1.3889
1.8139,-1.0352,-2.1227,-1.9092,-0.34348,1.393
1.8066,-1.0422,-2.1168,-1.9121,-0.34783,1.397
1.7993,-1.0492,-2.1108,-1.9149,-0.35215,1.4011
1.7919,-1.0562,-2.1047,-1.9177,-0.35642,1.4051
1.7845,-1.0633,-2.0985,-1.9205,-0.36065,1.4092
1.777,-1.0704,-2.0922,-1.9232,-0.36484,1.4132
1.7694,-1.0775,-2.0859,-1.9259,-0.36899,1.4172
1.7618,-1.0847,-2.0795,-1.9286,-0.37309,1.4212
1.7541,-1.0919,-2.073,-1.9312,-0.37715,1.4252
1.7464,-1.0991,-2.0665,-1.9337,-0.38118,1.4292
1.7386,-1.1064,-2.0598,-1.9363,-0.38515,1.4332
1.7307,-1.1136,-2.0531,-1.9387,-0.38909,1.4371
1.7228,-1.1209,-2.0464,-1.9412,-0.39299,1.4411
1.7149,-1.1283,-2.0395,-1.9436,-0.39684,1.4451
1.7069,-1.1357,-2.0326,-1.946,-0.40065,1.449
1.6988,-1.1431,-2.0256,-1.9483,-0.40442,1.4529
1.6907,-1.1505,-2.0185,-1.9506,-0.40815,1.4568
1.6825,-1.1579,-2.0114,-1.9528,-0.41184,1.4607
1.6743,-1.1654,-2.0042,-1.955,-0.41549,1.4646
1.666,-1.1729,-1.9969,-1.9572,-0.4191,1.4685
1.6576,-1.1804,-1.9896,-1.9593,-0.42266,1.4723
1.6492,-1.188,-1.9822,-1.9614,-0.42619,1.4762
1.6408,-1.1956,-1.9747,-1.9635,-0.42967,1.48
1.6323,-1.2032,-1.9671,-1.9655,-0.43312,1.4838
1.6237,-1.2108,-1.9595,-1.9675,-0.43652,1.4876
1.6151,-1.2185,-1.9518,-1.9694,-0.43988,1.4914
1.6064,-1.2262,-1.9441,-1.9713,-0.44321,1.4952
1.5977,-1.2339,-1.9363,-1.9732,-0.44649,1.4989
1.5889,-1.2416,-1.9284,-1.975,-0.44973,1.5027
1.5801,-1.2494,-1.9204,-1.9768,-0.45294,1.5064
1.5712,-1.2572,-1.9124,-1.9786,-0.4561,1.5101
1.5623,-1.265,-1.9043,-1.9803,-0.45922,1.5138
1.5533,-1.2728,-1.8962,-1.982,-0.46231,1.5174
1.5442,-1.2807,-1.888,-1.9836,-0.46535,1.5211
1.5351,-1.2886,-1.8797,-1.9852,-0.46836,1.5247
1.526,-1.2965,-1.8714,-1.9868,-0.47133,1.5283
1.5168,-1.3044,-1.863,-1.9883,-0.47426,1.5319
1.5075,-1.3124,-1.8545,-1.9899,-0.47715,1.5355
1.4982,-1.3203,-1.846,-1.9913,-0.48,1.539
1.4889,-1.3283,-1.8374,-1.9928,-0.48281,1.5425
1.4795,-1.3363,-1.8288,-1.9942,-0.48559,1.546
1.47,-1.3444,-1.8201,-1.9956,-0.48832,1.5495
1.4605,-1.3524,-1.8114,-1.9969,-0.49102,1.553
1.4509,-1.3605,-1.8026,-1.9982,-0.49369,1.5564
1.4413,-1.3686,-1.7937,-1.9995,-0.49631,1.5598
1.4317,-1.3767,-1.7848,-2.0007,-0.4989,1.5632
1.4219,-1.3848,-1.7758,-2.0019,-0.50145,1.5666
1.4122,-1.393,-1.7667,-2.0031,-0.50396,1.57
1.4024,-1.4011,-1.7576,-2.0042,-0.50644,1.5733
1.3925,-1.4093,-1.7485,-2.0054,-0.50888,1.5766
1.3826,-1.4175,-1.7393,-2.0064,-0.51128,1.5799
1.3726,-1.4257,-1.73,-2.0075,-0.51365,1.5831
1.3626,-1.434,-1.7207,-2.0085,-0.51598,1.5863
1.3525,-1.4422,-1.7114,-2.0095,-0.51828,1.5895
1.3424,-1.4505,-1.7019,-2.0105,-0.52054,1.5927
1.3323,-1.4588,-1.6925,-2.0114,-0.52277,1.5959
1.3221,-1.4671,-1.6829,-2.0123,-0.52496,1.599
1.3118,-1.4754,-1.6734,-2.0132,-0.52711,1.6021
1.3015,-1.4837,-1.6638,-2.014,-0.52923,1.6051
1.2911,-1.4921,-1.6541,-2.0148,-0.53132,1.6082
1.2807,-1.5005,-1.6444,-2.0156,-0.53337,1.6112
1.2703,-1.5088,-1.6346,-2.0164,-0.53539,1.6142
1.2598,-1.5172,-1.6248,-2.0171,-0.53737,1.6171
1.2493,-1.5256,-1.6149,-2.0178,-0.53932,1.62
1.2387,-1.534,-1.605,-2.0185,-0.54124,1.6229
1.228,-1.5425,-1.5951,-2.0192,-0.54312,1.6258
1.2174,-1.5509,-1.5851,-2.0198,-0.54497,1.6286
1.2066,-1.5594,-1.575,-2.0204,-0.54679,1.6314
1.1959,-1.5678,-1.565,-2.021,-0.54858,1.6342
1.185,-1.5763,-1.5548,-2.0215,-0.55033,1.6369
1.1742,-1.5848,-1.5446,-2.022,-0.55205,1.6396
1.1633,-1.5933,-1.5344,-2.0225,-0.55374,1.6423
1.1523,-1.6018,-1.5242,-2.023,-0.5554,1.6449
1.1413,-1.6103,-1.5139,-2.0235,-0.55703,1.6475
1.1303,-1.6188,-1.5035,-2.0239,-0.55863,1.6501
1.1192,-1.6274,-1.4932,-2.0243,-0.56019,1.6526
1.1081,-1.6359,-1.4827,-2.0247,-0.56173,1.6551
1.0969,-1.6445,-1.4723,-2.025,-0.56323,1.6576
1.0857,-1.653,-1.4618,-2.0254,-0.56471,1.6601
1.0744,-1.6616,-1.4513,-2.0257,-0.56615,1.6625
1.0631,-1.6702,-1.4407,-2.026,-0.56757,1.6648
1.0518,-1.6788,-1.4301,-2.0263,-0.56896,1.6671
1.0404,-1.6873,-1.4195,-2.0265,-0.57031,1.6694
1.029,-1.6959,-1.4088,-2.0267,-0.57164,1.6717
1.0175,-1.7045,-1.3981,-2.027,-0.57294,1.6739
1.006,-1.7132,-1.3873,-2.0271,-0.57421,1.6761
0.99448,-1.7218,-1.3765,-2.0273,-0.57546,1.6782
0.98289,-1.7304,-1.3657,-2.0275,-0.57668,1.6804
0.97126,-1.739,-1.3549,-2.0276,-0.57787,1.6824
0.9596,-1.7476,-1.344,-2.0277,-0.57903,1.6844
0.94789,-1.7563,-1.3331,-2.0278,-0.58016,1.6864
0.93615,-1.7649,-1.3222,-2.0279,-0.58127,1.6884
0.92436,-1.7735,-1.3112,-2.0279,-0.58236,1.6903
0.91254,-1.7822,-1.3002,-2.028,-0.58341,1.6922
0.90068,-1.7908,-1.2892,-2.028,-0.58444,1.694
0.88878,-1.7994,-1.2782,-2.028,-0.58545,1.6958
0.87684,-1.8081,-1.2671,-2.028,-0.58643,1.6976
0.86487,-1.8167,-1.256,-2.028,-0.58739,1.6993
0.85285,-1.8254,-1.2449,-2.028,-0.58832,1.7009
0.8408,-1.834,-1.2337,-2.0279,-0.58923,1.7026
0.82872,-1.8427,-1.2226,-2.0278,-0.59011,1.7041
0.8166,-1.8513,-1.2114,-2.0278,-0.59097,1.7057
0.80444,-1.86,-1.2001,-2.0277,-0.59181,1.7072
0.79225,-1.8686,-1.1889,-2.0276,-0.59262,1.7086
0.78002,-1.8772,-1.1776,-2.0274,-0.59341,1.71
0.76776,-1.8859,-1.1663,-2.0273,-0.59418,1.7114
0.75546,-1.8945,-1.155,-2.0271,-0.59493,1.7127
0.74313,-1.9032,-1.1437,-2.027,-0.59565,1.714
0.73076,-1.9118,-1.1324,-2.0268,-0.59635,1.7152
0.71836,-1.9204,-1.121,-2.0266,-0.59704,1.7164
0.70593,-1.929,-1.1096,-2.0264,-0.5977,1.7176
0.69346,-1.9377,-1.0982,-2.0262,-0.59834,1.7187
0.68097,-1.9463,-1.0868,-2.026,-0.59896,1.7197
0.66844,-1.9549,-1.0754,-2.0258,-0.59956,1.7207
0.65587,-1.9635,-1.0639,-2.0256,-0.60014,1.7217
0.64328,-1.9721,-1.0525,-2.0253,-0.6007,1.7226
0.63065,-1.9807,-1.041,-2.0251,-0.60124,1.7235
0.618,-1.9893,-1.0295,-2.0248,-0.60176,1.7243
0.60531,-1.9979,-1.018,-2.0245,-0.60227,1.7251
0.59259,-2.0064,-1.0065,-2.0243,-0.60275,1.7258
0.57984,-2.015,-0.99495,-2.024,-0.60322,1.7265
0.56707,-2.0236,-0.98341,-2.0237,-0.60367,1.7271
0.55426,-2.0321,-0.97186,-2.0234,-0.60411,1.7277
0.54143,-2.0407,-0.96031,-2.0231,-0.60452,1.7282
0.52856,-2.0492,-0.94874,-2.0228,-0.60492,1.7287
0.51567,-2.0577,-0.93716,-2.0225,-0.60531,1.7291
0.50275,-2.0662,-0.92558,-2.0221,-0.60567,1.7295
0.48981,-2.0747,-0.91399,-2.0218,-0.60603,1.7298
0.47683,-2.0832,-0.90239,-2.0215,-0.60636,1.7301
0.46383,-2.0917,-0.89079,-2.0212,-0.60669,1.7303
0.4508,-2.1002,-0.87919,-2.0208,-0.60699,1.7305
0.43775,-2.1086,-0.86757,-2.0205,-0.60729,1.7306
0.42467,-2.1171,-0.85596,-2.0201,-0.60757,1.7307
0.41157,-2.1255,-0.84434,-2.0198,-0.60783,1.7307
0.39844,-2.1339,-0.83272,-2.0194,-0.60809,1.7307
0.38529,-2.1423,-0.82109,-2.0191,-0.60832,1.7306
0.37211,-2.1507,-0.80947,-2.0187,-0.60855,1.7305
0.35891,-2.1591,-0.79784,-2.0184,-0.60877,1.7303
0.34568,-2.1675,-0.78621,-2.018,-0.60897,1.73
0.33243,-2.1758,-0.77459,-2.0177,-0.60916,1.7298
0.31916,-2.1842,-0.76296,-2.0173,-0.60934,1.7294
0.30587,-2.1925,-0.75134,-2.017,-0.60951,1.729
0.29256,-2.2008,-0.73972,-2.0166,-0.60966,1.7285
0.27922,-2.2091,-0.7281,-2.0163,-0.60981,1.728
0.26586,-2.2174,-0.71649,-2.0159,-0.60995,1.7275
0.25248,-2.2256,-0.70488,-2.0156,-0.61007,1.7269
0.23908,-2.2339,-0.69327,-2.0152,-0.61019,1.7262
0.22566,-2.2421,-0.68167,-2.0149,-0.6103,1.7255
0.21223,-2.2503,-0.67008,-2.0145,-0.6104,1.7247
0.19877,-2.2585,-0.65849,-2.0142,-0.61049,1.7238
0.18529,-2.2666,-0.64691,-2.0139,-0.61057,1.7229
0.1718,-2.2748,-0.63534,-2.0135,-0.61065,1.722
0.15828,-2.2829,-0.62378,-2.0132,-0.61071,1.721
0.14475,-2.291,-0.61222,-2.0129,-0.61078,1.7199
0.1312,-2.2991,-0.60068,-2.0126,-0.61083,1.7188
0.11764,-2.3072,-0.58914,-2.0123,-0.61088,1.7176
0.10405,-2.3152,-0.57762,-2.012,-0.61092,1.7164
0.090456,-2.3233,-0.56611,-2.0117,-0.61095,1.7151
0.076842,-2.3313,-0.55461,-2.0114,-0.61098,1.7138
0.063212,-2.3392,-0.54312,-2.0111,-0.61101,1.7124
0.049568,-2.3472,-0.53165,-2.0108,-0.61103,1.7109
0.035908,-2.3551,-0.52019,-2.0105,-0.61104,1.7094
0.022235,-2.3631,-0.50874,-2.0103,-0.61105,1.7078
0.008548,-2.371,-0.49731,-2.01,-0.61106,1.7062
-0.0051526,-2.3788,-0.4859,-2.0098,-0.61106,1.7045
-0.018866,-2.3867,-0.4745,-2.0095,-0.61106,1.7027
-0.032592,-2.3945,-0.46312,-2.0093,-0.61106,1.7009
-0.046331,-2.4023,-0.45176,-2.0091,-0.61105,1.699
-0.060081,-2.4101,-0.44041,-2.0089,-0.61104,1.6971
-0.073842,-2.4178,-0.42908,-2.0087,-0.61103,1.6951
-0.087615,-2.4255,-0.41778,-2.0085,-0.61102,1.6931
-0.1014,-2.4332,-0.40649,-2.0083,-0.61101,1.6909
-0.11519,-2.4409,-0.39522,-2.0081,-0.611,1.6888
-0.12899,-2.4485,-0.38397,-2.008,-0.61098,1.6865
-0.14281,-2.4561,-0.37275,-2.0078,-0.61097,1.6843
-0.15663,-2.4637,-0.36155,-2.0077,-0.61095,1.6819
-0.17046,-2.4713,-0.35036,-2.0076,-0.61094,1.6795
-0.1843,-2.4788,-0.33921,-2.0075,-0.61092,1.677
-0.19814,-2.4863,-0.32807,-2.0074,-0.61091,1.6745
-0.212,-2.4938,-0.31696,-2.0073,-0.6109,1.6719
-0.22586,-2.5012,-0.30588,-2.0072,-0.61089,1.6693
-0.23972,-2.5087,-0.29482,-2.0072,-0.61088,1.6666
-0.25359,-2.516,-0.28379,-2.0072,-0.61087,1.6638
-0.26747,-2.5234,-0.27278,-2.0071,-0.61087,1.661
-0.28136,-2.5307,-0.2618,-2.0071,-0.61087,1.6581
-0.29525,-2.538,-0.25085,-2.0071,-0.61087,1.6551
-0.30914,-2.5453,-0.23992,-2.0072,-0.61087,1.6521
-0.32304,-2.5525,-0.22903,-2.0072,-0.61088,1.649
-0.33694,-2.5597,-0.21816,-2.0073,-0.61089,1.6459
-0.35084,-2.5669,-0.20732,-2.0073,-0.61091,1.6427
-0.36475,-2.574,-0.19652,-2.0074,-0.61093,1.6394
-0.37866,-2.5811,-0.18574,-2.0075,-0.61096,1.6361
-0.39257,-2.5882,-0.175,-2.0076,-0.61099,1.6327
-0.40648,-2.5952,-0.16428,-2.0078,-0.61103,1.6293
-0.42039,-2.6023,-0.1536,-2.0079,-0.61107,1.6257
-0.43431,-2.6092,-0.14296,-2.0081,-0.61112,1.6222
-0.44822,-2.6162,-0.13234,-2.0083,-0.61117,1.6185
-0.46214,-2.6231,-0.12176,-2.0085,-0.61124,1.6148
-0.47605,-2.6299,-0.11122,-2.0088,-0.6113,1.6111
-0.48996,-2.6368,-0.1007,-2.009,-0.61138,1.6073
-0.50387,-2.6436,-0.090228,-2.0093,-0.61146,1.6034
-0.51778,-2.6503,-0.079787,-2.0096,-0.61156,1.5994
-0.53169,-2.6571,-0.069383,-2.0099,-0.61166,1.5954
-0.5456,-2.6637,-0.059016,-2.0102,-0.61176,1.5913
-0.5595,-2.6704,-0.048686,-2.0106,-0.61188,1.5872
-0.5734,-2.677,-0.038394,-2.011,-0.61201,1.583
-0.58729,-2.6836,-0.02814,-2.0114,-0.61214,1.5788
-0.60118,-2.6901,-0.017925,-2.0118,-0.61229,1.5744
-0.61507,-2.6967,-0.0077488,-2.0122,-0.61244,1.5701
-0.62895,-2.7031,0.0023877,-2.0127,-0.61261,1.5656
-0.64282,-2.7095,0.012484,-2.0132,-0.61278,1.5611
-0.65669,-2.7159,0.02254,-2.0137,-0.61297,1.5565
-0.67055,-2.7223,0.032555,-2.0142,-0.61316,1.5519
-0.68441,-2.7286,0.042528,-2.0148,-0.61337,1.5472
-0.69825,-2.7349,0.05246,-2.0153,-0.61359,1.5424
-0.71209,-2.7411,0.062349,-2.0159,-0.61382,1.5376
-0.72593,-2.7473,0.072195,-2.0166,-0.61406,1.5327
-0.73975,-2.7535,0.081998,-2.0172,-0.61432,1.5278
-0.75356,-2.7596,0.091758,-2.0179,-0.61459,1.5228
-0.76737,-2.7657,0.10147,-2.0186,-0.61487,1.5177
-0.78116,-2.7717,0.11114,-2.0193,-0.61516,1.5125
-0.79495,-2.7777,0.12077,-2.02,-0.61547,1.5073
-0.80872,-2.7836,0.13035,-2.0208,-0.61579,1.5021
-0.82249,-2.7895,0.13989,-2.0216,-0.61612,1.4968
-0.83624,-2.7954,0.14937,-2.0224,-0.61647,1.4914
-0.84998,-2.8012,0.15882,-2.0233,-0.61683,1.4859
-0.86371,-2.807,0.16821,-2.0242,-0.61721,1.4804
-0.87742,-2.8128,0.17756,-2.0251,-0.6176,1.4748
-0.89112,-2.8185,0.18686,-2.026,-0.618,1.4692
-0.90481,-2.8241,0.19611,-2.0269,-0.61843,1.4635
-0.91849,-2.8297,0.20531,-2.0279,-0.61886,1.4577
-0.93215,-2.8353,0.21447,-2.0289,-0.61932,1.4519
-0.94579,-2.8408,0.22357,-2.03,-0.61979,1.446
-0.95942,-2.8463,0.23263,-2.031,-0.62027,1.4401
-0.97304,-2.8517,0.24163,-2.0321,-0.62077,1.434
-0.98663,-2.8571,0.25059,-2.0332,-0.62129,1.428
-1.0002,-2.8625,0.25949,-2.0344,-0.62183,1.4218
-1.0138,-2.8678,0.26834,-2.0356,-0.62238,1.4156
-1.0273,-2.873,0.27715,-2.0368,-0.62295,1.4094
-1.0409,-2.8783,0.2859,-2.038,-0.62354,1.4031
-1.0544,-2.8834,0.29459,-2.0393,-0.62414,1.3967
-1.0679,-2.8886,0.30324,-2.0405,-0.62476,1.3902
-1.0813,-2.8936,0.31183,-2.0419,-0.6254,1.3837
-1.0948,-2.8987,0.32037,-2.0432,-0.62606,1.3772
-1.1082,-2.9036,0.32885,-2.0446,-0.62674,1.3705
-1.1216,-2.9086,0.33728,-2.046,-0.62744,1.3638
-1.135,-2.9135,0.34566,-2.0474,-0.62815,1.3571
-1.1484,-2.9183,0.35398,-2.0489,-0.62889,1.3503
-1.1618,-2.9231,0.36225,-2.0504,-0.62964,1.3434
-1.1751,-2.9279,0.37046,-2.0519,-0.63042,1.3365
-1.1884,-2.9326,0.37862,-2.0535,-0.63121,1.3295
-1.2017,-2.9372,0.38672,-2.0551,-0.63202,1.3224
-1.2149,-2.9418,0.39477,-2.0567,-0.63286,1.3153
-1.2282,-2.9464,0.40276,-2.0583,-0.63371,1.3081
-1.2414,-2.9509,0.41069,-2.06,-0.63458,1.3009
-1.2546,-2.9553,0.41857,-2.0617,-0.63548,1.2936
-1.2677,-2.9598,0.42638,-2.0635,-0.6364,1.2863
-1.2809,-2.9641,0.43415,-2.0652,-0.63733,1.2789
-1.294,-2.9684,0.44185,-2.067,-0.63829,1.2714
-1.3071,-2.9727,0.44949,-2.0689,-0.63927,1.2639
-1.3202,-2.9769,0.45708,-2.0707,-0.64027,1.2563
-1.3332,-2.9811,0.46461,-2.0726,-0.64129,1.2486
-1.3462,-2.9852,0.47208,-2.0746,-0.64234,1.2409
-1.3592,-2.9893,0.47949,-2.0765,-0.64341,1.2331
-1.3721,-2.9933,0.48684,-2.0785,-0.64449,1.2253
-1.3851,-2.9973,0.49414,-2.0805,-0.64561,1.2174
-1.398,-3.0012,0.50137,-2.0826,-0.64674,1.2095
-1.4108,-3.005,0.50854,-2.0847,-0.6479,1.2015
-1.4237,-3.0089,0.51566,-2.0868,-0.64907,1.1934
-1.4365,-3.0126,0.52271,-2.089,-0.65028,1.1853
-1.4492,-3.0163,0.5297,-2.0911,-0.6515,1.1772
-1.462,-3.02,0.53663,-2.0934,-0.65275,1.1689
-1.4747,-3.0236,0.5435,-2.0956,-0.65402,1.1607
-1.4874,-3.0272,0.55031,-2.0979,-0.65532,1.1523
-1.5,-3.0307,0.55706,-2.1002,-0.65663,1.1439
-1.5127,-3.0341,0.56375,-2.1025,-0.65798,1.1355
-1.5252,-3.0376,0.57037,-2.1049,-0.65934,1.127
-1.5378,-3.0409,0.57693,-2.1073,-0.66073,1.1184
-1.5503,-3.0442,0.58343,-2.1098,-0.66215,1.1098
-1.5628,-3.0475,0.58987,-2.1123,-0.66358,1.1011
-1.5753,-3.0507,0.59625,-2.1148,-0.66505,1.0924
-1.5877,-3.0538,0.60256,-2.1173,-0.66653,1.0836
-1.6001,-3.0569,0.60881,-2.1199,-0.66804,1.0747
-1.6124,-3.06,0.615,-2.1225,-0.66958,1.0659
-1.6247,-3.063,0.62113,-2.1252,-0.67114,1.0569
-1.637,-3.0659,0.62719,-2.1278,-0.67272,1.0479
-1.6492,-3.0688,0.63319,-2.1305,-0.67433,1.0389
-1.6614,-3.0716,0.63912,-2.1333,-0.67597,1.0297
-1.6736,-3.0744,0.645,-2.1361,-0.67763,1.0206
-1.6857,-3.0771,0.6508,-2.1389,-0.67931,1.0114
-1.6978,-3.0798,0.65655,-2.1417,-0.68102,1.0021
-1.7099,-3.0824,0.66223,-2.1446,-0.68276,0.99279
-1.7219,-3.085,0.66785,-2.1475,-0.68452,0.98342
-1.7339,-3.0875,0.6734,-2.1504,-0.68631,0.974
-1.7458,-3.09,0.67889,-2.1534,-0.68812,0.96453
-1.7577,-3.0924,0.68431,-2.1564,-0.68995,0.95501
-1.7696,-3.0947,0.68967,-2.1594,-0.69182,0.94543
-1.7814,-3.097,0.69497,-2.1625,-0.69371,0.93581
-1.7931,-3.0993,0.7002,-2.1656,-0.69562,0.92614
-1.8049,-3.1015,0.70536,-2.1687,-0.69756,0.91641
-1.8166,-3.1036,0.71046,-2.1719,-0.69952,0.90664
-1.8282,-3.1057,0.7155,-2.1751,-0.70152,0.89682
-1.8398,-3.1078,0.72047,-2.1784,-0.70353,0.88694
-1.8514,-3.1097,0.72538,-2.1816,-0.70558,0.87702
-1.8629,-3.1117,0.73022,-2.1849,-0.70765,0.86706
-1.8744,-3.1135,0.735,-2.1883,-0.70974,0.85704
-1.8858,-3.1154,0.73971,-2.1916,-0.71186,0.84697
-1.8972,-3.1171,0.74436,-2.195,-0.71401,0.83686
-1.9086,-3.1188,0.74894,-2.1984,-0.71618,0.82671
-1.9199,-3.1205,0.75346,-2.2019,-0.71838,0.8165
-1.9311,-3.1221,0.75791,-2.2054,-0.72061,0.80625
-1.9423,-3.1237,0.7623,-2.2089,-0.72286,0.79595
-1.9535,-3.1252,0.76662,-2.2125,-0.72514,0.78561
-1.9646,-3.1266,0.77087,-2.2161,-0.72744,0.77522
-1.9757,-3.128,0.77506,-2.2197,-0.72977,0.76479
-1.9867,-3.1293,0.77919,-2.2234,-0.73213,0.75431
-1.9977,-3.1306,0.78325,-2.227,-0.73451,0.74379
-2.0086,-3.1318,0.78725,-2.2308,-0.73692,0.73322
-2.0195,-3.133,0.79118,-2.2345,-0.73935,0.72261
-2.0304,-3.1341,0.79504,-2.2383,-0.74181,0.71196
-2.0411,-3.1352,0.79885,-2.2421,-0.7443,0.70127
-2.0519,-3.1362,0.80258,-2.246,-0.74681,0.69053
-2.0626,-3.1372,0.80625,-2.2498,-0.74935,0.67975
-2.0732,-3.1381,0.80986,-2.2537,-0.75192,0.66893
-2.0838,-3.1389,0.8134,-2.2577,-0.75451,0.65806
-2.0943,-3.1397,0.81687,-2.2616,-0.75713,0.64716
-2.1048,-3.1404,0.82029,-2.2656,-0.75977,0.63622
-2.1153,-3.1411,0.82363,-2.2697,-0.76244,0.62523
-2.1257,-3.1418,0.82691,-2.2737,-0.76513,0.61421
-2.136,-3.1423,0.83013,-2.2778,-0.76785,0.60314
-2.1463,-3.1429,0.83328,-2.2819,-0.7706,0.59204
-2.1565,-3.1433,0.83637,-2.2861,-0.77337,0.5809
-2.1667,-3.1437,0.8394,-2.2903,-0.77617,0.56972
-2.1769,-3.1441,0.84236,-2.2945,-0.77899,0.5585
-2.1869,-3.1444,0.84525,-2.2987,-0.78184,0.54725
-2.197,-3.1447,0.84808,-2.303,-0.78471,0.53595
-2.2069,-3.1449,0.85085,-2.3073,-0.78761,0.52463
-2.2169,-3.145,0.85356,-2.3116,-0.79054,0.51326
-2.2267,-3.1451,0.85619,-2.3159,-0.79349,0.50186
-2.2365,-3.1452,0.85877,-2.3203,-0.79647,0.49043
-2.2463,-3.1451,0.86128,-2.3247,-0.79947,0.47895
-2.256,-3.1451,0.86373,-2.3292,-0.80249,0.46745
-2.2656,-3.145,0.86612,-2.3336,-0.80554,0.45591
-2.2752,-3.1448,0.86844,-2.3381,-0.80862,0.44434
-2.2848,-3.1446,0.8707,-2.3427,-0.81172,0.43273
-2.2942,-3.1443,0.8729,-2.3472,-0.81484,0.42109
-2.3037,-3.1439,0.87503,-2.3518,-0.81799,0.40942
-2.313,-3.1436,0.8771,-2.3564,-0.82117,0.39772
-2.3224,-3.1431,0.87911,-2.361,-0.82437,0.38598
-2.3316,-3.1426,0.88106,-2.3657,-0.82759,0.37422
-2.3408,-3.1421,0.88295,-2.3704,-0.83084,0.36242
-2.35,-3.1415,0.88477,-2.3751,-0.83411,0.35059
-2.359,-3.1408,0.88653,-2.3798,-0.8374,0.33874
-2.3681,-3.1401,0.88823,-2.3846,-0.84072,0.32685
-2.377,-3.1394,0.88987,-2.3894,-0.84406,0.31493
-2.3859,-3.1386,0.89144,-2.3942,-0.84743,0.30299
-2.3948,-3.1377,0.89296,-2.399,-0.85082,0.29102
-2.4036,-3.1368,0.89442,-2.4039,-0.85423,0.27902
-2.4123,-3.1359,0.89581,-2.4088,-0.85767,0.267
-2.421,-3.1348,0.89714,-2.4137,-0.86113,0.25494
-2.4296,-3.1338,0.89842,-2.4186,-0.86461,0.24286
-2.4381,-3.1327,0.89963,-2.4236,-0.86811,0.23076
-2.4466,-3.1315,0.90079,-2.4286,-0.87164,0.21863
-2.4551,-3.1303,0.90188,-2.4336,-0.87519,0.20648
-2.4634,-3.129,0.90292,-2.4386,-0.87876,0.1943
-2.4718,-3.1277,0.90389,-2.4437,-0.88235,0.1821
-2.48,-3.1263,0.90481,-2.4487,-0.88597,0.16987
-2.4882,-3.1249,0.90567,-2.4538,-0.88961,0.15762
-2.4963,-3.1234,0.90647,-2.4589,-0.89327,0.14535
-2.5044,-3.1219,0.90721,-2.4641,-0.89695,0.13306
-2.5124,-3.1203,0.90789,-2.4693,-0.90065,0.12075
-2.5203,-3.1187,0.90852,-2.4744,-0.90437,0.10841
-2.5282,-3.117,0.90909,-2.4796,-0.90812,0.096059
-2.536,-3.1153,0.9096,-2.4849,-0.91188,0.083684
-2.5438,-3.1135,0.91006,-2.4901,-0.91567,0.07129
-2.5515,-3.1117,0.91045,-2.4954,-0.91947,0.058877
-2.5591,-3.1098,0.9108,-2.5007,-0.9233,0.046445
-2.5667,-3.1079,0.91108,-2.506,-0.92715,0.033995
-2.5742,-3.1059,0.91131,-2.5113,-0.93101,0.021528
-2.5816,-3.1039,0.91149,-2.5167,-0.9349,0.0090443
-2.589,-3.1018,0.91161,-2.522,-0.9388,-0.0034562
-2.5963,-3.0997,0.91167,-2.5274,-0.94273,-0.015973
-2.6035,-3.0975,0.91168,-2.5328,-0.94667,-0.028505
-2.6107,-3.0953,0.91163,-2.5382,-0.95063,-0.041052
-2.6178,-3.093,0.91154,-2.5437,-0.95461,-0.053613
-2.6249,-3.0907,0.91138,-2.5491,-0.95861,-0.066189
-2.6319,-3.0884,0.91118,-2.5546,-0.96263,-0.078777
-2.6388,-3.0859,0.91092,-2.5601,-0.96666,-0.091379
-2.6456,-3.0835,0.91061,-2.5656,-0.97071,-0.10399
-2.6524,-3.081,0.91024,-2.5711,-0.97478,-0.11662
-2.6591,-3.0784,0.90983,-2.5766,-0.97887,-0.12926
-2.6658,-3.0758,0.90936,-2.5822,-0.98297,-0.14191
-2.6724,-3.0732,0.90884,-2.5877,-0.9871,-0.15457
-2.6789,-3.0705,0.90827,-2.5933,-0.99123,-0.16723
-2.6854,-3.0677,0.90764,-2.5989,-0.99539,-0.17991
-2.6918,-3.065,0.90697,-2.6045,-0.99956,-0.1926
-2.6981,-3.0621,0.90625,-2.6101,-1.0037,-0.2053
-2.7043,-3.0593,0.90548,-2.6157,-1.0079,-0.218
-2.7105,-3.0563,0.90465,-2.6214,-1.0122,-0.23071
-2.7166,-3.0534,0.90378,-2.627,-1.0164,-0.24343
-2.7227,-3.0503,0.90286,-2.6327,-1.0206,-0.25615
-2.7287,-3.0473,0.9019,-2.6384,-1.0249,-0.26888
-2.7346,-3.0442,0.90088,-2.6441,-1.0292,-0.28161
-2.7405,-3.041,0.89982,-2.6498,-1.0335,-0.29435
-2.7462,-3.0378,0.8987,-2.6555,-1.0378,-0.3071
-2.752,-3.0346,0.89755,-2.6612,-1.0421,-0.31984
-2.7576,-3.0313,0.89634,-2.667,-1.0464,-0.3326
-2.7632,-3.028,0.89509,-2.6727,-1.0508,-0.34535
-2.7687,-3.0246,0.89379,-2.6784,-1.0551,-0.3581
-2.7741,-3.0212,0.89245,-2.6842,-1.0595,-0.37086
-2.7795,-3.0178,0.89106,-2.69,-1.0639,-0.38362
-2.7848,-3.0143,0.88963,-2.6958,-1.0682,-0.39638
-2.79,-3.0107,0.88816,-2.7015,-1.0727,-0.40913
-2.7952,-3.0072,0.88664,-2.7073,-1.0771,-0.42189
-2.8003,-3.0035,0.88507,-2.7131,-1.0815,-0.43465
-2.8053,-2.9999,0.88347,-2.7189,-1.0859,-0.4474
-2.8103,-2.9962,0.88182,-2.7247,-1.0904,-0.46016
-2.8152,-2.9924,0.88013,-2.7306,-1.0948,-0.47291
-2.82,-2.9886,0.87839,-2.7364,-1.0993,-0.48565
-2.8247,-2.9848,0.87662,-2.7422,-1.1038,-0.4984
-2.8294,-2.9809,0.8748,-2.748,-1.1083,-0.51113
-2.834,-2.977,0.87295,-2.7539,-1.1128,-0.52387
-2.8386,-2.973,0.87105,-2.7597,-1.1173,-0.5366
-2.843,-2.9691,0.86911,-2.7655,-1.1218,-0.54932
-2.8474,-2.965,0.86714,-2.7714,-1.1263,-0.56204
-2.8518,-2.961,0.86512,-2.7772,-1.1308,-0.57475
-2.856,-2.9568,0.86307,-2.7831,-1.1353,-0.58745
-2.8602,-2.9527,0.86098,-2.7889,-1.1399,-0.60014
-2.8643,-2.9485,0.85885,-2.7948,-1.1444,-0.61283
-2.8684,-2.9443,0.85668,-2.8006,-1.149,-0.62551
-2.8723,-2.94,0.85448,-2.8065,-1.1535,-0.63817
-2.8763,-2.9357,0.85224,-2.8123,-1.1581,-0.65083
-2.8801,-2.9314,0.84997,-2.8182,-1.1627,-0.66348
-2.8838,-2.927,0.84766,-2.824,-1.1673,-0.67611
-2.8875,-2.9226,0.84531,-2.8299,-1.1718,-0.68873
-2.8912,-2.9181,0.84293,-2.8357,-1.1764,-0.70134
-2.8947,-2.9137,0.84052,-2.8416,-1.181,-0.71394
-2.8982,-2.9091,0.83807,-2.8474,-1.1856,-0.72653
-2.9016,-2.9046,0.83559,-2.8533,-1.1902,-0.7391
-2.9049,-2.9,0.83307,-2.8591,-1.1948,-0.75166
-2.9082,-2.8953,0.83053,-2.8649,-1.1994,-0.7642
-2.9114,-2.8907,0.82795,-2.8708,-1.204,-0.77672
-2.9145,-2.886,0.82534,-2.8766,-1.2086,-0.78923
-2.9176,-2.8812,0.8227,-2.8824,-1.2132,-0.80173
-2.9206,-2.8765,0.82003,-2.8882,-1.2178,-0.81421
-2.9235,-2.8717,0.81733,-2.894,-1.2224,-0.82666
-2.9263,-2.8668,0.8146,-2.8998,-1.227,-0.83911
-2.9291,-2.862,0.81184,-2.9056,-1.2316,-0.85153
-2.9318,-2.8571,0.80905,-2.9114,-1.2363,-0.86393
-2.9344,-2.8521,0.80623,-2.9172,-1.2409,-0.87632
-2.9369,-2.8472,0.80339,-2.923,-1.2455,-0.88868
-2.9394,-2.8422,0.80052,-2.9287,-1.2501,-0.90102
-2.9418,-2.8371,0.79762,-2.9345,-1.2547,-0.91334
-2.9442,-2.8321,0.7947,-2.9402,-1.2593,-0.92564
-2.9464,-2.827,0.79175,-2.9459,-1.2639,-0.93792
-2.9486,-2.8219,0.78878,-2.9517,-1.2685,-0.95018
-2.9507,-2.8167,0.78578,-2.9574,-1.2731,-0.96241
-2.9528,-2.8115,0.78275,-2.9631,-1.2777,-0.97462
-2.9548,-2.8063,0.7797,-2.9688,-1.2823,-0.9868
-2.9567,-2.8011,0.77663,-2.9744,-1.2869,-0.99896
-2.9585,-2.7958,0.77354,-2.9801,-1.2914,-1.0111
-2.9603,-2.7905,0.77042,-2.9858,-1.296,-1.0232
-2.962,-2.7851,0.76729,-2.9914,-1.3006,-1.0353
-2.9636,-2.7798,0.76413,-2.997,-1.3052,-1.0473
-2.9652,-2.7744,0.76095,-3.0026,-1.3097,-1.0594
-2.9666,-2.769,0.75775,-3.0082,-1.3143,-1.0714
-2.968,-2.7635,0.75453,-3.0138,-1.3188,-1.0833
-2.9694,-2.7581,0.75129,-3.0194,-1.3233,-1.0953
-2.9706,-2.7526,0.74803,-3.0249,-1.3279,-1.1072
-2.9718,-2.747,0.74475,-3.0304,-1.3324,-1.1191
-2.973,-2.7415,0.74146,-3.0359,-1.3369,-1.1309
-2.974,-2.7359,0.73814,-3.0414,-1.3414,-1.1427
-2.975,-2.7303,0.73481,-3.0469,-1.3459,-1.1545
-2.9759,-2.7247,0.73147,-3.0524,-1.3504,-1.1663
-2.9768,-2.719,0.72811,-3.0578,-1.3549,-1.178
-2.9775,-2.7133,0.72473,-3.0632,-1.3594,-1.1897
-2.9782,-2.7076,0.72134,-3.0686,-1.3638,-1.2014
-2.9788,-2.7019,0.71793,-3.074,-1.3683,-1.213
-2.9794,-2.6961,0.71451,-3.0794,-1.3727,-1.2246
-2.9799,-2.6904,0.71108,-3.0847,-1.3771,-1.2361
-2.9803,-2.6846,0.70763,-3.09,-1.3815,-1.2476
-2.9806,-2.6787,0.70417,-3.0953,-1.3859,-1.2591
-2.9809,-2.6729,0.7007,-3.1006,-1.3903,-1.2706
-2.9811,-2.667,0.69721,-3.1058,-1.3947,-1.282
-2.9812,-2.6612,0.69372,-3.111,-1.399,-1.2933
-2.9813,-2.6552,0.69022,-3.1162,-1.4034,-1.3047
-2.9813,-2.6493,0.6867,-3.1214,-1.4077,-1.316
-2.9812,-2.6434,0.68318,-3.1266,-1.412,-1.3272
-2.9811,-2.6374,0.67965,-3.1317,-1.4163,-1.3385
-2.9808,-2.6314,0.6761,-3.1368,-1.4206,-1.3496
-2.9806,-2.6254,0.67256,-3.1419,-1.4249,-1.3608
-2.9802,-2.6194,0.669,-3.1469,-1.4291,-1.3719
-2.9798,-2.6133,0.66544,-3.1519,-1.4334,-1.3829
-2.9793,-2.6072,0.66187,-3.1569,-1.4376,-1.3939
-2.9787,-2.6012,0.65829,-3.1619,-1.4418,-1.4049
-2.9781,-2.595,0.65471,-3.1668,-1.446,-1.4158
-2.9774,-2.5889,0.65112,-3.1717,-1.4501,-1.4267
-2.9766,-2.5828,0.64753,-3.1766,-1.4543,-1.4376
-2.9757,-2.5766,0.64394,-3.1814,-1.4584,-1.4484
-2.9748,-2.5705,0.64034,-3.1862,-1.4625,-1.4591
-2.9738,-2.5643,0.63674,-3.191,-1.4666,-1.4698
-2.9728,-2.5581,0.63313,-3.1958,-1.4707,-1.4805
-2.9717,-2.5518,0.62953,-3.2005,-1.4747,-1.4911
-2.9705,-2.5456,0.62592,-3.2052,-1.4787,-1.5017
-2.9692,-2.5393,0.62231,-3.2099,-1.4827,-1.5122
-2.9679,-2.5331,0.6187,-3.2145,-1.4867,-1.5227
-2.9665,-2.5268,0.61509,-3.2191,-1.4907,-1.5331
-2.965,-2.5205,0.61149,-3.2236,-1.4946,-1.5435
-2.9635,-2.5142,0.60788,-3.2282,-1.4985,-1.5538
-2.9619,-2.5078,0.60427,-3.2326,-1.5024,-1.5641
-2.9602,-2.5015,0.60067,-3.2371,-1.5063,-1.5743
-2.9585,-2.4952,0.59707,-3.2415,-1.5101,-1.5845
-2.9567,-2.4888,0.59347,-3.2459,-1.5139,-1.5947
-2.9548,-2.4824,0.58988,-3.2502,-1.5177,-1.6047
-2.9529,-2.476,0.58628,-3.2545,-1.5215,-1.6148
-2.9509,-2.4696,0.5827,-3.2588,-1.5252,-1.6248
-2.9488,-2.4632,0.57912,-3.263,-1.5289,-1.6347
-2.9467,-2.4568,0.57554,-3.2672,-1.5326,-1.6446
-2.9445,-2.4504,0.57197,-3.2714,-1.5363,-1.6544
-2.9422,-2.4439,0.5684,-3.2755,-1.5399,-1.6642
-2.9399,-2.4375,0.56485,-3.2796,-1.5435,-1.6739
-2.9375,-2.431,0.5613,-3.2836,-1.5471,-1.6835
-2.935,-2.4245,0.55775,-3.2876,-1.5506,-1.6932
-2.9325,-2.4181,0.55422,-3.2916,-1.5541,-1.7027
-2.9299,-2.4116,0.55069,-3.2955,-1.5576,-1.7122
-2.9272,-2.4051,0.54718,-3.2994,-1.5611,-1.7217
-2.9245,-2.3986,0.54367,-3.3032,-1.5645,-1.731
-2.9217,-2.3921,0.54017,-3.307,-1.5679,-1.7404
-2.9189,-2.3855,0.53669,-3.3107,-1.5713,-1.7497
-2.9159,-2.379,0.53321,-3.3144,-1.5746,-1.7589
-2.9129,-2.3725,0.52975,-3.3181,-1.5779,-1.768
-2.9099,-2.3659,0.5263,-3.3217,-1.5812,-1.7771
-2.9068,-2.3594,0.52286,-3.3253,-1.5844,-1.7862
-2.9036,-2.3529,0.51943,-3.3288,-1.5876,-1.7952
-2.9004,-2.3463,0.51602,-3.3323,-1.5908,-1.8041
-2.8971,-2.3397,0.51262,-3.3357,-1.5939,-1.813
-2.8937,-2.3332,0.50924,-3.3391,-1.597,-1.8218
-2.8903,-2.3266,0.50587,-3.3424,-1.6001,-1.8305
-2.8868,-2.32,0.50251,-3.3457,-1.6031,-1.8392
-2.8832,-2.3135,0.49917,-3.349,-1.6061,-1.8478
-2.8796,-2.3069,0.49585,-3.3522,-1.6091,-1.8564
-2.8759,-2.3003,0.49254,-3.3553,-1.612,-1.8649
-2.8722,-2.2937,0.48925,-3.3584,-1.6149,-1.8734
-2.8683,-2.2871,0.48598,-3.3615,-1.6177,-1.8817
-2.8645,-2.2805,0.48272,-3.3645,-1.6205,-1.8901
-2.8606,-2.2739,0.47949,-3.3674,-1.6233,-1.8983
-2.8566,-2.2673,0.47627,-3.3704,-1.6261,-1.9065
-2.8525,-2.2607,0.47307,-3.3732,-1.6288,-1.9146
-2.8484,-2.2542,0.46989,-3.376,-1.6314,-1.9227
-2.8442,-2.2476,0.46673,-3.3788,-1.634,-1.9307
-2.84,-2.241,0.46359,-3.3815,-1.6366,-1.9386
-2.8357,-2.2344,0.46048,-3.3841,-1.6392,-1.9465
-2.8313,-2.2278,0.45738,-3.3867,-1.6417,-1.9543
-2.8269,-2.2212,0.4543,-3.3893,-1.6441,-1.9621
-2.8225,-2.2146,0.45125,-3.3917,-1.6466,-1.9697
-2.8179,-2.208,0.44822,-3.3942,-1.649,-1.9773
-2.8133,-2.2014,0.44521,-3.3966,-1.6513,-1.9849
-2.8087,-2.1948,0.44223,-3.3989,-1.6536,-1.9924
-2.804,-2.1882,0.43927,-3.4012,-1.6558,-1.9998
-2.7992,-2.1817,0.43633,-3.4034,-1.6581,-2.0071
-2.7944,-2.1751,0.43342,-3.4056,-1.6602,-2.0144
-2.7895,-2.1685,0.43053,-3.4077,-1.6624,-2.0216
-2.7846,-2.1619,0.42767,-3.4097,-1.6644,-2.0288
-2.7796,-2.1554,0.42484,-3.4117,-1.6665,-2.0358
-2.7745,-2.1488,0.42203,-3.4137,-1.6685,-2.0428
-2.7694,-2.1422,0.41924,-3.4155,-1.6704,-2.0498
-2.7643,-2.1357,0.41648,-3.4174,-1.6723,-2.0566
-2.759,-2.1291,0.41376,-3.4191,-1.6742,-2.0634
-2.7538,-2.1226,0.41105,-3.4209,-1.676,-2.0702
-2.7484,-2.1161,0.40838,-3.4225,-1.6778,-2.0768
-2.7431,-2.1095,0.40573,-3.4241,-1.6795,-2.0834
-2.7376,-2.103,0.40312,-3.4256,-1.6812,-2.0899
-2.7321,-2.0965,0.40053,-3.4271,-1.6828,-2.0964
-2.7266,-2.09,0.39797,-3.4285,-1.6844,-2.1028
-2.721,-2.0835,0.39544,-3.4299,-1.6859,-2.1091
-2.7153,-2.077,0.39294,-3.4312,-1.6874,-2.1153
-2.7096,-2.0705,0.39047,-3.4324,-1.6889,-2.1215
-2.7038,-2.064,0.38804,-3.4336,-1.6903,-2.1276
-2.698,-2.0575,0.38563,-3.4347,-1.6916,-2.1336
-2.6921,-2.0511,0.38326,-3.4358,-1.6929,-2.1395
-2.6862,-2.0446,0.38091,-3.4368,-1.6941,-2.1454
-2.6802,-2.0382,0.3786,-3.4377,-1.6953,-2.1512
-2.6742,-2.0317,0.37633,-3.4386,-1.6965,-2.1569
-2.6681,-2.0253,0.37408,-3.4394,-1.6976,-2.1626
-2.662,-2.0189,0.37187,-3.4401,-1.6986,-2.1682
-2.6558,-2.0125,0.36969,-3.4408,-1.6996,-2.1737
-2.6495,-2.0061,0.36755,-3.4414,-1.7006,-2.1791
-2.6433,-1.9997,0.36544,-3.442,-1.7014,-2.1845
-2.6369,-1.9934,0.36336,-3.4425,-1.7023,-2.1898
-2.6305,-1.987,0.36132,-3.4429,-1.7031,-2.195
-2.6241,-1.9806,0.35931,-3.4433,-1.7038,-2.2001
-2.6176,-1.9743,0.35734,-3.4436,-1.7045,-2.2052
-2.6111,-1.968,0.35541,-3.4438,-1.7051,-2.2102
-2.6045,-1.9617,0.35351,-3.444,-1.7057,-2.2151
-2.5979,-1.9554,0.35165,-3.4441,-1.7062,-2.2199
-2.5912,-1.9491,0.34982,-3.4441,-1.7067,-2.2247
-2.5845,-1.9428,0.34803,-3.4441,-1.7071,-2.2294
-2.5777,-1.9366,0.34628,-3.444,-1.7075,-2.234
-2.5709,-1.9303,0.34456,-3.4439,-1.7078,-2.2386
-2.564,-1.9241,0.34289,-3.4436,-1.708,-2.243
-2.5571,-1.9179,0.34125,-3.4433,-1.7082,-2.2474
-2.5501,-1.9117,0.33965,-3.443,-1.7083,-2.2517
-2.5431,-1.9055,0.33809,-3.4426,-1.7084,-2.256
-2.536,-1.8993,0.33656,-3.4421,-1.7085,-2.2601
-2.5289,-1.8931,0.33508,-3.4415,-1.7084,-2.2642
-2.5218,-1.887,0.33363,-3.4409,-1.7083,-2.2682
-2.5146,-1.8809,0.33223,-3.4402,-1.7082,-2.2722
-2.5074,-1.8748,0.33086,-3.4394,-1.708,-2.276
-2.5001,-1.8687,0.32953,-3.4386,-1.7077,-2.2798
-2.4928,-1.8626,0.32825,-3.4377,-1.7074,-2.2835
-2.4854,-1.8565,0.327,-3.4367,-1.7071,-2.2871
-2.478,-1.8505,0.3258,-3.4357,-1.7066,-2.2907
-2.4705,-1.8445,0.32463,-3.4346,-1.7062,-2.2942
-2.463,-1.8385,0.32351,-3.4334,-1.7056,-2.2975
-2.4555,-1.8325,0.32243,-3.4321,-1.705,-2.3009
-2.4479,-1.8265,0.32139,-3.4308,-1.7043,-2.3041
-2.4403,-1.8206,0.32039,-3.4294,-1.7036,-2.3073
-2.4326,-1.8146,0.31943,-3.428,-1.7029,-2.3104
-2.4249,-1.8087,0.31852,-3.4265,-1.702,-2.3134
-2.4172,-1.8028,0.31765,-3.4249,-1.7011,-2.3163
-2.4094,-1.7969,0.31682,-3.4232,-1.7002,-2.3191
-2.4016,-1.7911,0.31603,-3.4215,-1.6991,-2.3219
-2.3937,-1.7852,0.31529,-3.4196,-1.6981,-2.3246
-2.3858,-1.7794,0.31459,-3.4178,-1.6969,-2.3272
-2.3779,-1.7736,0.31393,-3.4158,-1.6957,-2.3298
-2.3699,-1.7678,0.31331,-3.4138,-1.6945,-2.3322
-2.3619,-1.7621,0.31274,-3.4117,-1.6932,-2.3346
-2.3538,-1.7563,0.31222,-3.4095,-1.6918,-2.3369
-2.3457,-1.7506,0.31173,-3.4073,-1.6903,-2.3392
-2.3376,-1.7449,0.3113,-3.405,-1.6888,-2.3413
-2.3294,-1.7392,0.3109,-3.4026,-1.6873,-2.3434
-2.3212,-1.7336,0.31055,-3.4002,-1.6857,-2.3454
-2.313,-1.7279,0.31024,-3.3977,-1.684,-2.3473
-2.3047,-1.7223,0.30998,-3.3951,-1.6822,-2.3491
-2.2964,-1.7167,0.30977,-3.3924,-1.6804,-2.3509
-2.2881,-1.7112,0.30959,-3.3897,-1.6785,-2.3526
-2.2797,-1.7056,0.30947,-3.3869,-1.6766,-2.3542
-2.2713,-1.7001,0.30939,-3.384,-1.6746,-2.3557
-2.2628,-1.6946,0.30935,-3.381,-1.6725,-2.3572
-2.2543,-1.6891,0.30936,-3.378,-1.6704,-2.3585
-2.2458,-1.6837,0.30941,-3.3749,-1.6682,-2.3598
-2.2373,-1.6782,0.30951,-3.3717,-1.666,-2.361
-2.2287,-1.6728,0.30966,-3.3685,-1.6637,-2.3622
-2.2201,-1.6675,0.30985,-3.3652,-1.6613,-2.3632
-2.2114,-1.6621,0.31009,-3.3618,-1.6589,-2.3642
-2.2027,-1.6568,0.31037,-3.3583,-1.6564,-2.3651
-2.194,-1.6514,0.3107,-3.3548,-1.6538,-2.366
-2.1853,-1.6462,0.31108,-3.3512,-1.6512,-2.3667
-2.1765,-1.6409,0.3115,-3.3475,-1.6485,-2.3674
-2.1677,-1.6356,0.31197,-3.3437,-1.6457,-2.368
-2.1589,-1.6304,0.31248,-3.3399,-1.6429,-2.3685
-2.15,-1.6252,0.31304,-3.336,-1.64,-2.3689
-2.1411,-1.6201,0.31365,-3.332,-1.6371,-2.3693
-2.1322,-1.6149,0.3143,-3.328,-1.634,-2.3696
-2.1233,-1.6098,0.315,-3.3239,-1.631,-2.3698
-2.1143,-1.6047,0.31574,-3.3197,-1.6278,-2.3699
-2.1053,-1.5997,0.31654,-3.3154,-1.6246,-2.3699
-2.0963,-1.5946,0.31738,-3.3111,-1.6213,-2.3699
-2.0872,-1.5896,0.31826,-3.3067,-1.618,-2.3698
-2.0781,-1.5846,0.31919,-3.3022,-1.6146,-2.3696
-2.069,-1.5797,0.32017,-3.2976,-1.6111,-2.3694
-2.0599,-1.5747,0.3212,-3.293,-1.6076,-2.369
-2.0507,-1.5698,0.32227,-3.2883,-1.604,-2.3686
-2.0415,-1.5649,0.32339,-3.2835,-1.6003,-2.3682
-2.0323,-1.5601,0.32456,-3.2787,-1.5966,-2.3676
-2.0231,-1.5553,0.32577,-3.2737,-1.5928,-2.367
-2.0138,-1.5504,0.32703,-3.2687,-1.589,-2.3662
-2.0045,-1.5457,0.32833,-3.2637,-1.585,-2.3654
-1.9952,-1.5409,0.32968,-3.2585,-1.5811,-2.3646
-1.9859,-1.5362,0.33108,-3.2533,-1.577,-2.3636
-1.9765,-1.5315,0.33253,-3.248,-1.5729,-2.3626
-1.9672,-1.5268,0.33402,-3.2427,-1.5687,-2.3615
-1.9578,-1.5222,0.33556,-3.2372,-1.5644,-2.3604
-1.9484,-1.5176,0.33714,-3.2317,-1.5601,-2.3591
-1.9389,-1.513,0.33877,-3.2262,-1.5558,-2.3578
-1.9295,-1.5085,0.34045,-3.2205,-1.5513,-2.3564
-1.92,-1.5039,0.34218,-3.2148,-1.5468,-2.3549
-1.9105,-1.4994,0.34395,-3.209,-1.5422,-2.3534
-1.901,-1.4949,0.34576,-3.2031,-1.5376,-2.3518
-1.8914,-1.4905,0.34762,-3.1972,-1.5329,-2.3501
-1.8819,-1.4861,0.34953,-3.1912,-1.5281,-2.3483
-1.8723,-1.4817,0.35149,-3.1851,-1.5233,-2.3465
-1.8627,-1.4773,0.35349,-3.1789,-1.5184,-2.3446
-1.8531,-1.473,0.35553,-3.1727,-1.5134,-2.3426
-1.8434,-1.4687,0.35762,-3.1664,-1.5084,-2.3405
-1.8338,-1.4644,0.35976,-3.1601,-1.5033,-2.3384
-1.8241,-1.4602,0.36194,-3.1536,-1.4981,-2.3362
-1.8144,-1.456,0.36417,-3.1471,-1.4929,-2.3339
-1.8047,-1.4518,0.36645,-3.1405,-1.4876,-2.3316
-1.795,-1.4476,0.36877,-3.1339,-1.4822,-2.3291
-1.7853,-1.4435,0.37113,-3.1272,-1.4768,-2.3267
-1.7755,-1.4394,0.37354,-3.1204,-1.4713,-2.3241
-1.7658,-1.4353,0.37599,-3.1135,-1.4658,-2.3214
-1.756,-1.4313,0.37849,-3.1066,-1.4601,-2.3187
-1.7462,-1.4273,0.38103,-3.0996,-1.4545,-2.316
-1.7364,-1.4233,0.38362,-3.0925,-1.4487,-2.3131
-1.7266,-1.4193,0.38625,-3.0854,-1.4429,-2.3102
-1.7168,-1.4154,0.38893,-3.0781,-1.437,-2.3072
-1.7069,-1.4115,0.39165,-3.0709,-1.4311,-2.3041
-1.6971,-1.4076,0.39441,-3.0635,-1.4251,-2.301
-1.6872,-1.4038,0.39722,-3.0561,-1.419,-2.2978
-1.6773,-1.4,0.40007,-3.0486,-1.4129,-2.2945
-1.6675,-1.3962,0.40296,-3.0411,-1.4067,-2.2912
-1.6576,-1.3924,0.4059,-3.0334,-1.4004,-2.2878
-1.6476,-1.3887,0.40888,-3.0257,-1.3941,-2.2843
-1.6377,-1.385,0.4119,-3.018,-1.3877,-2.2807
-1.6278,-1.3814,0.41496,-3.0101,-1.3813,-2.2771
-1.6179,-1.3777,0.41807,-3.0022,-1.3747,-2.2734
-1.6079,-1.3741,0.42122,-2.9943,-1.3682,-2.2697
-1.598,-1.3706,0.42441,-2.9863,-1.3615,-2.2659
-1.588,-1.367,0.42765,-2.9782,-1.3548,-2.262
-1.578,-1.3635,0.43092,-2.97,-1.3481,-2.258
-1.568,-1.36,0.43424,-2.9618,-1.3412,-2.254
-1.5581,-1.3566,0.4376,-2.9535,-1.3343,-2.2499
-1.5481,-1.3531,0.441,-2.9451,-1.3274,-2.2458
-1.5381,-1.3498,0.44444,-2.9367,-1.3204,-2.2416
-1.5281,-1.3464,0.44792,-2.9282,-1.3133,-2.2373
-1.518,-1.3431,0.45144,-2.9196,-1.3061,-2.2329
-1.508,-1.3397,0.455,-2.911,-1.2989,-2.2285
-1.498,-1.3365,0.4586,-2.9023,-1.2917,-2.224
-1.488,-1.3332,0.46224,-2.8936,-1.2843,-2.2195
-1.478,-1.33,0.46592,-2.8847,-1.2769,-2.2149
-1.4679,-1.3268,0.46963,-2.8759,-1.2695,-2.2102
-1.4579,-1.3237,0.47339,-2.8669,-1.262,-2.2055
-1.4478,-1.3205,0.47719,-2.8579,-1.2544,-2.2007
-1.4378,-1.3174,0.48102,-2.8488,-1.2468,-2.1958
-1.4277,-1.3144,0.48489,-2.8397,-1.2391,-2.1909
-1.4177,-1.3113,0.4888,-2.8305,-1.2313,-2.1859
-1.4076,-1.3083,0.49275,-2.8212,-1.2235,-2.1809
-1.3976,-1.3053,0.49673,-2.8119,-1.2156,-2.1758
-1.3875,-1.3024,0.50075,-2.8025,-1.2077,-2.1706
-1.3775,-1.2995,0.50481,-2.7931,-1.1997,-2.1654
-1.3674,-1.2966,0.5089,-2.7836,-1.1917,-2.1601
-1.3574,-1.2937,0.51303,-2.774,-1.1835,-2.1548
-1.3473,-1.2909,0.5172,-2.7644,-1.1754,-2.1493
-1.3372,-1.2881,0.5214,-2.7547,-1.1671,-2.1439
-1.3272,-1.2853,0.52563,-2.745,-1.1589,-2.1384
-1.3171,-1.2825,0.5299,-2.7352,-1.1505,-2.1328
-1.3071,-1.2798,0.53421,-2.7253,-1.1421,-2.1271
-1.297,-1.2771,0.53855,-2.7154,-1.1336,-2.1214
-1.287,-1.2745,0.54292,-2.7054,-1.1251,-2.1157
-1.2769,-1.2718,0.54733,-2.6954,-1.1166,-2.1098
-1.2669,-1.2692,0.55177,-2.6853,-1.1079,-2.104
-1.2568,-1.2667,0.55624,-2.6751,-1.0992,-2.098
-1.2468,-1.2641,0.56075,-2.6649,-1.0905,-2.0921
-1.2368,-1.2616,0.56528,-2.6547,-1.0817,-2.086
-1.2267,-1.2591,0.56985,-2.6443,-1.0728,-2.0799
-1.2167,-1.2567,0.57445,-2.634,-1.0639,-2.0738
-1.2067,-1.2542,0.57909,-2.6235,-1.0549,-2.0676
-1.1967,-1.2518,0.58375,-2.6131,-1.0459,-2.0613
-1.1867,-1.2494,0.58844,-2.6025,-1.0368,-2.055
-1.1767,-1.2471,0.59316,-2.5919,-1.0277,-2.0486
-1.1667,-1.2448,0.59792,-2.5813,-1.0185,-2.0422
-1.1567,-1.2425,0.6027,-2.5706,-1.0093,-2.0357
-1.1467,-1.2402,0.60751,-2.5598,-0.99998,-2.0292
-1.1367,-1.238,0.61235,-2.549,-0.99063,-2.0226
-1.1267,-1.2358,0.61722,-2.5381,-0.98123,-2.016
-1.1168,-1.2336,0.62211,-2.5272,-0.97177,-2.0093
-1.1068,-1.2315,0.62704,-2.5163,-0.96227,-2.0026
-1.0969,-1.2293,0.63199,-2.5053,-0.95271,-1.9958
-1.0869,-1.2272,0.63696,-2.4942,-0.9431,-1.989
-1.077,-1.2252,0.64196,-2.4831,-0.93344,-1.9821
-1.0671,-1.2231,0.64699,-2.4719,-0.92372,-1.9752
-1.0571,-1.2211,0.65205,-2.4607,-0.91396,-1.9682
-1.0472,-1.2191,0.65713,-2.4494,-0.90414,-1.9612
-1.0373,-1.2172,0.66223,-2.4381,-0.89428,-1.9541
-1.0275,-1.2152,0.66736,-2.4268,-0.88436,-1.947
-1.0176,-1.2133,0.67251,-2.4154,-0.8744,-1.9398
-1.0077,-1.2114,0.67769,-2.4039,-0.86438,-1.9326
-0.99788,-1.2096,0.68289,-2.3924,-0.85432,-1.9253
-0.98804,-1.2078,0.68811,-2.3809,-0.84421,-1.918
-0.97821,-1.206,0.69335,-2.3693,-0.83405,-1.9106
-0.9684,-1.2042,0.69862,-2.3576,-0.82384,-1.9032
-0.95859,-1.2024,0.7039,-2.346,-0.81359,-1.8958
-0.9488,-1.2007,0.70921,-2.3342,-0.80329,-1.8883
-0.93902,-1.199,0.71454,-2.3225,-0.79294,-1.8808
-0.92926,-1.1973,0.71989,-2.3106,-0.78255,-1.8732
-0.91951,-1.1957,0.72525,-2.2988,-0.77211,-1.8656
-0.90977,-1.1941,0.73064,-2.2869,-0.76162,-1.8579
-0.90005,-1.1925,0.73605,-2.2749,-0.75109,-1.8502
-0.89034,-1.1909,0.74147,-2.263,-0.74051,-1.8425
-0.88064,-1.1894,0.74691,-2.2509,-0.72989,-1.8347
-0.87096,-1.1878,0.75237,-2.2389,-0.71923,-1.8269
-0.8613,-1.1863,0.75785,-2.2268,-0.70852,-1.819
-0.85165,-1.1849,0.76334,-2.2146,-0.69776,-1.8111
-0.84202,-1.1834,0.76885,-2.2024,-0.68697,-1.8032
-0.8324,-1.182,0.77437,-2.1902,-0.67613,-1.7952
-0.8228,-1.1806,0.77991,-2.178,-0.66525,-1.7872
-0.81321,-1.1792,0.78546,-2.1657,-0.65433,-1.7791
-0.80365,-1.1779,0.79103,-2.1533,-0.64337,-1.771
-0.7941,-1.1765,0.79661,-2.141,-0.63237,-1.7629
-0.78456,-1.1752,0.8022,-2.1285,-0.62132,-1.7547
-0.77505,-1.1739,0.80781,-2.1161,-0.61024,-1.7465
-0.76555,-1.1727,0.81343,-2.1036,-0.59911,-1.7383
-0.75607,-1.1714,0.81906,-2.0911,-0.58795,-1.73
-0.74661,-1.1702,0.8247,-2.0786,-0.57675,-1.7217
-0.73717,-1.169,0.83036,-2.066,-0.56551,-1.7133
-0.72774,-1.1679,0.83602,-2.0534,-0.55423,-1.7049
-0.71834,-1.1667,0.84169,-2.0407,-0.54291,-1.6965
-0.70895,-1.1656,0.84738,-2.028,-0.53156,-1.6881
-0.69959,-1.1645,0.85307,-2.0153,-0.52017,-1.6796
-0.69024,-1.1634,0.85877,-2.0026,-0.50874,-1.6711
-0.68091,-1.1624,0.86447,-1.9898,-0.49728,-1.6625
-0.67161,-1.1613,0.87019,-1.977,-0.48578,-1.654
-0.66232,-1.1603,0.87591,-1.9642,-0.47425,-1.6454
-0.65306,-1.1593,0.88164,-1.9513,-0.46269,-1.6367
-0.64382,-1.1583,0.88737,-1.9384,-0.45108,-1.6281
-0.6346,-1.1574,0.89311,-1.9255,-0.43945,-1.6194
-0.6254,-1.1565,0.89886,-1.9126,-0.42778,-1.6107
-0.61622,-1.1556,0.90461,-1.8996,-0.41608,-1.6019
-0.60706,-1.1547,0.91036,-1.8866,-0.40435,-1.5931
-0.59793,-1.1538,0.91611,-1.8736,-0.39259,-1.5843
-0.58882,-1.1529,0.92187,-1.8605,-0.38079,-1.5755
-0.57973,-1.1521,0.92763,-1.8475,-0.36896,-1.5666
-0.57066,-1.1513,0.9334,-1.8344,-0.35711,-1.5577
-0.56162,-1.1505,0.93916,-1.8213,-0.34522,-1.5488
-0.5526,-1.1497,0.94493,-1.8081,-0.3333,-1.5399
-0.5436,-1.149,0.95069,-1.795,-0.32136,-1.5309
-0.53463,-1.1482,0.95646,-1.7818,-0.30938,-1.5219
-0.52568,-1.1475,0.96222,-1.7686,-0.29738,-1.5129
-0.51676,-1.1468,0.96798,-1.7553,-0.28535,-1.5039
-0.50786,-1.1462,0.97375,-1.7421,-0.2733,-1.4948
-0.49899,-1.1455,0.9795,-1.7288,-0.26121,-1.4858
-0.49014,-1.1448,0.98526,-1.7155,-0.24911,-1.4766
-0.48131,-1.1442,0.99101,-1.7022,-0.23697,-1.4675
-0.47251,-1.1436,0.99676,-1.6889,-0.22481,-1.4584
-0.46374,-1.143,1.0025,-1.6756,-0.21263,-1.4492
-0.45499,-1.1424,1.0082,-1.6622,-0.20042,-1.44
-0.44627,-1.1419,1.014,-1.6489,-0.18819,-1.4308
-0.43757,-1.1413,1.0197,-1.6355,-0.17593,-1.4216
-0.4289,-1.1408,1.0254,-1.6221,-0.16365,-1.4124
-0.42026,-1.1403,1.0311,-1.6087,-0.15135,-1.4031
-0.41164,-1.1398,1.0368,-1.5952,-0.13903,-1.3938
-0.40305,-1.1393,1.0425,-1.5818,-0.12669,-1.3845
-0.39449,-1.1389,1.0482,-1.5683,-0.11433,-1.3752
-0.38595,-1.1384,1.0539,-1.5549,-0.10194,-1.3659
-0.37744,-1.138,1.0596,-1.5414,-0.089542,-1.3566
-0.36896,-1.1376,1.0652,-1.5279,-0.07712,-1.3472
-0.36051,-1.1372,1.0709,-1.5144,-0.06468,-1.3378
-0.35208,-1.1368,1.0765,-1.5009,-0.052221,-1.3284
-0.34368,-1.1364,1.0822,-1.4874,-0.039745,-1.319
-0.33531,-1.1361,1.0878,-1.4739,-0.027252,-1.3096
-0.32697,-1.1357,1.0934,-1.4603,-0.014743,-1.3002
-0.31866,-1.1354,1.099,-1.4468,-0.0022172,-1.2908
-0.31037,-1.1351,1.1045,-1.4332,0.010324,-1.2813
-0.30212,-1.1348,1.1101,-1.4197,0.02288,-1.2718
-0.29389,-1.1345,1.1156,-1.4061,0.03545,-1.2624
-0.2857,-1.1342,1.1212,-1.3926,0.048034,-1.2529
-0.27753,-1.134,1.1267,-1.379,0.060631,-1.2434
-0.26939,-1.1337,1.1322,-1.3654,0.073242,-1.2339
-0.26128,-1.1335,1.1377,-1.3519,0.085864,-1.2244
-0.2532,-1.1332,1.1431,-1.3383,0.098499,-1.2148
-0.24516,-1.133,1.1486,-1.3247,0.11114,-1.2053
-0.23714,-1.1328,1.154,-1.3111,0.1238,-1.1958
-0.22915,-1.1326,1.1594,-1.2975,0.13647,-1.1862
-0.22119,-1.1324,1.1648,-1.284,0.14914,-1.1767
-0.21326,-1.1323,1.1701,-1.2704,0.16183,-1.1671
-0.20537,-1.1321,1.1755,-1.2568,0.17452,-1.1575
-0.1975,-1.132,1.1808,-1.2432,0.18722,-1.148
-0.18967,-1.1318,1.1861,-1.2297,0.19993,-1.1384
-0.18186,-1.1317,1.1914,-1.2161,0.21265,-1.1288
-0.17409,-1.1316,1.1966,-1.2025,0.22537,-1.1192
-0.16635,-1.1315,1.2019,-1.189,0.2381,-1.1096
-0.15864,-1.1314,1.2071,-1.1754,0.25083,-1.1
-0.15096,-1.1313,1.2123,-1.1619,0.26357,-1.0904
-0.14331,-1.1312,1.2174,-1.1483,0.27632,-1.0808
-0.1357,-1.1311,1.2226,-1.1348,0.28906,-1.0712
-0.12812,-1.1311,1.2277,-1.1212,0.30181,-1.0616
-0.12057,-1.131,1.2327,-1.1077,0.31456,-1.052
-0.11305,-1.131,1.2378,-1.0942,0.32732,-1.0424
-0.10556,-1.1309,1.2428,-1.0807,0.34007,-1.0328
-0.098106,-1.1309,1.2478,-1.0672,0.35283,-1.0232
-0.090685,-1.1309,1.2528,-1.0537,0.36559,-1.0136
-0.083296,-1.1308,1.2577,-1.0402,0.37834,-1.004
-0.075939,-1.1308,1.2626,-1.0268,0.3911,-0.99439
-0.068616,-1.1308,1.2675,-1.0133,0.40386,-0.98479
-0.061325,-1.1308,1.2723,-0.99986,0.41661,-0.97519
-0.054067,-1.1308,1.2771,-0.98643,0.42936,-0.9656
-0.046842,-1.1309,1.2819,-0.97301,0.44211,-0.956
-0.039651,-1.1309,1.2867,-0.95961,0.45485,-0.94642
-0.032492,-1.1309,1.2914,-0.94623,0.46759,-0.93683
-0.025367,-1.1309,1.2961,-0.93286,0.48033,-0.92725
-0.018276,-1.131,1.3007,-0.9195,0.49306,-0.91767
-0.011217,-1.131,1.3053,-0.90617,0.50579,-0.9081
-0.0041926,-1.1311,1.3099,-0.89285,0.51851,-0.89854
0.0027984,-1.1311,1.3145,-0.87955,0.53122,-0.88898
0.0097557,-1.1312,1.319,-0.86626,0.54392,-0.87943
0.016679,-1.1312,1.3234,-0.853,0.55662,-0.86988
0.023569,-1.1313,1.3279,-0.83975,0.56931,-0.86034
0.030425,-1.1313,1.3323,-0.82653,0.58199,-0.85081
0.037246,-1.1314,1.3366,-0.81333,0.59466,-0.84129
0.044034,-1.1315,1.341,-0.80015,0.60732,-0.83178
0.050788,-1.1316,1.3452,-0.78699,0.61997,-0.82227
0.057507,-1.1316,1.3495,-0.77385,0.63261,-0.81278
0.064192,-1.1317,1.3537,-0.76074,0.64524,-0.8033
0.070843,-1.1318,1.3578,-0.74765,0.65785,-0.79382
0.07746,-1.1319,1.362,-0.73458,0.67045,-0.78436
0.084042,-1.132,1.366,-0.72154,0.68304,-0.7749
0.09059,-1.1321,1.3701,-0.70853,0.69562,-0.76546
0.097103,-1.1321,1.3741,-0.69554,0.70818,-0.75603
0.10358,-1.1322,1.378,-0.68257,0.72072,-0.74661
0.11003,-1.1323,1.3819,-0.66964,0.73325,-0.73721
0.11644,-1.1324,1.3858,-0.65673,0.74576,-0.72782
0.12281,-1.1325,1.3896,-0.64385,0.75826,-0.71844
0.12915,-1.1326,1.3934,-0.63101,0.77074,-0.70907
0.13546,-1.1327,1.3971,-0.61819,0.7832,-0.69972
0.14173,-1.1328,1.4008,-0.6054,0.79565,-0.69039
0.14796,-1.1329,1.4044,-0.59264,0.80807,-0.68107
0.15416,-1.133,1.408,-0.57991,0.82048,-0.67176
0.16033,-1.1331,1.4116,-0.56721,0.83286,-0.66247
0.16646,-1.1332,1.4151,-0.55455,0.84523,-0.65319
0.17256,-1.1332,1.4185,-0.54192,0.85757,-0.64394
0.17862,-1.1333,1.4219,-0.52932,0.8699,-0.63469
0.18465,-1.1334,1.4253,-0.51676,0.8822,-0.62547
0.19064,-1.1335,1.4286,-0.50423,0.89447,-0.61626
0.1966,-1.1336,1.4318,-0.49174,0.90673,-0.60707
0.20252,-1.1337,1.435,-0.47928,0.91896,-0.5979
0.20841,-1.1337,1.4382,-0.46686,0.93117,-0.58875
0.21426,-1.1338,1.4413,-0.45448,0.94335,-0.57962
0.22008,-1.1339,1.4443,-0.44213,0.95551,-0.5705
0.22586,-1.134,1.4473,-0.42982,0.96764,-0.56141
0.23161,-1.134,1.4502,-0.41756,0.97974,-0.55234
0.23732,-1.1341,1.4531,-0.40532,0.99182,-0.54328
0.24299,-1.1341,1.456,-0.39313,1.0039,-0.53425
0.24864,-1.1342,1.4588,-0.38098,1.0159,-0.52523
0.25424,-1.1342,1.4615,-0.36887,1.0279,-0.51624
0.25982,-1.1343,1.4642,-0.3568,1.0399,-0.50727
0.26535,-1.1343,1.4668,-0.34478,1.0518,-0.49833
0.27086,-1.1344,1.4693,-0.33279,1.0637,-0.4894
0.27633,-1.1344,1.4718,-0.32085,1.0756,-0.4805
0.28176,-1.1344,1.4743,-0.30895,1.0874,-0.47162
0.28716,-1.1344,1.4767,-0.2971,1.0992,-0.46276
0.29252,-1.1345,1.479,-0.28529,1.111,-0.45393
0.29785,-1.1345,1.4813,-0.27352,1.1227,-0.44512
0.30314,-1.1345,1.4835,-0.2618,1.1345,-0.43633
0.3084,-1.1345,1.4857,-0.25013,1.1461,-0.42757
0.31363,-1.1345,1.4878,-0.2385,1.1578,-0.41884
0.31882,-1.1344,1.4898,-0.22692,1.1694,-0.41012
0.32397,-1.1344,1.4918,-0.21538,1.181,-0.40144
0.32909,-1.1344,1.4938,-0.2039,1.1925,-0.39278
0.33418,-1.1343,1.4956,-0.19246,1.204,-0.38415
0.33923,-1.1343,1.4974,-0.18107,1.2155,-0.37554
0.34425,-1.1343,1.4992,-0.16973,1.2269,-0.36696
0.34923,-1.1342,1.5009,-0.15845,1.2383,-0.3584
0.35418,-1.1341,1.5025,-0.14721,1.2497,-0.34988
0.35909,-1.1341,1.5041,-0.13602,1.261,-0.34138
0.36397,-1.134,1.5056,-0.12488,1.2723,-0.33291
0.36881,-1.1339,1.507,-0.1138,1.2835,-0.32446
0.37363,-1.1338,1.5084,-0.10277,1.2947,-0.31605
0.3784,-1.1337,1.5097,-0.091791,1.3058,-0.30766
0.38315,-1.1336,1.5109,-0.080866,1.317,-0.2993
0.38785,-1.1334,1.5121,-0.069994,1.328,-0.29097
0.39253,-1.1333,1.5132,-0.059177,1.3391,-0.28267
0.39717,-1.1331,1.5143,-0.048415,1.3501,-0.2744
0.40178,-1.133,1.5153,-0.037707,1.361,-0.26616
0.40635,-1.1328,1.5162,-0.027056,1.3719,-0.25795
0.41089,-1.1327,1.5171,-0.016461,1.3828,-0.24977
0.4154,-1.1325,1.5178,-0.0059218,1.3936,-0.24163
0.41987,-1.1323,1.5186,0.0045599,1.4043,-0.23351
0.42431,-1.1321,1.5192,0.014984,1.4151,-0.22542
0.42872,-1.1319,1.5198,0.02535,1.4257,-0.21736
0.43309,-1.1316,1.5204,0.035658,1.4364,-0.20934
0.43743,-1.1314,1.5208,0.045908,1.447,-0.20135
0.44174,-1.1311,1.5212,0.056097,1.4575,-0.19339
0.44601,-1.1309,1.5215,0.066228,1.468,-0.18546
0.45025,-1.1306,1.5218,0.076298,1.4784,-0.17756
0.45446,-1.1303,1.522,0.086307,1.4888,-0.1697
0.45863,-1.13,1.5221,0.096256,1.4991,-0.16187
0.46278,-1.1297,1.5221,0.10614,1.5094,-0.15407
0.46688,-1.1294,1.5221,0.11597,1.5197,-0.14631
0.47096,-1.1291,1.522,0.12573,1.5299,-0.13858
0.47501,-1.1287,1.5219,0.13543,1.54,-0.13088
0.47902,-1.1284,1.5216,0.14507,1.5501,-0.12322
0.483,-1.128,1.5214,0.15464,1.5601,-0.11559
0.48695,-1.1276,1.521,0.16415,1.5701,-0.108
0.49087,-1.1272,1.5205,0.1736,1.5801,-0.10044
0.49475,-1.1268,1.52,0.18298,1.5899,-0.092912
0.4986,-1.1264,1.5195,0.1923,1.5998,-0.085422
0.50242,-1.126,1.5188,0.20155,1.6095,-0.077967
0.50621,-1.1255,1.5181,0.21074,1.6193,-0.070547
0.50997,-1.1251,1.5173,0.21985,1.6289,-0.063163
0.5137,-1.1246,1.5164,0.22891,1.6385,-0.055814
0.5174,-1.1241,1.5155,0.23789,1.6481,-0.048501
0.52106,-1.1236,1.5145,0.24681,1.6576,-0.041224
0.5247,-1.1231,1.5134,0.25566,1.667,-0.033983
0.5283,-1.1226,1.5122,0.26445,1.6764,-0.026779
0.53187,-1.1221,1.511,0.27316,1.6857,-0.01961
0.53541,-1.1215,1.5097,0.28181,1.695,-0.012479
0.53892,-1.1209,1.5083,0.29038,1.7042,-0.0053835
0.54241,-1.1203,1.5069,0.29889,1.7134,0.0016747
0.54586,-1.1197,1.5053,0.30733,1.7225,0.0086958
0.54928,-1.1191,1.5037,0.3157,1.7315,0.01568
0.55267,-1.1185,1.5021,0.32399,1.7405,0.022627
0.55603,-1.1179,1.5003,0.33222,1.7494,0.029536
0.55936,-1.1172,1.4985,0.34038,1.7582,0.036408
0.56267,-1.1165,1.4966,0.34846,1.767,0.043242
0.56594,-1.1158,1.4946,0.35647,1.7758,0.050038
0.56918,-1.1151,1.4926,0.36441,1.7844,0.056797
0.5724,-1.1144,1.4905,0.37228,1.793,0.063517
0.57558,-1.1137,1.4883,0.38008,1.8016,0.070199
0.57874,-1.1129,1.486,0.3878,1.8101,0.076843
0.58187,-1.1122,1.4837,0.39545,1.8185,0.083449
0.58497,-1.1114,1.4812,0.40303,1.8269,0.090016
0.58804,-1.1106,1.4788,0.41053,1.8351,0.096545
0.59108,-1.1098,1.4762,0.41796,1.8434,0.10303
0.5941,-1.1089,1.4735,0.42531,1.8515,0.10949
0.59709,-1.1081,1.4708,0.43259,1.8597,0.1159
0.60005,-1.1072,1.468,0.4398,1.8677,0.12227
0.60298,-1.1063,1.4651,0.44692,1.8757,0.12861
0.60588,-1.1054,1.4622,0.45398,1.8836,0.1349
0.60876,-1.1045,1.4592,0.46096,1.8914,0.14116
0.61161,-1.1036,1.4561,0.46786,1.8992,0.14737
0.61444,-1.1026,1.4529,0.47468,1.9069,0.15355
0.61723,-1.1017,1.4496,0.48143,1.9145,0.15969
0.62,-1.1007,1.4463,0.48811,1.9221,0.16579
0.62275,-1.0997,1.4429,0.4947,1.9296,0.17185
0.62547,-1.0987,1.4394,0.50122,1.9371,0.17787
0.62816,-1.0977,1.4359,0.50766,1.9444,0.18385
0.63082,-1.0966,1.4322,0.51402,1.9517,0.18979
0.63346,-1.0956,1.4285,0.52031,1.959,0.19569
0.63608,-1.0945,1.4247,0.52652,1.9662,0.20155
0.63867,-1.0934,1.4209,0.53265,1.9733,0.20737
0.64123,-1.0923,1.4169,0.5387,1.9803,0.21315
0.64377,-1.0911,1.4129,0.54467,1.9872,0.21889
0.64628,-1.09,1.4088,0.55056,1.9941,0.22459
0.64877,-1.0888,1.4047,0.55638,2.0009,0.23025
0.65124,-1.0876,1.4004,0.56211,2.0077,0.23588
0.65368,-1.0864,1.3961,0.56777,2.0144,0.24146
0.65609,-1.0852,1.3917,0.57334,2.021,0.247
0.65849,-1.084,1.3872,0.57884,2.0275,0.2525
0.66086,-1.0827,1.3827,0.58425,2.034,0.25796
0.6632,-1.0814,1.378,0.58959,2.0404,0.26338
0.66552,-1.0801,1.3733,0.59484,2.0467,0.26876
0.66782,-1.0788,1.3686,0.60002,2.0529,0.2741
0.6701,-1.0775,1.3637,0.60511,2.0591,0.2794
0.67235,-1.0762,1.3588,0.61012,2.0652,0.28466
0.67458,-1.0748,1.3538,0.61505,2.0713,0.28989
0.67679,-1.0734,1.3487,0.61991,2.0772,0.29507
0.67897,-1.072,1.3435,0.62467,2.0831,0.30021
0.68114,-1.0706,1.3383,0.62936,2.0889,0.30531
0.68328,-1.0692,1.333,0.63397,2.0946,0.31037
0.6854,-1.0677,1.3276,0.63849,2.1003,0.31539
0.6875,-1.0663,1.3221,0.64294,2.1059,0.32037
0.68957,-1.0648,1.3166,0.6473,2.1114,0.32531
0.69163,-1.0633,1.311,0.65158,2.1169,0.33021
0.69367,-1.0618,1.3053,0.65577,2.1222,0.33507
0.69568,-1.0602,1.2995,0.65989,2.1275,0.33989
0.69767,-1.0587,1.2937,0.66392,2.1327,0.34467
0.69965,-1.0571,1.2877,0.66787,2.1379,0.34942
0.7016,-1.0555,1.2818,0.67174,2.1429,0.35412
0.70354,-1.0539,1.2757,0.67552,2.1479,0.35878
0.70545,-1.0523,1.2695,0.67922,2.1528,0.3634
0.70735,-1.0506,1.2633,0.68284,2.1577,0.36799
0.70922,-1.049,1.257,0.68638,2.1624,0.37253
0.71108,-1.0473,1.2507,0.68983,2.1671,0.37703
0.71292,-1.0456,1.2442,0.6932,2.1717,0.3815
0.71473,-1.0439,1.2377,0.69649,2.1762,0.38592
0.71654,-1.0422,1.2311,0.69969,2.1807,0.39031
0.71832,-1.0404,1.2245,0.70281,2.1851,0.39466
0.72008,-1.0386,1.2178,0.70585,2.1894,0.39896
0.72183,-1.0369,1.211,0.70881,2.1936,0.40323
0.72356,-1.0351,1.2041,0.71168,2.1978,0.40746
0.72527,-1.0332,1.1971,0.71446,2.2018,0.41166
0.72697,-1.0314,1.1901,0.71717,2.2058,0.41581
0.72864,-1.0295,1.183,0.71979,2.2097,0.41992
0.73031,-1.0277,1.1758,0.72233,2.2136,0.424
0.73195,-1.0258,1.1686,0.72478,2.2173,0.42803
0.73358,-1.0239,1.1613,0.72715,2.221,0.43203
0.73519,-1.022,1.1539,0.72944,2.2246,0.43599
0.73679,-1.02,1.1464,0.73164,2.2281,0.43992
0.73837,-1.0181,1.1389,0.73376,2.2316,0.4438
0.73993,-1.0161,1.1313,0.7358,2.2349,0.44765
0.74148,-1.0141,1.1236,0.73776,2.2382,0.45145
0.74302,-1.0121,1.1159,0.73963,2.2414,0.45522
0.74454,-1.0101,1.1081,0.74141,2.2446,0.45896
0.74605,-1.008,1.1002,0.74312,2.2476,0.46265
0.74754,-1.006,1.0923,0.74474,2.2506,0.46631
0.74902,-1.0039,1.0843,0.74627,2.2535,0.46993
0.75048,-1.0018,1.0762,0.74773,2.2563,0.47352
0.75193,-0.99971,1.068,0.7491,2.2591,0.47706
0.75337,-0.99758,1.0598,0.75038,2.2617,0.48058
0.75479,-0.99545,1.0515,0.75159,2.2643,0.48405
0.7562,-0.99329,1.0431,0.75271,2.2668,0.48749
0.7576,-0.99112,1.0347,0.75375,2.2692,0.49089
0.75899,-0.98893,1.0262,0.7547,2.2716,0.49425
0.76036,-0.98673,1.0176,0.75558,2.2738,0.49758
0.76172,-0.98451,1.009,0.75637,2.276,0.50087
0.76307,-0.98228,1.0003,0.75707,2.2781,0.50413
0.76441,-0.98003,0.99154,0.7577,2.2802,0.50735
0.76573,-0.97776,0.98271,0.75824,2.2821,0.51054
0.76705,-0.97548,0.97381,0.7587,2.284,0.51369
0.76835,-0.97319,0.96485,0.75908,2.2858,0.5168
0.76965,-0.97088,0.95582,0.75937,2.2875,0.51988
0.77093,-0.96855,0.94673,0.75958,2.2891,0.52293
0.7722,-0.96621,0.93758,0.75971,2.2907,0.52594
0.77346,-0.96385,0.92836,0.75976,2.2921,0.52892
0.77472,-0.96148,0.91907,0.75973,2.2935,0.53186
0.77596,-0.95909,0.90972,0.75962,2.2948,0.53477
0.77719,-0.95669,0.90031,0.75942,2.2961,0.53764
0.77842,-0.95428,0.89084,0.75914,2.2972,0.54048
0.77963,-0.95185,0.88131,0.75878,2.2983,0.54329
0.78084,-0.94941,0.87171,0.75834,2.2993,0.54606
0.78204,-0.94695,0.86205,0.75782,2.3002,0.5488
0.78323,-0.94448,0.85233,0.75722,2.3011,0.55151
0.78441,-0.94199,0.84255,0.75654,2.3018,0.55418
0.78559,-0.93949,0.83271,0.75577,2.3025,0.55682
0.78675,-0.93698,0.82281,0.75493,2.3031,0.55943
0.78791,-0.93446,0.81285,0.75401,2.3037,0.56201
0.78907,-0.93192,0.80283,0.753,2.3041,0.56456
0.79021,-0.92936,0.79275,0.75192,2.3045,0.56707
0.79135,-0.9268,0.78262,0.75076,2.3048,0.56955
0.79248,-0.92422,0.77242,0.74951,2.305,0.572
0.79361,-0.92163,0.76217,0.74819,2.3051,0.57442
0.79473,-0.91903,0.75186,0.74679,2.3052,0.57681
0.79585,-0.91641,0.74149,0.74531,2.3051,0.57917
0.79696,-0.91378,0.73107,0.74375,2.305,0.58149
0.79806,-0.91114,0.72059,0.74211,2.3049,0.58379
0.79916,-0.90849,0.71006,0.7404,2.3046,0.58606
0.80025,-0.90582,0.69947,0.7386,2.3043,0.5883
0.80134,-0.90315,0.68883,0.73673,2.3039,0.5905
0.80243,-0.90046,0.67813,0.73478,2.3034,0.59268
0.80351,-0.89776,0.66738,0.73275,2.3028,0.59483
0.80458,-0.89505,0.65658,0.73065,2.3022,0.59695
0.80566,-0.89233,0.64572,0.72847,2.3015,0.59904
0.80673,-0.8896,0.63481,0.72621,2.3007,0.6011
0.80779,-0.88686,0.62385,0.72387,2.2998,0.60314
0.80886,-0.8841,0.61284,0.72146,2.2988,0.60514
0.80992,-0.88134,0.60177,0.71897,2.2978,0.60712
0.81097,-0.87856,0.59066,0.71641,2.2967,0.60907
0.81203,-0.87578,0.5795,0.71377,2.2955,0.611
0.81308,-0.87299,0.56829,0.71106,2.2943,0.61289
0.81413,-0.87018,0.55702,0.70827,2.2929,0.61476
0.81518,-0.86737,0.54571,0.70541,2.2915,0.61661
0.81623,-0.86455,0.53436,0.70247,2.2901,0.61842
0.81728,-0.86172,0.52295,0.69945,2.2885,0.62021
0.81832,-0.85887,0.5115,0.69637,2.2869,0.62198
0.81937,-0.85603,0.5,0.69321,2.2852,0.62372
0.82041,-0.85317,0.48845,0.68997,2.2834,0.62543
0.82146,-0.8503,0.47686,0.68667,2.2815,0.62712
0.8225,-0.84743,0.46523,0.68329,2.2796,0.62879
0.82355,-0.84454,0.45355,0.67983,2.2776,0.63043
0.82459,-0.84165,0.44183,0.67631,2.2755,0.63204
0.82563,-0.83876,0.43006,0.67271,2.2733,0.63364
0.82668,-0.83585,0.41825,0.66905,2.2711,0.6352
0.82772,-0.83294,0.4064,0.66531,2.2688,0.63675
0.82877,-0.83002,0.39451,0.6615,2.2664,0.63827
0.82982,-0.82709,0.38257,0.65761,2.264,0.63977
0.83087,-0.82416,0.3706,0.65366,2.2615,0.64124
0.83192,-0.82122,0.35858,0.64964,2.2589,0.6427
0.83298,-0.81827,0.34653,0.64555,2.2562,0.64413
0.83403,-0.81532,0.33443,0.64139,2.2535,0.64554
0.83509,-0.81236,0.3223,0.63716,2.2507,0.64693
0.83615,-0.8094,0.31013,0.63286,2.2478,0.64829
0.83721,-0.80643,0.29792,0.62849,2.2448,0.64964
0.83828,-0.80346,0.28568,0.62406,2.2418,0.65096
0.83935,-0.80048,0.2734,0.61955,2.2387,0.65227
0.84042,-0.7975,0.26108,0.61498,2.2355,0.65355
0.8415,-0.79451,0.24873,0.61035,2.2323,0.65482
0.84258,-0.79152,0.23635,0.60564,2.229,0.65606
0.84366,-0.78852,0.22393,0.60087,2.2256,0.65729
0.84475,-0.78552,0.21148,0.59604,2.2222,0.65849
0.84585,-0.78252,0.19899,0.59113,2.2186,0.65968
0.84694,-0.77951,0.18647,0.58617,2.2151,0.66085
0.84805,-0.7765,0.17393,0.58114,2.2114,0.662
0.84915,-0.77349,0.16135,0.57604,2.2077,0.66313
0.85027,-0.77047,0.14873,0.57088,2.2039,0.66425
0.85139,-0.76745,0.13609,0.56565,2.2,0.66535
0.85251,-0.76443,0.12343,0.56037,2.1961,0.66643
0.85364,-0.76141,0.11073,0.55502,2.1921,0.66749
0.85478,-0.75838,0.098002,0.5496,2.188,0.66854
0.85592,-0.75536,0.085249,0.54413,2.1839,0.66957
0.85707,-0.75233,0.072469,0.53859,2.1797,0.67058
0.85822,-0.7493,0.059663,0.53299,2.1754,0.67158
0.85938,-0.74627,0.046831,0.52733,2.1711,0.67257
0.86055,-0.74324,0.033975,0.52161,2.1667,0.67354
0.86173,-0.74021,0.021094,0.51583,2.1623,0.67449
0.86291,-0.73718,0.0081893,0.50999,2.1577,0.67543
0.8641,-0.73415,-0.0047383,0.50409,2.1531,0.67636
0.8653,-0.73112,-0.017688,0.49813,2.1485,0.67727
0.86651,-0.72809,-0.03066,0.49212,2.1438,0.67817
0.86772,-0.72506,-0.043653,0.48604,2.139,0.67905
0.86894,-0.72203,-0.056667,0.47991,2.1341,0.67993
0.87018,-0.719,-0.069701,0.47372,2.1292,0.68079
0.87142,-0.71598,-0.082754,0.46747,2.1243,0.68163
0.87266,-0.71296,-0.095825,0.46117,2.1192,0.68247
0.87392,-0.70993,-0.10891,0.45481,2.1141,0.68329
0.87519,-0.70692,-0.12202,0.4484,2.109,0.6841
0.87647,-0.7039,-0.13515,0.44193,2.1038,0.6849
0.87775,-0.70089,-0.14829,0.4354,2.0985,0.68569
0.87905,-0.69788,-0.16144,0.42882,2.0931,0.68647
0.88035,-0.69487,-0.17461,0.42219,2.0877,0.68724
0.88167,-0.69186,-0.1878,0.4155,2.0823,0.688
0.88299,-0.68886,-0.20099,0.40876,2.0768,0.68875
0.88433,-0.68587,-0.2142,0.40197,2.0712,0.68949
0.88568,-0.68288,-0.22743,0.39513,2.0655,0.69022
0.88703,-0.67989,-0.24066,0.38823,2.0598,0.69094
0.8884,-0.67691,-0.25391,0.38129,2.0541,0.69165
0.88978,-0.67393,-0.26716,0.37429,2.0483,0.69236
0.89117,-0.67096,-0.28043,0.36724,2.0424,0.69305
0.89257,-0.66799,-0.29371,0.36015,2.0365,0.69374
0.89399,-0.66503,-0.30699,0.353,2.0305,0.69442
0.89541,-0.66208,-0.32028,0.34581,2.0244,0.6951
0.89685,-0.65913,-0.33358,0.33856,2.0183,0.69577
0.8983,-0.65619,-0.34688,0.33127,2.0122,0.69643
0.89976,-0.65326,-0.36019,0.32393,2.006,0.69708
0.90123,-0.65033,-0.37351,0.31655,1.9997,0.69773
0.90272,-0.64741,-0.38682,0.30912,1.9934,0.69837
0.90422,-0.6445,-0.40015,0.30164,1.987,0.69901
0.90573,-0.6416,-0.41347,0.29412,1.9806,0.69965
0.90725,-0.6387,-0.4268,0.28655,1.9741,0.70027
0.90879,-0.63582,-0.44013,0.27894,1.9676,0.7009
0.91034,-0.63294,-0.45346,0.27128,1.961,0.70152
0.9119,-0.63007,-0.46679,0.26358,1.9544,0.70213
0.91348,-0.62721,-0.48013,0.25583,1.9477,0.70275
0.91507,-0.62436,-0.49346,0.24805,1.941,0.70336
0.91668,-0.62152,-0.50678,0.24022,1.9342,0.70396
0.91829,-0.61869,-0.52011,0.23235,1.9273,0.70457
0.91993,-0.61587,-0.53343,0.22444,1.9204,0.70517
0.92157,-0.61306,-0.54675,0.21649,1.9135,0.70577
0.92323,-0.61026,-0.56007,0.2085,1.9065,0.70636
0.92491,-0.60747,-0.57338,0.20047,1.8995,0.70696
0.9266,-0.6047,-0.58669,0.1924,1.8924,0.70755
0.9283,-0.60193,-0.59998,0.18429,1.8853,0.70815
0.93002,-0.59918,-0.61328,0.17614,1.8781,0.70874
0.93176,-0.59644,-0.62656,0.16795,1.8709,0.70933
0.93351,-0.59371,-0.63984,0.15973,1.8636,0.70993
0.93527,-0.591,-0.6531,0.15147,1.8563,0.71052
0.93705,-0.5883,-0.66636,0.14318,1.8489,0.71111
0.93885,-0.58561,-0.67961,0.13485,1.8415,0.71171
0.94066,-0.58294,-0.69284,0.12648,1.8341,0.7123
0.94248,-0.58028,-0.70607,0.11808,1.8266,0.7129
0.94433,-0.57763,-0.71928,0.10965,1.819,0.71349
0.94618,-0.575,-0.73248,0.10118,1.8114,0.71409
0.94806,-0.57238,-0.74566,0.092682,1.8038,0.71469
0.94995,-0.56978,-0.75883,0.084149,1.7961,0.7153
0.95185,-0.56719,-0.77199,0.075583,1.7884,0.71591
0.95378,-0.56462,-0.78513,0.066986,1.7807,0.71652
0.95572,-0.56206,-0.79825,0.058358,1.7729,0.71713
0.95767,-0.55952,-0.81136,0.0497,1.7651,0.71774
0.95964,-0.557,-0.82444,0.041011,1.7572,0.71836
0.96163,-0.55449,-0.83752,0.032293,1.7493,0.71899
0.96364,-0.552,-0.85057,0.023547,1.7413,0.71962
0.96566,-0.54953,-0.8636,0.014771,1.7333,0.72025
0.9677,-0.54707,-0.87661,0.0059679,1.7253,0.72089
0.96976,-0.54464,-0.8896,-0.0028629,1.7172,0.72153
0.97183,-0.54221,-0.90257,-0.01172,1.7091,0.72218
0.97392,-0.53981,-0.91551,-0.020605,1.701,0.72283
0.97603,-0.53743,-0.92844,-0.029514,1.6928,0.72349
0.97816,-0.53506,-0.94134,-0.03845,1.6846,0.72416
0.9803,-0.53272,-0.95421,-0.04741,1.6763,0.72483
0.98246,-0.53039,-0.96706,-0.056394,1.668,0.72551
0.98464,-0.52808,-0.97989,-0.065402,1.6597,0.72619
0.98684,-0.5258,-0.99268,-0.074434,1.6514,0.72688
0.98905,-0.52353,-1.0055,-0.083488,1.643,0.72758
0.99128,-0.52128,-1.0182,-0.092564,1.6346,0.72829
0.99353,-0.51905,-1.0309,-0.10166,1.6261,0.72901
0.9958,-0.51685,-1.0436,-0.11078,1.6176,0.72973
0.99809,-0.51466,-1.0563,-0.11992,1.6091,0.73046
1.0004,-0.5125,-1.0689,-0.12908,1.6006,0.7312
1.0027,-0.51036,-1.0815,-0.13826,1.592,0.73195
1.0051,-0.50824,-1.094,-0.14746,1.5834,0.73271
1.0074,-0.50614,-1.1066,-0.15668,1.5747,0.73348
1.0098,-0.50406,-1.1191,-0.16591,1.5661,0.73425
1.0122,-0.50201,-1.1315,-0.17517,1.5574,0.73504
1.0146,-0.49998,-1.144,-0.18444,1.5486,0.73584
1.017,-0.49797,-1.1564,-0.19372,1.5399,0.73665
1.0195,-0.49599,-1.1687,-0.20302,1.5311,0.73746
1.022,-0.49403,-1.1811,-0.21234,1.5223,0.73829
1.0244,-0.4921,-1.1933,-0.22168,1.5135,0.73913
1.027,-0.49018,-1.2056,-0.23102,1.5046,0.73998
1.0295,-0.4883,-1.2178,-0.24038,1.4957,0.74084
1.032,-0.48643,-1.23,-0.24976,1.4868,0.74171
1.0346,-0.4846,-1.2421,-0.25915,1.4779,0.7426
1.0372,-0.48278,-1.2542,-0.26855,1.4689,0.7435
1.0398,-0.481,-1.2663,-0.27796,1.4599,0.7444
1.0424,-0.47923,-1.2783,-0.28738,1.4509,0.74533
1.045,-0.4775,-1.2903,-0.29681,1.4419,0.74626
1.0477,-0.47579,-1.3022,-0.30626,1.4328,0.74721
1.0504,-0.47411,-1.3141,-0.31571,1.4238,0.74817
1.0531,-0.47245,-1.3259,-0.32517,1.4147,0.74914
1.0558,-0.47082,-1.3377,-0.33465,1.4056,0.75013
1.0585,-0.46922,-1.3495,-0.34413,1.3964,0.75113
1.0613,-0.46764,-1.3612,-0.35361,1.3873,0.75214
1.0641,-0.4661,-1.3728,-0.36311,1.3781,0.75317
1.0669,-0.46458,-1.3845,-0.37261,1.3689,0.75421
1.0697,-0.46309,-1.396,-0.38212,1.3597,0.75527
1.0725,-0.46162,-1.4076,-0.39163,1.3505,0.75634
1.0754,-0.46019,-1.419,-0.40115,1.3412,0.75742
1.0782,-0.45878,-1.4305,-0.41067,1.332,0.75853
1.0811,-0.45741,-1.4418,-0.4202,1.3227,0.75964
1.084,-0.45606,-1.4532,-0.42973,1.3134,0.76077
1.087,-0.45474,-1.4644,-0.43927,1.3041,0.76192
1.0899,-0.45346,-1.4757,-0.44881,1.2948,0.76308
1.0929,-0.4522,-1.4868,-0.45834,1.2854,0.76426
1.0959,-0.45097,-1.4979,-0.46789,1.2761,0.76546
1.0989,-0.44977,-1.509,-0.47743,1.2667,0.76667
1.1019,-0.44861,-1.52,-0.48697,1.2573,0.76789
1.1049,-0.44747,-1.531,-0.49651,1.2479,0.76914
1.108,-0.44637,-1.5419,-0.50606,1.2385,0.7704
1.1111,-0.44529,-1.5527,-0.5156,1.2291,0.77167
1.1142,-0.44425,-1.5635,-0.52514,1.2197,0.77297
1.1173,-0.44324,-1.5743,-0.53468,1.2103,0.77428
1.1205,-0.44226,-1.5849,-0.54421,1.2008,0.77561
1.1236,-0.44132,-1.5956,-0.55375,1.1914,0.77695
1.1268,-0.4404,-1.6061,-0.56328,1.1819,0.77831
1.13,-0.43952,-1.6166,-0.57281,1.1724,0.7797
1.1332,-0.43868,-1.6271,-0.58233,1.1629,0.78109
1.1364,-0.43786,-1.6375,-0.59185,1.1535,0.78251
1.1397,-0.43708,-1.6478,-0.60136,1.144,0.78395
1.143,-0.43633,-1.6581,-0.61087,1.1345,0.7854
1.1463,-0.43562,-1.6683,-0.62037,1.125,0.78687
1.1496,-0.43494,-1.6784,-0.62986,1.1154,0.78836
1.1529,-0.43429,-1.6885,-0.63935,1.1059,0.78987
1.1563,-0.43368,-1.6985,-0.64883,1.0964,0.7914
1.1596,-0.4331,-1.7085,-0.6583,1.0869,0.79294
1.163,-0.43256,-1.7184,-0.66776,1.0773,0.79451
1.1664,-0.43205,-1.7282,-0.67722,1.0678,0.79609
1.1699,-0.43158,-1.7379,-0.68666,1.0583,0.79769
1.1733,-0.43114,-1.7476,-0.6961,1.0487,0.79932
1.1768,-0.43074,-1.7573,-0.70552,1.0392,0.80096
1.1803,-0.43037,-1.7668,-0.71494,1.0297,0.80262
1.1838,-0.43004,-1.7763,-0.72434,1.0201,0.8043
1.1873,-0.42975,-1.7858,-0.73373,1.0106,0.806
1.1908,-0.42949,-1.7951,-0.74311,1.001,0.80772
1.1944,-0.42927,-1.8044,-0.75247,0.99148,0.80946
1.1979,-0.42908,-1.8136,-0.76183,0.98194,0.81123
1.2015,-0.42893,-1.8228,-0.77117,0.9724,0.81301
1.2051,-0.42882,-1.8319,-0.78049,0.96286,0.81481
1.2088,-0.42875,-1.8409,-0.7898,0.95332,0.81663
1.2124,-0.42871,-1.8498,-0.7991,0.94378,0.81847
1.2161,-0.42871,-1.8587,-0.80838,0.93425,0.82033
1.2198,-0.42875,-1.8675,-0.81765,0.92473,0.82221
1.2235,-0.42882,-1.8762,-0.8269,0.9152,0.82412
1.2272,-0.42894,-1.8849,-0.83613,0.90568,0.82604
1.2309,-0.42909,-1.8935,-0.84535,0.89617,0.82799
1.2347,-0.42928,-1.902,-0.85455,0.88666,0.82995
1.2384,-0.42951,-1.9104,-0.86373,0.87716,0.83194
1.2422,-0.42978,-1.9188,-0.87289,0.86766,0.83394
1.246,-0.43008,-1.9271,-0.88203,0.85817,0.83597
1.2498,-0.43043,-1.9353,-0.89116,0.84869,0.83802
1.2537,-0.43081,-1.9434,-0.90026,0.83921,0.84009
1.2575,-0.43123,-1.9515,-0.90935,0.82974,0.84218
1.2614,-0.4317,-1.9595,-0.91842,0.82029,0.84429
1.2653,-0.4322,-1.9674,-0.92746,0.81084,0.84642
1.2692,-0.43274,-1.9752,-0.93648,0.8014,0.84858
1.2731,-0.43332,-1.983,-0.94549,0.79196,0.85075
1.2771,-0.43394,-1.9907,-0.95447,0.78254,0.85295
1.281,-0.4346,-1.9983,-0.96343,0.77313,0.85517
1.285,-0.4353,-2.0058,-0.97236,0.76374,0.85741
1.289,-0.43605,-2.0132,-0.98127,0.75435,0.85967
1.293,-0.43683,-2.0206,-0.99016,0.74497,0.86195
1.297,-0.43765,-2.0279,-0.99903,0.73561,0.86425
1.301,-0.43852,-2.0351,-1.0079,0.72626,0.86658
1.3051,-0.43942,-2.0422,-1.0167,0.71692,0.86892
1.3092,-0.44037,-2.0493,-1.0255,0.7076,0.87129
1.3132,-0.44135,-2.0562,-1.0342,0.69829,0.87368
1.3173,-0.44238,-2.0631,-1.043,0.68899,0.87609
1.3214,-0.44345,-2.0699,-1.0517,0.67971,0.87852
1.3256,-0.44456,-2.0766,-1.0604,0.67044,0.88097
1.3297,-0.44571,-2.0833,-1.069,0.66119,0.88345
1.3339,-0.44691,-2.0898,-1.0777,0.65196,0.88594
1.338,-0.44814,-2.0963,-1.0863,0.64274,0.88846
1.3422,-0.44942,-2.1027,-1.0949,0.63354,0.891
1.3464,-0.45074,-2.109,-1.1034,0.62435,0.89355
1.3506,-0.4521,-2.1152,-1.1119,0.61519,0.89613
1.3549,-0.45351,-2.1213,-1.1204,0.60604,0.89874
1.3591,-0.45495,-2.1274,-1.1289,0.59691,0.90136
1.3634,-0.45644,-2.1333,-1.1373,0.5878,0.904
1.3676,-0.45797,-2.1392,-1.1457,0.5787,0.90667
1.3719,-0.45955,-2.145,-1.1541,0.56963,0.90936
1.3762,-0.46116,-2.1507,-1.1625,0.56058,0.91206
1.3805,-0.46282,-2.1563,-1.1708,0.55154,0.91479
1.3849,-0.46452,-2.1619,-1.179,0.54253,0.91754
1.3892,-0.46627,-2.1673,-1.1873,0.53354,0.92031
1.3935,-0.46805,-2.1727,-1.1955,0.52457,0.9231
1.3979,-0.46988,-2.1779,-1.2037,0.51562,0.92592
1.4023,-0.47176,-2.1831,-1.2119,0.50669,0.92875
1.4067,-0.47368,-2.1882,-1.22,0.49779,0.9316
1.4111,-0.47564,-2.1932,-1.2281,0.4889,0.93448
1.4155,-0.47764,-2.1982,-1.2361,0.48004,0.93737
1.4199,-0.47969,-2.203,-1.2441,0.47121,0.94029
1.4243,-0.48178,-2.2077,-1.2521,0.4624,0.94322
1.4288,-0.48391,-2.2124,-1.2601,0.45361,0.94618
1.4332,-0.48609,-2.217,-1.268,0.44484,0.94915
1.4377,-0.48831,-2.2215,-1.2759,0.43611,0.95215
1.4422,-0.49057,-2.2258,-1.2837,0.42739,0.95517
1.4467,-0.49288,-2.2302,-1.2916,0.4187,0.9582
1.4512,-0.49523,-2.2344,-1.2993,0.41004,0.96126
1.4557,-0.49763,-2.2385,-1.3071,0.4014,0.96434
1.4602,-0.50007,-2.2425,-1.3148,0.39279,0.96743
1.4647,-0.50255,-2.2465,-1.3225,0.38421,0.97055
1.4693,-0.50508,-2.2503,-1.3301,0.37565,0.97369
1.4738,-0.50765,-2.2541,-1.3377,0.36713,0.97684
1.4784,-0.51026,-2.2577,-1.3452,0.35862,0.98001
1.483,-0.51292,-2.2613,-1.3528,0.35015,0.98321
1.4875,-0.51563,-2.2648,-1.3603,0.34171,0.98642
1.4921,-0.51837,-2.2682,-1.3677,0.33329,0.98965
1.4967,-0.52116,-2.2715,-1.3751,0.3249,0.9929
1.5013,-0.524,-2.2747,-1.3825,0.31654,0.99617
1.5059,-0.52688,-2.2779,-1.3898,0.30822,0.99946
1.5106,-0.5298,-2.2809,-1.3971,0.29992,1.0028
1.5152,-0.53277,-2.2838,-1.4044,0.29165,1.0061
1.5198,-0.53578,-2.2867,-1.4116,0.28341,1.0094
1.5245,-0.53884,-2.2894,-1.4187,0.2752,1.0128
1.5291,-0.54194,-2.2921,-1.4259,0.26703,1.0162
1.5338,-0.54508,-2.2947,-1.433,0.25888,1.0196
1.5384,-0.54827,-2.2971,-1.44,0.25077,1.023
1.5431,-0.5515,-2.2995,-1.4471,0.24268,1.0264
1.5478,-0.55478,-2.3018,-1.454,0.23463,1.0299
1.5525,-0.5581,-2.304,-1.461,0.22661,1.0333
1.5572,-0.56146,-2.3061,-1.4679,0.21863,1.0368
1.5619,-0.56487,-2.3081,-1.4747,0.21068,1.0403
1.5666,-0.56832,-2.3101,-1.4815,0.20276,1.0438
1.5713,-0.57182,-2.3119,-1.4883,0.19487,1.0474
1.576,-0.57536,-2.3136,-1.495,0.18702,1.0509
1.5807,-0.57894,-2.3153,-1.5017,0.1792,1.0545
1.5854,-0.58257,-2.3168,-1.5084,0.17141,1.0581
1.5902,-0.58624,-2.3183,-1.515,0.16366,1.0617
1.5949,-0.58996,-2.3197,-1.5215,0.15595,1.0653
1.5996,-0.59372,-2.3209,-1.5281,0.14827,1.0689
1.6044,-0.59752,-2.3221,-1.5345,0.14062,1.0725
1.6091,-0.60137,-2.3232,-1.541,0.13301,1.0762
1.6139,-0.60526,-2.3242,-1.5474,0.12543,1.0799
1.6186,-0.60919,-2.3251,-1.5537,0.11789,1.0836
1.6234,-0.61317,-2.3259,-1.56,0.11039,1.0873
1.6281,-0.61719,-2.3266,-1.5663,0.10292,1.091
1.6329,-0.62126,-2.3272,-1.5725,0.095489,1.0947
1.6376,-0.62537,-2.3278,-1.5787,0.088094,1.0985
1.6424,-0.62952,-2.3282,-1.5848,0.080736,1.1022
1.6472,-0.63372,-2.3285,-1.5909,0.073414,1.106
1.6519,-0.63795,-2.3288,-1.5969,0.06613,1.1098
1.6567,-0.64224,-2.3289,-1.603,0.058883,1.1136
1.6615,-0.64656,-2.329,-1.6089,0.051674,1.1174
1.6662,-0.65093,-2.329,-1.6148,0.044502,1.1212
1.671,-0.65534,-2.3288,-1.6207,0.037368,1.1251
1.6758,-0.65979,-2.3286,-1.6265,0.030272,1.1289
1.6805,-0.66429,-2.3283,-1.6323,0.023214,1.1328
1.6853,-0.66883,-2.3279,-1.638,0.016195,1.1367
1.6901,-0.67341,-2.3274,-1.6437,0.0092144,1.1405
1.6948,-0.67803,-2.3268,-1.6494,0.0022725,1.1444
1.6996,-0.6827,-2.3262,-1.655,-0.0046304,1.1483
1.7044,-0.68741,-2.3254,-1.6605,-0.011494,1.1523
1.7091,-0.69216,-2.3245,-1.6661,-0.018319,1.1562
1.7139,-0.69695,-2.3236,-1.6715,-0.025104,1.1601
1.7187,-0.70178,-2.3225,-1.677,-0.03185,1.1641
1.7234,-0.70666,-2.3214,-1.6823,-0.038556,1.168
1.7282,-0.71158,-2.3201,-1.6877,-0.045222,1.172
1.7329,-0.71654,-2.3188,-1.693,-0.051849,1.176
1.7377,-0.72154,-2.3174,-1.6982,-0.058435,1.18
1.7424,-0.72659,-2.3159,-1.7034,-0.064981,1.184
1.7472,-0.73167,-2.3143,-1.7086,-0.071487,1.188
1.7519,-0.7368,-2.3126,-1.7137,-0.077952,1.192
1.7566,-0.74196,-2.3108,-1.7187,-0.084376,1.196
1.7614,-0.74717,-2.309,-1.7238,-0.09076,1.2
1.7661,-0.75242,-2.307,-1.7287,-0.097103,1.2041
1.7708,-0.75771,-2.305,-1.7337,-0.10341,1.2081
1.7755,-0.76304,-2.3028,-1.7386,-0.10967,1.2122
1.7802,-0.76841,-2.3006,-1.7434,-0.11589,1.2162
1.7849,-0.77382,-2.2983,-1.7482,-0.12206,1.2203
1.7896,-0.77927,-2.2959,-1.7529,-0.1282,1.2244
1.7943,-0.78476,-2.2934,-1.7576,-0.1343,1.2285
1.799,-0.79029,-2.2908,-1.7623,-0.14035,1.2325
1.8037,-0.79586,-2.2881,-1.7669,-0.14636,1.2366
1.8084,-0.80147,-2.2853,-1.7715,-0.15234,1.2407
1.813,-0.80712,-2.2825,-1.776,-0.15826,1.2448
1.8177,-0.81281,-2.2795,-1.7805,-0.16415,1.2489
1.8223,-0.81854,-2.2765,-1.7849,-0.17,1.253
1.827,-0.8243,-2.2734,-1.7893,-0.1758,1.2571
1.8316,-0.83011,-2.2702,-1.7936,-0.18156,1.2613
1.8362,-0.83595,-2.2669,-1.7979,-0.18728,1.2654
1.8409,-0.84183,-2.2635,-1.8022,-0.19296,1.2695
1.8455,-0.84775,-2.26,-1.8064,-0.19859,1.2736
1.8501,-0.85371,-2.2565,-1.8106,-0.20418,1.2777
1.8546,-0.85971,-2.2528,-1.8147,-0.20973,1.2819
1.8592,-0.86574,-2.2491,-1.8187,-0.21524,1.286
1.8638,-0.87181,-2.2453,-1.8228,-0.22071,1.2901
1.8683,-0.87792,-2.2414,-1.8268,-0.22613,1.2943
1.8729,-0.88407,-2.2374,-1.8307,-0.23151,1.2984
1.8774,-0.89025,-2.2333,-1.8346,-0.23684,1.3025
1.882,-0.89647,-2.2292,-1.8384,-0.24214,1.3067
1.8865,-0.90273,-2.2249,-1.8422,-0.24739,1.3108
1.891,-0.90902,-2.2206,-1.846,-0.2526,1.3149
1.8954,-0.91535,-2.2162,-1.8497,-0.25777,1.3191
1.8999,-0.92171,-2.2117,-1.8534,-0.26289,1.3232
1.9044,-0.92811,-2.2071,-1.857,-0.26797,1.3273
1.9088,-0.93455,-2.2024,-1.8606,-0.27301,1.3315
1.9133,-0.94102,-2.1977,-1.8641,-0.27801,1.3356
1.9177,-0.94753,-2.1929,-1.8676,-0.28296,1.3397
1.9221,-0.95407,-2.188,-1.8711,-0.28787,1.3438
1.9265,-0.96065,-2.183,-1.8745,-0.29274,1.348
1.9309,-0.96726,-2.1779,-1.8779,-0.29757,1.3521
1.9352,-0.9739,-2.1727,-1.8812,-0.30235,1.3562
1.9396,-0.98058,-2.1675,-1.8845,-0.30709,1.3603
1.9439,-0.98729,-2.1622,-1.8877,-0.31179,1.3644
1.9482,-0.99404,-2.1568,-1.8909,-0.31644,1.3685
1.9525,-1.0008,-2.1513,-1.894,-0.32105,1.3726
1.9568,-1.0076,-2.1458,-1.8971,-0.32562,1.3767
1.9611,-1.0145,-2.1401,-1.9002,-0.33015,1.3808
1.9653,-1.0214,-2.1344,-1.9032,-0.33463,1.3848
1.9696,-1.0283,-2.1286,-1.9062,-0.33908,1.3889
1.9738,-1.0352,-2.1227,-1.9092,-0.34348,1.393
1.978,-1.0422,-2.1168,-1.9121,-0.34783,1.397
1.9821,-1.0492,-2.1108,-1.9149,-0.35215,1.4011
1.9863,-1.0562,-2.1047,-1.9177,-0.35642,1.4051
1.9905,-1.0633,-2.0985,-1.9205,-0.36065,1.4092
1.9946,-1.0704,-2.0922,-1.9232,-0.36484,1.4132
1.9987,-1.0775,-2.0859,-1.9259,-0.36899,1.4172
2.0028,-1.0847,-2.0795,-1.9286,-0.37309,1.4212
2.0068,-1.0919,-2.073,-1.9312,-0.37715,1.4252
2.0109,-1.0991,-2.0665,-1.9337,-0.38118,1.4292
2.0149,-1.1064,-2.0598,-1.9363,-0.38515,1.4332
2.0189,-1.1136,-2.0531,-1.9387,-0.38909,1.4371
2.0229,-1.1209,-2.0464,-1.9412,-0.39299,1.4411
2.0269,-1.1283,-2.0395,-1.9436,-0.39684,1.4451
2.0308,-1.1357,-2.0326,-1.946,-0.40065,1.449
2.0347,-1.1431,-2.0256,-1.9483,-0.40442,1.4529
2.0386,-1.1505,-2.0185,-1.9506,-0.40815,1.4568
2.0425,-1.1579,-2.0114,-1.9528,-0.41184,1.4607
2.0463,-1.1654,-2.0042,-1.955,-0.41549,1.4646
2.0502,-1.1729,-1.9969,-1.9572,-0.4191,1.4685
2.054,-1.1804,-1.9896,-1.9593,-0.42266,1.4723
2.0577,-1.188,-1.9822,-1.9614,-0.42619,1.4762
2.0615,-1.1956,-1.9747,-1.9635,-0.42967,1.48
2.0652,-1.2032,-1.9671,-1.9655,-0.43312,1.4838
2.0689,-1.2108,-1.9595,-1.9675,-0.43652,1.4876
2.0726,-1.2185,-1.9518,-1.9694,-0.43988,1.4914
2.0763,-1.2262,-1.9441,-1.9713,-0.44321,1.4952
2.0799,-1.2339,-1.9363,-1.9732,-0.44649,1.4989
2.0835,-1.2416,-1.9284,-1.975,-0.44973,1.5027
2.0871,-1.2494,-1.9204,-1.9768,-0.45294,1.5064
2.0907,-1.2572,-1.9124,-1.9786,-0.4561,1.5101
2.0942,-1.265,-1.9043,-1.9803,-0.45922,1.5138
2.0977,-1.2728,-1.8962,-1.982,-0.46231,1.5174
2.1012,-1.2807,-1.888,-1.9836,-0.46535,1.5211
2.1046,-1.2886,-1.8797,-1.9852,-0.46836,1.5247
2.108,-1.2965,-1.8714,-1.9868,-0.47133,1.5283
2.1114,-1.3044,-1.863,-1.9883,-0.47426,1.5319
2.1148,-1.3124,-1.8545,-1.9899,-0.47715,1.5355
2.1181,-1.3203,-1.846,-1.9913,-0.48,1.539
2.1214,-1.3283,-1.8374,-1.9928,-0.48281,1.5425
